<?xml version="1.0" encoding="UTF-8"?>
<map version="1.9" tiledversion="1.9.1" orientation="orthogonal" renderorder="right-down" width="64" height="32" tilewidth="16" tileheight="16" infinite="1" nextlayerid="13" nextobjectid="510">
 <tileset firstgid="1" source="../til/devSet.tsx"/>
 <tileset firstgid="118" source="../til/props.tsx"/>
 <tileset firstgid="764" source="../til/r_tileset0.tsx"/>
 <layer id="5" name="background" width="64" height="32" tintcolor="#433b35">
  <data encoding="csv">
   <chunk x="48" y="16" width="16" height="16">
0,0,0,0,0,0,0,0,0,0,0,0,0,0,0,0,
0,0,0,0,0,0,0,0,0,0,0,0,0,0,0,0,
0,0,0,0,0,0,0,0,0,0,0,0,0,0,0,0,
0,0,0,0,0,0,0,0,0,0,0,0,0,0,0,0,
0,0,0,0,0,0,0,0,0,0,0,0,0,0,0,0,
0,0,0,0,0,0,0,0,0,0,0,0,0,0,0,0,
0,0,0,0,0,0,0,0,0,0,0,0,0,0,0,0,
0,0,0,0,0,0,0,0,0,0,0,0,0,0,0,0,
0,0,0,0,0,0,0,0,0,0,0,0,0,0,0,0,
0,0,0,0,0,0,0,0,0,0,61,62,62,62,63,0,
0,0,0,0,0,0,0,0,0,0,71,71,71,71,71,0,
0,0,0,0,0,0,0,0,0,0,71,71,71,71,71,0,
0,0,0,0,0,0,0,0,0,0,71,71,71,71,71,0,
0,0,0,0,0,0,0,0,0,0,71,71,71,71,71,0,
0,0,0,0,0,0,0,0,0,0,71,71,71,71,71,0,
0,0,0,0,0,0,0,0,0,0,71,71,71,71,71,0
</chunk>
   <chunk x="64" y="16" width="16" height="16">
0,0,0,0,0,0,0,0,0,0,0,0,0,0,0,0,
0,0,0,0,0,0,0,0,0,0,0,0,0,0,0,0,
0,0,0,0,0,0,0,0,0,0,0,0,0,0,0,0,
0,0,0,0,0,0,0,0,0,0,0,0,0,0,0,0,
0,0,0,0,0,0,0,0,0,0,0,0,0,0,0,0,
0,0,0,0,0,0,0,0,0,0,0,0,0,0,0,0,
0,0,0,0,0,0,0,0,0,0,0,0,0,0,0,0,
0,0,0,0,0,0,0,0,0,0,0,0,0,0,0,0,
0,0,0,0,0,0,0,0,0,0,0,0,0,0,0,0,
0,0,0,0,0,0,0,0,0,0,0,61,62,63,61,0,
0,0,0,0,0,0,0,0,0,0,0,70,71,71,71,71,
0,0,0,0,0,0,0,0,0,0,0,70,71,71,71,71,
0,0,0,0,0,0,0,0,0,0,0,70,71,71,71,71,
0,0,0,0,0,0,0,0,0,0,0,70,71,71,71,71,
0,0,0,0,0,0,0,0,0,0,0,70,71,71,71,71,
0,0,0,0,0,0,0,0,0,0,0,70,71,71,71,71
</chunk>
   <chunk x="80" y="16" width="16" height="16">
0,0,0,0,0,0,0,0,0,0,0,0,0,0,0,0,
0,0,0,0,0,0,0,0,0,0,0,0,0,0,0,0,
0,0,0,0,0,0,0,0,0,0,0,0,0,0,0,0,
0,0,0,0,0,0,0,0,0,0,0,0,0,0,0,0,
0,0,0,0,0,0,0,0,0,0,0,0,0,0,0,0,
0,0,0,0,0,0,0,0,0,0,0,0,0,0,0,0,
0,0,0,0,0,0,0,0,0,0,0,0,0,0,0,0,
0,0,0,0,0,0,0,0,0,0,0,0,0,0,0,0,
0,0,0,0,0,0,0,0,0,0,0,0,0,0,0,0,
0,0,0,0,0,71,71,71,71,71,71,71,71,71,71,71,
71,71,71,71,71,71,71,71,71,71,71,71,71,71,71,71,
71,71,71,71,71,71,71,71,71,71,71,71,71,71,71,71,
71,71,71,71,71,71,71,71,71,71,71,71,71,71,71,71,
71,71,71,71,71,71,71,71,71,71,71,71,71,71,71,71,
71,71,71,71,71,71,71,71,71,71,71,71,71,71,71,71,
71,71,71,71,71,71,71,71,71,71,71,71,71,71,71,71
</chunk>
   <chunk x="96" y="16" width="16" height="16">
0,0,0,0,0,0,0,0,0,0,0,0,0,0,0,0,
0,0,0,0,0,0,0,0,0,0,0,0,0,0,0,0,
0,0,0,0,0,0,0,0,0,0,0,0,0,0,0,0,
0,0,0,0,0,0,0,0,0,0,0,0,0,0,0,0,
0,0,0,0,0,0,0,0,0,0,0,0,0,0,0,0,
0,0,0,0,0,0,0,0,0,0,0,0,0,0,0,0,
0,0,0,0,0,0,0,0,0,0,0,0,0,0,0,0,
0,0,0,0,0,0,0,0,0,0,0,0,0,0,0,0,
0,0,0,0,0,0,0,0,0,0,0,0,0,0,0,0,
71,0,0,0,0,0,0,0,0,0,0,71,71,71,71,71,
71,71,71,71,71,71,71,71,71,71,71,71,71,71,71,71,
71,71,71,71,71,71,71,71,71,71,71,71,71,71,71,71,
71,71,71,71,71,71,71,71,71,71,71,71,71,71,71,71,
71,71,71,71,71,71,71,71,71,71,71,71,71,71,71,71,
71,71,71,71,71,71,71,71,71,71,71,71,71,71,71,71,
71,71,71,71,71,71,71,71,71,71,71,71,71,71,71,71
</chunk>
   <chunk x="112" y="16" width="16" height="16">
0,0,0,0,0,0,0,0,0,0,0,0,0,0,0,0,
0,0,0,0,0,0,0,0,0,0,0,0,0,0,0,0,
0,0,0,0,0,0,0,0,0,0,0,0,0,0,0,0,
0,0,0,0,0,0,0,0,0,0,0,0,0,0,0,0,
0,0,0,0,0,0,0,0,0,0,0,0,0,0,0,0,
0,0,0,0,0,0,0,0,0,0,0,0,0,0,0,0,
0,0,0,0,0,0,0,0,0,0,0,0,0,0,0,0,
0,0,0,0,0,0,0,0,0,0,0,0,0,0,0,0,
0,0,0,0,0,0,0,0,0,0,0,0,0,0,0,0,
71,63,0,0,0,0,0,0,0,0,0,0,0,0,0,0,
71,68,63,0,0,0,0,0,0,0,0,0,0,0,0,0,
71,71,11,63,0,0,0,0,0,0,0,0,0,0,0,0,
71,71,71,72,0,0,0,0,0,0,0,0,0,0,0,0,
71,71,71,11,63,0,0,0,0,0,0,0,0,0,0,0,
71,71,71,71,68,62,62,62,62,62,62,63,0,0,0,0,
71,71,71,71,71,71,71,71,71,71,71,71,0,0,0,0
</chunk>
   <chunk x="32" y="32" width="16" height="16">
0,0,0,0,0,0,0,0,0,0,0,71,71,71,71,71,
0,0,0,0,0,0,0,0,0,0,0,71,71,71,71,71,
0,0,0,0,0,0,0,0,0,0,0,71,71,71,71,71,
0,0,0,0,0,0,0,0,0,0,0,71,71,71,71,71,
0,0,0,0,0,0,0,0,0,0,0,71,71,71,71,71,
0,0,0,0,0,0,0,0,0,0,0,71,71,71,71,71,
0,0,0,0,0,0,0,0,0,0,0,71,71,71,71,71,
0,0,0,0,0,0,0,0,0,0,0,71,71,71,71,71,
0,0,0,0,0,0,0,0,0,0,71,71,71,71,71,71,
0,0,0,0,0,0,0,0,0,0,71,71,71,71,71,71,
0,0,0,0,0,0,0,0,0,0,71,71,71,71,71,71,
0,0,0,0,0,0,0,0,0,0,71,71,71,71,71,71,
0,0,0,0,0,0,0,0,0,0,71,71,71,71,71,71,
0,0,0,0,0,0,0,0,0,0,71,71,71,71,71,71,
0,0,0,0,0,0,0,0,0,0,0,71,71,71,71,71,
0,0,0,0,0,0,0,0,0,0,0,71,71,71,71,71
</chunk>
   <chunk x="48" y="32" width="16" height="16">
71,71,71,71,71,0,0,0,0,0,71,71,71,71,71,0,
71,71,71,71,71,0,0,0,0,0,71,71,71,71,71,0,
71,71,71,71,71,0,0,0,0,0,71,71,71,71,71,0,
71,71,71,71,71,0,0,0,0,0,71,71,71,71,71,0,
71,71,71,71,71,0,0,0,0,0,71,71,71,71,71,0,
71,71,71,71,71,0,0,0,0,0,71,71,71,71,71,0,
71,71,71,71,71,71,71,71,71,71,71,71,71,71,71,0,
71,71,71,71,71,71,71,71,71,71,71,71,71,71,71,0,
71,71,71,71,71,71,71,71,71,71,71,71,71,71,71,0,
71,71,71,71,71,71,71,71,71,71,71,71,71,71,71,0,
71,71,71,71,71,71,71,71,71,71,71,71,71,71,71,0,
71,71,71,71,71,71,71,71,71,71,71,71,71,71,71,0,
71,71,71,71,71,71,71,71,71,71,71,71,71,71,71,0,
71,71,71,71,71,71,71,71,71,71,71,71,71,71,71,81,
71,71,71,71,71,71,71,71,71,71,71,71,71,71,71,72,
71,71,71,71,71,71,71,71,71,71,71,71,71,71,71,72
</chunk>
   <chunk x="64" y="32" width="16" height="16">
0,0,0,0,0,0,0,0,0,0,0,70,71,71,71,71,
0,0,0,0,0,0,0,0,0,0,61,10,71,71,71,71,
0,0,0,0,0,0,0,0,0,61,10,71,71,71,71,71,
0,0,0,0,0,0,0,0,0,70,71,71,71,71,71,71,
0,0,0,0,0,0,0,0,0,70,71,71,71,71,71,71,
0,0,0,0,0,0,0,0,0,70,71,71,71,71,71,71,
0,0,0,0,0,0,0,0,0,70,71,71,71,71,71,71,
0,0,0,0,0,0,0,0,0,70,71,71,71,71,71,71,
0,0,0,0,0,0,0,0,0,70,71,71,71,71,71,71,
0,0,0,0,0,0,0,0,0,70,71,71,71,71,71,71,
0,0,0,0,0,0,0,0,61,10,71,71,71,71,71,71,
0,0,0,0,0,0,61,12,13,71,71,71,71,71,71,71,
0,0,0,0,0,0,70,71,71,71,71,71,71,71,71,71,
0,0,0,0,0,0,70,71,71,71,71,71,71,71,71,71,
0,0,0,0,0,0,70,71,71,71,71,71,71,71,71,71,
0,0,0,0,0,0,70,71,71,71,71,71,71,71,71,71
</chunk>
   <chunk x="80" y="32" width="16" height="16">
71,71,71,71,71,71,71,71,71,71,71,71,71,71,71,71,
71,71,71,71,71,71,71,71,71,71,71,71,71,71,71,71,
71,71,71,71,71,71,71,71,71,71,71,71,71,71,71,71,
71,71,71,71,71,71,71,71,71,71,71,71,71,71,71,71,
71,71,71,71,71,71,71,71,71,71,71,71,71,71,71,71,
71,71,71,71,71,71,71,71,71,71,71,71,71,71,71,71,
71,71,71,71,71,71,71,71,71,71,71,71,71,71,71,71,
71,71,71,71,71,71,71,71,71,71,71,71,71,71,71,71,
71,71,71,71,71,71,71,71,71,71,71,71,71,71,71,71,
71,71,71,71,71,71,71,71,71,71,71,71,71,71,71,71,
71,71,71,71,71,71,71,71,71,71,71,71,71,71,71,71,
71,71,71,71,71,71,71,71,71,71,71,71,71,71,71,71,
71,71,71,71,71,71,71,71,71,71,71,71,71,71,71,71,
71,71,71,71,71,71,71,71,71,71,71,71,71,71,71,71,
71,71,71,71,71,71,71,71,71,71,71,71,71,71,71,71,
71,71,71,71,71,71,71,71,71,71,71,71,71,71,71,71
</chunk>
   <chunk x="96" y="32" width="16" height="16">
71,71,71,71,71,71,71,71,71,71,71,71,71,71,71,71,
71,71,71,71,71,71,71,71,71,71,71,71,71,71,71,71,
71,71,71,71,71,71,71,71,71,71,71,71,71,71,71,71,
71,71,71,71,71,71,71,71,71,71,71,71,71,71,71,71,
71,71,71,71,71,71,71,71,71,71,71,71,71,71,71,71,
71,71,71,71,71,71,71,71,71,71,71,71,71,71,71,71,
71,71,71,71,71,71,71,71,71,71,71,71,71,71,71,71,
71,71,71,71,71,71,71,71,71,71,71,71,71,71,71,71,
71,71,71,71,71,71,71,71,71,71,71,71,71,71,71,71,
71,71,71,71,71,71,71,71,71,71,71,71,71,71,71,71,
71,71,71,71,71,71,71,71,71,71,71,71,71,71,71,71,
71,71,71,71,71,71,71,71,71,71,71,71,71,71,71,71,
71,71,71,71,71,71,71,71,71,71,71,71,71,71,71,71,
71,71,71,71,71,71,71,71,71,71,71,71,71,71,71,71,
71,71,71,71,71,71,71,71,71,71,71,71,71,71,71,71,
71,71,71,71,71,71,71,71,71,71,71,71,71,71,71,71
</chunk>
   <chunk x="112" y="32" width="16" height="16">
71,71,71,71,71,71,71,71,71,71,71,71,0,0,0,0,
71,71,71,71,71,71,71,71,71,71,71,71,0,0,0,0,
71,71,71,71,71,71,71,71,71,71,71,71,0,0,0,0,
71,71,71,71,71,71,71,71,71,71,71,71,0,0,0,0,
71,71,71,71,71,71,71,71,71,71,71,71,0,0,0,0,
71,71,71,71,71,71,71,71,71,71,71,0,0,0,0,0,
71,71,71,71,71,71,0,0,0,0,0,0,0,0,0,0,
71,71,71,71,71,71,0,0,0,0,0,0,0,0,0,0,
71,71,71,71,71,71,0,0,0,0,0,0,0,0,0,0,
71,71,71,71,71,71,0,0,0,0,0,0,0,0,0,0,
71,71,71,71,71,71,0,0,0,0,0,0,0,0,0,0,
71,71,71,71,71,71,0,0,0,0,0,0,0,0,0,0,
71,71,71,71,71,71,0,0,0,0,0,0,0,0,0,0,
71,71,71,71,71,71,0,0,0,0,0,0,0,0,0,0,
71,71,71,71,71,71,0,0,0,0,0,0,0,0,0,0,
71,71,71,71,71,71,0,0,0,0,0,0,0,0,0,0
</chunk>
   <chunk x="32" y="48" width="16" height="16">
0,0,0,0,0,0,0,0,0,0,0,71,71,71,71,71,
0,0,0,0,0,0,0,0,0,0,0,71,71,71,71,71,
0,0,0,0,0,0,0,0,0,0,0,0,0,0,0,0,
0,0,0,0,0,0,0,0,0,0,0,0,0,0,0,0,
0,0,0,0,0,0,0,0,0,0,0,0,0,0,0,0,
0,0,0,0,0,0,0,0,0,0,0,0,0,0,0,0,
0,0,0,0,0,0,0,0,0,0,0,0,0,0,0,0,
0,0,0,0,0,0,0,0,0,0,0,0,0,0,0,0,
0,0,0,0,0,0,0,0,0,0,0,0,0,0,0,0,
0,0,0,0,0,0,0,0,0,0,0,0,0,0,0,0,
0,0,0,0,0,0,0,0,0,0,0,0,0,0,0,0,
0,0,0,0,0,0,0,0,0,0,0,0,0,0,0,0,
0,0,0,0,0,0,0,0,0,0,0,0,0,0,0,0,
0,0,0,0,0,0,0,0,0,0,0,0,0,0,0,0,
0,0,0,0,0,0,0,0,0,0,0,0,0,0,0,0,
0,0,0,0,0,0,0,0,0,0,0,0,0,0,0,0
</chunk>
   <chunk x="48" y="48" width="16" height="16">
71,71,71,71,71,71,71,71,71,71,71,71,71,71,71,11,
71,71,71,71,71,71,71,71,71,71,71,71,71,71,71,71,
0,0,0,71,71,71,71,71,71,71,71,71,71,71,71,71,
0,0,0,71,71,71,71,71,71,71,71,0,0,0,71,71,
0,0,0,71,71,71,71,71,0,0,0,0,0,0,71,71,
0,0,0,71,71,71,71,71,0,0,0,0,0,0,0,71,
0,0,0,71,71,71,71,71,0,0,0,0,0,0,0,0,
0,0,0,71,71,71,71,71,0,0,0,0,0,0,0,0,
0,0,0,70,71,71,71,71,0,0,0,0,0,0,0,0,
0,0,0,70,71,71,71,71,0,0,0,0,0,0,0,0,
0,0,0,70,71,71,71,71,0,0,0,0,0,0,0,0,
0,0,61,10,71,71,71,71,0,0,0,0,0,0,0,0,
0,0,70,71,71,71,71,71,0,0,0,0,0,0,0,0,
0,0,70,71,71,71,71,71,0,0,0,0,0,0,0,0,
0,0,70,71,71,71,71,71,0,0,0,0,0,0,0,0,
0,61,71,71,71,71,71,71,0,0,0,0,0,0,0,0
</chunk>
   <chunk x="64" y="48" width="16" height="16">
0,0,0,0,61,12,13,71,71,71,71,71,71,71,71,71,
11,62,62,62,69,71,71,71,71,71,71,71,71,71,71,71,
71,71,71,71,71,71,71,71,71,71,71,71,71,71,71,71,
71,71,71,71,71,71,71,71,71,71,71,71,71,71,71,71,
71,71,71,71,71,71,71,71,71,71,71,71,71,71,71,71,
71,71,71,71,71,71,71,71,71,71,0,0,71,71,71,71,
0,0,0,0,0,0,0,0,0,0,0,0,0,0,0,0,
0,0,0,0,0,0,0,0,0,0,0,0,0,0,0,0,
0,0,0,0,0,0,0,0,0,0,0,0,0,0,0,0,
0,0,0,0,0,0,0,0,0,0,0,0,0,0,0,0,
0,0,0,0,0,0,0,0,0,0,0,0,0,0,0,0,
0,0,0,0,0,0,0,0,0,0,0,0,0,0,0,0,
0,0,0,0,0,0,0,0,0,0,0,0,0,0,0,0,
0,0,0,0,0,0,0,0,0,0,0,0,0,0,0,0,
0,0,0,0,0,0,0,0,0,0,0,0,0,0,0,0,
0,0,0,0,0,0,0,0,0,0,0,0,0,0,0,0
</chunk>
   <chunk x="80" y="48" width="16" height="16">
71,71,71,71,71,71,71,71,71,71,71,71,71,71,71,71,
71,71,71,71,71,71,71,71,71,71,71,71,71,71,71,71,
71,71,71,71,71,71,71,71,71,71,71,71,71,71,71,71,
71,71,71,71,71,71,71,71,71,71,71,71,71,71,71,71,
71,71,71,71,71,71,71,71,71,71,71,71,71,71,71,71,
71,71,71,71,71,71,71,71,71,71,71,71,71,71,71,71,
0,0,0,0,0,0,0,0,0,0,0,0,0,0,0,0,
0,0,0,0,0,0,0,0,0,0,0,0,0,0,0,0,
0,0,0,0,0,0,0,0,0,0,0,0,0,0,0,0,
0,0,0,0,0,0,0,0,0,0,0,0,0,0,0,0,
0,0,0,0,0,0,0,0,0,0,0,0,0,0,0,0,
0,0,0,0,0,0,0,0,0,0,0,0,0,0,0,0,
0,0,0,0,0,0,0,0,0,0,0,0,0,0,0,0,
0,0,0,0,0,0,0,0,0,0,0,0,0,0,0,0,
0,0,0,0,0,0,0,0,0,0,0,0,0,0,0,0,
0,0,0,0,0,0,0,0,0,0,0,0,0,0,0,0
</chunk>
   <chunk x="96" y="48" width="16" height="16">
71,71,71,71,71,71,71,71,71,71,71,71,71,71,71,71,
71,71,71,71,71,71,71,71,71,71,71,71,71,71,71,71,
71,71,71,71,71,71,71,71,71,71,71,71,71,71,71,71,
71,71,71,71,71,71,71,71,71,71,71,71,71,71,71,71,
71,71,71,71,71,71,71,71,71,71,71,71,71,71,71,71,
71,71,71,71,71,71,71,71,71,71,71,71,71,71,71,71,
0,0,0,0,0,0,0,0,0,0,0,0,0,0,0,0,
0,0,0,0,0,0,0,0,0,0,0,0,0,0,0,0,
0,0,0,0,0,0,0,0,0,0,0,0,0,0,0,0,
0,0,0,0,0,0,0,0,0,0,0,0,0,0,0,0,
0,0,0,0,0,0,0,0,0,0,0,0,0,0,0,0,
0,0,0,0,0,0,0,0,0,0,0,0,0,0,0,0,
0,0,0,0,0,0,0,0,0,0,0,0,0,0,0,0,
0,0,0,0,0,0,0,0,0,0,0,0,0,0,0,0,
0,0,0,0,0,0,0,0,0,0,0,0,0,0,0,0,
0,0,0,0,0,0,0,0,0,0,0,0,0,0,0,0
</chunk>
   <chunk x="112" y="48" width="16" height="16">
71,71,71,71,71,71,0,0,0,0,0,0,0,0,0,0,
71,71,71,71,71,71,0,0,0,0,0,0,0,0,0,0,
71,71,71,71,71,71,0,0,0,0,0,0,0,0,0,0,
71,71,71,71,71,71,0,0,0,0,0,0,0,0,0,0,
71,71,71,71,71,71,0,0,0,0,0,0,0,0,0,0,
71,71,71,71,71,71,0,0,0,0,0,0,0,0,0,0,
0,0,0,0,0,0,0,0,0,0,0,0,0,0,0,0,
0,0,0,0,0,0,0,0,0,0,0,0,0,0,0,0,
0,0,0,0,0,0,0,0,0,0,0,0,0,0,0,0,
0,0,0,0,0,0,0,0,0,0,0,0,0,0,0,0,
0,0,0,0,0,0,0,0,0,0,0,0,0,0,0,0,
0,0,0,0,0,0,0,0,0,0,0,0,0,0,0,0,
0,0,0,0,0,0,0,0,0,0,0,0,0,0,0,0,
0,0,0,0,0,0,0,0,0,0,0,0,0,0,0,0,
0,0,0,0,0,0,0,0,0,0,0,0,0,0,0,0,
0,0,0,0,0,0,0,0,0,0,0,0,0,0,0,0
</chunk>
   <chunk x="16" y="64" width="16" height="16">
0,0,0,0,0,0,0,0,0,0,0,0,0,0,0,0,
0,0,0,0,0,0,0,0,0,0,0,0,0,0,0,0,
0,0,0,0,0,0,0,0,0,0,0,0,0,0,0,0,
0,0,0,0,0,0,0,0,0,0,0,0,0,0,0,0,
0,0,0,0,0,0,0,0,0,0,0,0,0,0,0,0,
0,0,0,0,0,0,0,0,0,0,0,0,0,0,0,0,
0,0,0,0,0,0,0,0,0,0,0,0,0,0,0,0,
0,0,0,0,0,0,0,0,0,0,0,0,0,0,0,0,
0,0,0,0,0,0,0,0,0,0,0,0,0,0,0,0,
0,0,0,0,0,0,0,0,0,0,0,0,0,0,0,61,
0,0,0,0,0,0,0,0,0,0,0,0,0,0,61,10,
0,0,0,0,0,0,0,0,0,0,0,0,0,0,70,71,
0,0,0,0,0,0,0,0,0,0,0,0,0,0,70,71,
0,0,0,0,0,0,0,0,0,0,0,0,0,0,70,71,
0,0,0,0,0,0,0,0,0,0,0,0,0,0,79,27,
0,0,0,0,0,0,0,0,0,0,0,0,0,0,0,79
</chunk>
   <chunk x="32" y="64" width="16" height="16">
0,0,0,0,0,0,0,0,0,0,0,0,0,0,0,0,
0,0,0,0,0,0,0,0,0,0,0,0,0,0,0,0,
79,71,71,71,71,71,71,71,72,0,0,0,0,0,0,0,
0,27,71,71,71,71,71,71,81,0,0,0,0,0,0,0,
0,70,71,71,71,71,71,18,0,0,0,0,0,0,0,0,
0,70,71,71,71,71,71,72,0,0,0,0,0,0,0,0,
0,70,71,71,71,71,71,11,0,0,0,0,0,0,0,0,
61,10,71,71,71,71,71,71,14,15,63,0,0,0,0,0,
70,71,71,71,71,71,71,71,71,71,72,0,0,0,0,0,
10,71,71,71,71,71,71,71,71,71,72,0,0,0,0,0,
71,71,71,71,71,71,71,71,71,71,72,0,0,0,0,0,
71,71,71,71,71,71,71,71,71,71,72,0,0,0,0,12,
71,71,71,71,71,71,71,71,71,71,71,0,0,0,71,71,
71,71,71,71,0,0,0,0,81,79,81,0,0,0,79,80,
71,71,71,71,0,0,0,0,0,0,0,0,0,0,0,0,
80,80,80,71,0,0,0,0,0,0,0,0,0,0,0,0
</chunk>
   <chunk x="48" y="64" width="16" height="16">
0,79,80,81,79,0,0,0,0,0,0,0,0,0,0,0,
0,0,0,0,0,0,0,0,0,0,0,0,0,0,0,0,
0,0,0,0,0,0,0,0,0,0,0,0,0,0,0,0,
0,0,0,0,0,0,0,0,0,0,0,0,0,0,0,0,
61,62,71,0,0,0,0,0,0,0,0,0,0,0,0,0,
70,71,71,0,0,0,0,0,0,0,0,0,0,0,0,0,
70,71,71,71,71,71,71,71,71,71,71,71,71,71,71,71,
70,71,71,71,71,71,71,71,71,71,71,71,71,71,71,71,
79,80,60,71,71,71,71,71,71,71,71,71,71,71,71,71,
0,0,70,71,71,71,71,71,71,71,71,71,71,71,71,71,
61,62,69,71,71,71,71,71,71,71,71,71,71,71,71,71,
13,71,71,71,71,71,71,71,71,71,71,71,71,71,71,71,
71,71,71,71,71,71,71,71,71,71,71,71,71,71,71,71,
81,79,0,0,0,0,71,71,71,71,71,71,71,71,0,0,
0,0,0,0,0,0,71,71,71,71,71,71,71,71,0,0,
0,0,0,0,0,0,71,71,71,71,71,71,71,71,0,0
</chunk>
   <chunk x="64" y="64" width="16" height="16">
0,0,0,0,0,0,0,0,0,0,0,0,0,0,0,0,
0,0,0,0,0,0,0,0,0,0,0,0,0,0,0,0,
0,0,0,0,0,0,0,0,0,0,0,0,0,0,0,0,
0,0,0,0,0,0,0,0,0,0,0,0,71,71,71,71,
0,0,0,0,0,0,71,71,71,71,71,71,71,71,71,71,
71,71,71,71,71,71,71,71,71,71,71,71,71,71,71,71,
71,71,71,71,71,71,71,71,71,71,71,71,71,71,71,71,
71,71,71,71,71,71,71,71,71,71,71,71,71,71,71,71,
71,71,71,71,71,71,71,71,71,71,71,71,71,71,71,71,
71,71,71,71,71,71,71,71,71,71,71,71,71,71,71,71,
71,71,71,71,71,71,71,71,71,71,71,71,71,71,71,71,
71,71,71,71,71,71,71,71,71,71,71,71,71,71,71,71,
71,71,71,71,71,71,71,71,71,71,71,71,71,71,71,71,
0,0,0,0,71,71,71,71,71,71,71,71,71,71,71,71,
0,0,0,0,0,71,71,71,71,71,71,71,71,71,71,71,
0,0,0,0,0,0,0,0,0,0,71,71,71,71,71,71
</chunk>
   <chunk x="80" y="64" width="16" height="16">
0,0,0,0,0,0,0,0,0,0,0,0,0,0,0,0,
0,0,0,0,0,0,0,0,0,0,0,0,0,0,0,0,
0,71,71,71,0,0,0,0,0,0,0,0,0,0,0,0,
71,71,71,71,71,71,71,71,71,71,71,71,71,71,71,71,
71,71,71,71,71,71,71,71,71,71,71,71,71,71,71,71,
71,71,71,71,71,71,71,71,71,71,71,71,71,71,71,71,
71,71,71,71,71,71,71,71,71,71,71,71,71,71,71,71,
71,71,71,71,71,71,71,71,71,71,71,71,71,71,71,71,
71,71,71,71,71,71,71,71,71,71,71,71,71,71,71,71,
71,71,71,71,71,71,71,71,71,71,71,71,71,71,71,71,
71,71,71,71,71,71,71,71,71,71,71,71,71,71,71,71,
71,71,71,71,71,71,71,71,71,71,71,71,71,71,71,71,
71,71,71,71,71,71,71,71,71,71,71,71,71,71,71,71,
71,71,71,71,71,71,71,71,71,71,71,71,71,71,71,71,
71,71,71,71,71,71,71,71,71,71,71,71,71,71,71,71,
71,71,71,71,71,71,71,71,71,71,71,71,71,71,71,71
</chunk>
   <chunk x="96" y="64" width="16" height="16">
0,0,0,0,0,0,0,0,0,0,0,0,0,0,0,0,
0,0,0,0,0,0,0,0,0,0,0,0,0,0,0,0,
0,0,0,0,0,0,0,0,0,0,0,0,0,0,0,0,
71,71,71,71,71,71,71,71,0,0,0,0,0,0,0,0,
71,71,71,71,71,71,71,71,71,0,0,0,0,0,0,0,
71,71,71,71,71,71,71,71,71,71,0,0,0,0,0,0,
71,71,71,71,71,71,71,71,71,71,0,0,0,0,0,0,
71,71,71,71,71,71,71,71,71,71,0,0,0,0,0,0,
71,71,71,71,71,71,71,71,71,71,0,0,0,0,0,0,
71,71,71,71,71,71,71,71,71,71,0,0,0,0,0,0,
71,71,71,71,71,71,71,71,71,71,0,0,0,0,0,0,
71,71,71,71,71,71,71,71,71,71,0,0,0,0,0,0,
71,71,71,71,71,71,71,71,71,71,71,0,0,0,0,0,
71,71,71,71,71,71,71,71,71,71,71,0,0,0,0,0,
71,71,71,71,71,71,71,71,71,71,71,0,0,0,0,0,
71,71,71,71,71,71,71,71,71,71,71,0,0,0,0,0
</chunk>
   <chunk x="32" y="80" width="16" height="16">
0,0,79,0,0,0,0,0,0,0,71,71,71,71,71,71,
0,0,0,0,0,0,0,0,0,0,71,71,71,71,71,71,
0,0,0,0,0,0,0,0,0,0,71,71,71,71,71,71,
0,0,0,0,0,0,0,0,0,0,71,71,71,71,71,71,
0,0,0,0,0,0,0,0,0,0,71,71,71,71,71,71,
0,0,0,0,0,0,0,0,0,71,71,71,71,71,71,71,
0,0,0,0,0,0,0,0,0,71,71,71,71,71,71,71,
0,0,0,0,0,0,0,0,0,71,71,71,71,71,71,71,
0,0,0,0,0,0,0,0,0,71,71,71,71,71,71,71,
0,0,0,0,0,0,0,0,0,71,71,71,71,71,71,71,
0,0,0,0,0,0,0,0,0,0,71,71,71,71,71,71,
0,0,0,0,0,0,0,0,0,0,71,71,71,71,71,71,
0,0,0,0,0,0,0,0,0,0,71,71,71,71,71,71,
0,0,0,0,0,0,0,0,0,0,0,0,0,0,0,0,
0,0,0,0,0,0,0,0,0,0,0,0,0,0,0,0,
0,0,0,0,0,0,0,0,0,0,0,0,0,0,0,0
</chunk>
   <chunk x="48" y="80" width="16" height="16">
71,71,71,71,71,71,71,71,71,71,71,71,71,71,0,0,
71,71,71,71,71,71,71,71,71,71,71,71,71,71,0,0,
71,71,71,71,71,71,71,71,71,71,71,71,71,71,0,0,
71,71,71,71,71,71,71,71,71,71,71,71,71,71,0,0,
71,71,71,71,71,71,71,71,71,71,71,71,71,71,0,0,
71,71,71,71,71,71,71,71,71,71,71,71,71,71,0,0,
0,0,0,0,0,0,0,0,0,0,0,0,0,0,0,0,
0,0,0,0,0,0,0,0,0,0,0,0,0,0,0,0,
0,0,0,0,0,0,0,0,0,0,0,0,0,0,0,0,
0,0,0,0,0,0,0,0,0,0,0,0,0,0,0,0,
0,0,0,0,0,0,0,0,0,0,0,0,0,0,0,0,
0,0,0,0,0,0,0,0,0,0,0,0,0,0,0,0,
0,0,0,0,0,0,0,0,0,0,0,0,0,0,0,0,
0,0,0,0,0,0,0,0,0,0,0,0,0,0,0,0,
0,0,0,0,0,0,0,0,0,0,0,0,0,0,0,0,
0,0,0,0,0,0,0,0,0,0,0,0,0,0,0,0
</chunk>
   <chunk x="80" y="80" width="16" height="16">
71,71,71,71,71,71,71,71,71,71,71,71,71,71,71,71,
0,0,0,0,0,0,0,0,0,0,0,0,0,0,0,0,
0,0,0,0,0,0,0,0,0,0,0,0,0,0,0,0,
0,0,0,0,0,0,0,0,0,0,0,0,0,0,0,0,
0,0,0,0,0,0,0,0,0,0,0,0,0,0,0,0,
0,0,0,0,0,0,0,0,0,0,0,0,0,0,0,0,
0,0,0,0,0,0,0,0,0,0,0,0,0,0,0,0,
0,0,0,0,0,0,0,0,0,0,0,0,0,0,0,0,
0,0,0,0,0,0,0,0,0,0,0,0,0,0,0,0,
0,0,0,0,0,0,0,0,0,0,0,0,0,0,0,0,
0,0,0,0,0,0,0,0,0,0,0,0,0,0,0,0,
0,0,0,0,0,0,0,0,0,0,0,0,0,0,0,0,
0,0,0,0,0,0,0,0,0,0,0,0,0,0,0,0,
0,0,0,0,0,0,0,0,0,0,0,0,0,0,0,0,
0,0,0,0,0,0,0,0,0,0,0,0,0,0,0,0,
0,0,0,0,0,0,0,0,0,0,0,0,0,0,0,0
</chunk>
   <chunk x="96" y="80" width="16" height="16">
71,71,71,71,71,71,71,71,71,71,71,0,0,0,0,0,
0,0,0,0,0,0,0,0,0,0,0,0,0,0,0,0,
0,0,0,0,0,0,0,0,0,0,0,0,0,0,0,0,
0,0,0,0,0,0,0,0,0,0,0,0,0,0,0,0,
0,0,0,0,0,0,0,0,0,0,0,0,0,0,0,0,
0,0,0,0,0,0,0,0,0,0,0,0,0,0,0,0,
0,0,0,0,0,0,0,0,0,0,0,0,0,0,0,0,
0,0,0,0,0,0,0,0,0,0,0,0,0,0,0,0,
0,0,0,0,0,0,0,0,0,0,0,0,0,0,0,0,
0,0,0,0,0,0,0,0,0,0,0,0,0,0,0,0,
0,0,0,0,0,0,0,0,0,0,0,0,0,0,0,0,
0,0,0,0,0,0,0,0,0,0,0,0,0,0,0,0,
0,0,0,0,0,0,0,0,0,0,0,0,0,0,0,0,
0,0,0,0,0,0,0,0,0,0,0,0,0,0,0,0,
0,0,0,0,0,0,0,0,0,0,0,0,0,0,0,0,
0,0,0,0,0,0,0,0,0,0,0,0,0,0,0,0
</chunk>
  </data>
 </layer>
 <layer id="1" name="ground" width="64" height="32">
  <data encoding="csv">
   <chunk x="0" y="0" width="16" height="16">
47,0,0,0,0,0,0,0,0,0,0,0,0,0,0,0,
0,0,0,0,0,0,0,0,0,0,0,0,0,0,0,0,
0,0,0,0,0,0,0,0,0,0,0,0,0,0,0,0,
0,0,0,0,0,0,0,0,0,0,0,0,0,0,0,0,
0,0,0,0,0,0,0,0,0,0,0,0,0,0,0,0,
0,0,0,0,0,0,0,0,0,0,0,0,0,0,0,0,
0,0,0,0,0,0,0,0,0,0,0,0,0,0,0,0,
0,0,0,0,0,0,0,0,0,0,0,0,0,0,0,0,
0,0,0,0,0,0,0,0,0,0,0,0,0,0,0,0,
0,0,0,0,0,0,0,0,0,0,0,0,0,0,0,0,
0,0,0,0,0,0,0,0,0,0,0,0,0,0,0,0,
0,0,0,0,0,0,0,0,0,0,0,0,0,0,0,0,
0,0,0,0,0,0,0,0,0,0,0,0,0,0,0,0,
0,0,0,0,0,0,0,0,0,0,0,0,0,0,0,0,
0,0,0,0,0,0,0,0,0,0,0,0,0,0,0,0,
0,0,0,0,0,0,0,0,0,0,0,0,0,0,0,0
</chunk>
   <chunk x="32" y="16" width="16" height="16">
0,0,0,0,0,0,0,0,0,0,0,0,0,0,0,0,
0,0,0,0,0,0,0,0,0,0,0,0,0,0,0,0,
0,0,0,0,0,0,0,0,0,0,0,0,0,0,0,0,
0,0,0,0,0,0,0,0,0,0,0,0,0,0,0,0,
0,0,0,0,0,0,0,0,0,0,0,0,0,0,0,0,
0,0,0,0,0,0,0,0,0,0,0,0,0,0,0,0,
0,0,0,0,0,0,0,0,0,0,0,0,0,0,0,0,
0,0,0,0,0,0,0,0,0,0,0,0,0,0,0,0,
0,0,0,0,0,0,0,0,0,0,0,0,0,0,0,0,
0,0,0,0,0,0,0,0,0,0,0,0,0,0,1529,1522,
0,0,0,0,0,0,0,0,0,0,0,0,1529,0,0,0,
0,0,0,0,0,0,0,0,0,1523,1524,0,0,0,0,0,
0,0,0,0,0,0,1529,0,0,0,0,0,0,0,0,0,
0,0,0,0,0,0,0,0,0,0,0,0,0,0,0,0,
0,0,0,0,0,0,0,0,0,0,0,0,0,0,0,0,
0,0,0,0,0,0,0,0,0,0,0,0,0,0,0,0
</chunk>
   <chunk x="48" y="16" width="16" height="16">
0,0,0,0,0,0,0,0,0,0,0,0,0,0,0,0,
0,0,0,0,0,0,0,0,0,0,0,0,0,0,0,0,
0,0,0,0,0,0,0,0,0,0,0,0,0,0,0,0,
0,0,0,0,0,0,0,0,0,0,0,0,0,0,0,0,
0,0,0,0,0,0,0,0,0,0,0,0,0,0,0,0,
0,0,0,0,0,0,0,0,0,0,0,0,0,0,0,0,
0,0,0,0,0,0,0,0,0,0,0,0,0,0,0,0,
0,0,0,0,0,0,0,0,0,0,0,0,0,0,0,0,
0,0,0,0,0,0,0,0,0,0,0,0,0,0,0,0,
1523,1524,1524,1524,1522,1523,1524,1522,1523,1524,1525,0,0,0,1521,1522,
0,0,0,0,0,0,0,0,0,0,0,0,0,0,0,0,
0,0,0,0,0,0,0,0,0,0,0,0,0,0,0,0,
0,0,0,0,0,0,0,0,0,0,0,0,0,0,0,0,
0,0,0,0,0,0,0,0,0,0,0,0,0,0,0,0,
0,0,0,0,0,0,0,0,0,0,0,0,0,0,0,0,
0,0,0,0,0,0,0,0,0,0,0,0,0,0,0,0
</chunk>
   <chunk x="64" y="16" width="16" height="16">
0,0,0,0,0,0,0,0,0,0,0,0,0,0,0,0,
0,0,0,0,0,0,0,0,0,0,0,0,0,0,0,0,
0,0,0,0,0,0,0,0,0,0,0,0,0,0,0,0,
0,0,0,0,0,0,0,0,0,0,0,0,0,0,0,0,
0,0,0,0,0,0,0,0,0,0,0,0,0,0,0,0,
0,0,0,0,0,0,0,0,0,0,0,0,0,0,0,1523,
0,0,0,0,0,0,0,0,0,0,0,0,1529,0,0,0,
0,0,0,0,0,0,0,0,0,0,0,1529,0,0,0,0,
0,0,0,0,0,0,0,0,0,0,1529,0,0,0,0,0,
1522,1523,1524,1525,0,0,0,0,0,0,0,0,0,0,0,0,
0,0,0,0,0,0,0,0,0,0,0,0,0,0,0,0,
0,0,0,0,0,0,0,0,0,0,0,0,0,0,0,0,
0,0,0,0,0,0,0,0,0,0,0,0,0,0,0,0,
0,0,0,0,0,0,0,0,0,0,0,0,0,0,0,0,
0,0,0,0,0,0,0,0,0,0,0,0,0,0,0,0,
0,0,0,0,0,0,0,0,0,0,0,0,0,0,0,0
</chunk>
   <chunk x="80" y="16" width="16" height="16">
0,0,0,0,0,0,0,0,0,0,0,0,0,0,0,0,
0,0,0,0,0,0,0,0,0,0,0,0,0,0,0,0,
0,0,0,0,0,0,0,0,0,0,0,0,0,0,0,0,
0,0,0,0,1529,1522,1523,1524,1522,1522,1523,1524,1530,0,0,0,
0,0,1529,0,0,0,0,0,0,0,0,0,0,0,1522,1523,
1523,0,0,0,0,0,0,0,0,0,0,0,0,0,0,0,
0,0,0,0,0,0,0,0,0,0,0,0,0,0,0,0,
0,0,0,0,0,0,0,0,0,0,0,0,0,0,0,0,
0,0,0,0,0,0,0,0,0,0,0,0,0,0,0,0,
0,0,0,0,0,0,0,0,0,0,0,0,0,0,0,0,
0,0,0,0,0,0,0,0,0,0,0,0,0,0,0,0,
0,0,0,0,0,0,0,0,0,0,0,0,0,0,0,0,
0,0,0,0,0,0,0,0,0,0,0,0,0,0,0,0,
0,0,0,0,0,0,0,0,0,0,0,0,0,0,0,0,
0,0,0,0,0,0,0,0,0,0,0,0,0,0,0,0,
0,0,0,0,0,0,0,0,0,0,0,0,0,0,0,0
</chunk>
   <chunk x="96" y="16" width="16" height="16">
0,0,0,0,0,0,0,0,0,0,0,0,0,0,0,0,
0,0,0,0,0,0,0,0,0,0,0,0,0,0,0,0,
0,0,0,0,0,0,0,0,0,0,0,0,0,0,0,0,
0,0,0,0,0,0,0,0,0,0,0,1529,1522,1523,1524,1524,
1524,1524,1522,1523,1524,1523,1524,1522,1523,1524,0,0,0,0,0,0,
0,0,0,0,0,0,0,0,0,0,0,0,0,0,0,0,
0,0,0,0,0,0,0,0,0,0,0,0,0,0,0,0,
0,0,0,0,0,0,0,0,0,0,0,0,0,0,0,0,
0,0,0,0,0,0,0,0,0,0,0,0,0,0,0,0,
0,0,0,0,0,0,0,0,0,0,0,0,0,0,0,0,
0,0,0,0,0,0,0,0,0,0,0,0,0,0,0,0,
0,0,0,0,0,0,0,0,0,0,0,0,0,0,0,0,
0,0,0,0,0,0,0,0,0,0,0,0,0,0,0,0,
0,0,0,0,0,0,0,0,0,0,0,0,0,0,0,0,
0,0,0,0,0,0,0,0,0,0,0,0,0,0,0,0,
0,0,0,0,0,0,0,0,0,0,0,0,0,0,0,0
</chunk>
   <chunk x="112" y="16" width="16" height="16">
0,0,0,0,0,0,0,0,0,0,0,0,0,0,0,0,
0,0,0,0,0,0,0,0,0,0,0,0,0,0,0,0,
0,0,0,0,0,0,0,0,0,0,0,0,0,0,0,0,
1524,1522,1523,1524,1525,0,0,0,0,0,0,0,0,0,0,0,
0,0,0,0,0,0,0,0,0,0,0,0,0,0,0,0,
0,0,0,0,0,0,0,0,0,0,0,0,0,0,0,0,
0,0,0,0,0,0,0,0,0,0,0,0,0,0,0,0,
0,0,0,0,0,0,0,0,0,0,0,0,0,0,0,0,
0,0,0,0,0,0,0,0,0,0,1521,1522,1522,1522,1523,1524,
0,0,0,0,0,0,0,0,0,0,0,0,0,0,0,0,
0,0,0,0,0,0,0,0,0,0,0,0,0,0,0,0,
0,0,0,0,0,0,0,0,0,0,0,0,0,0,0,0,
0,0,0,0,0,0,0,0,0,0,0,0,0,0,0,0,
0,0,0,0,0,0,0,0,0,0,0,0,0,0,0,0,
0,0,0,0,0,0,0,0,0,0,0,0,0,0,0,0,
0,0,0,0,0,0,0,0,0,0,0,0,0,0,0,0
</chunk>
   <chunk x="128" y="16" width="16" height="16">
0,0,0,0,0,0,0,0,0,0,0,0,0,0,0,0,
0,0,0,0,0,0,0,0,0,0,0,0,0,0,0,0,
0,0,0,0,0,0,0,0,0,0,0,0,0,0,0,0,
0,0,0,0,0,0,0,0,0,0,0,0,0,0,0,0,
0,0,0,0,0,0,0,0,0,0,0,0,0,0,0,0,
0,0,0,0,0,0,0,0,0,0,0,0,0,0,0,0,
0,0,0,0,0,0,0,0,0,0,0,0,0,0,0,0,
0,0,0,0,0,0,0,0,0,0,0,0,0,0,0,0,
1530,0,0,0,0,0,0,0,0,0,0,0,0,0,0,0,
0,0,1530,0,0,0,0,0,0,0,0,0,0,0,0,0,
0,0,0,1522,1522,1523,1524,1525,0,0,0,0,0,0,0,0,
0,0,0,0,0,0,0,0,0,0,0,0,0,0,0,0,
0,0,0,0,0,0,0,0,0,0,0,0,0,0,0,0,
0,0,0,0,0,0,0,0,0,0,0,0,0,0,0,0,
0,0,0,0,0,0,0,0,0,0,0,0,0,0,0,0,
0,0,0,0,0,0,0,0,0,0,0,0,0,0,0,0
</chunk>
   <chunk x="48" y="32" width="16" height="16">
0,0,0,0,0,0,0,0,0,0,0,0,0,0,0,0,
0,0,0,0,0,0,0,0,0,0,0,0,0,0,0,0,
0,0,0,0,0,0,0,0,0,0,0,0,0,0,0,0,
0,0,0,0,0,0,0,0,0,0,0,0,0,0,0,0,
0,0,0,0,0,0,0,0,0,0,0,0,0,0,0,0,
0,0,0,0,0,0,0,0,0,0,0,0,0,0,0,0,
0,0,0,0,0,0,0,0,0,0,0,0,0,0,0,0,
0,0,0,0,0,0,0,0,0,0,0,0,0,0,0,0,
0,0,0,0,0,0,0,0,0,0,0,0,0,0,0,0,
0,0,0,0,0,0,0,0,0,0,0,0,0,0,0,0,
0,0,0,0,0,0,0,1521,1522,1523,1525,0,0,0,0,0,
0,0,0,0,0,0,0,0,0,0,0,0,0,0,0,0,
0,0,0,0,0,0,0,0,0,0,0,0,0,0,0,0,
0,0,0,0,0,0,0,0,0,0,0,0,0,0,0,0,
0,0,0,0,0,0,0,0,0,0,0,0,0,0,0,0,
0,0,0,0,0,0,0,0,0,0,0,0,0,0,0,0
</chunk>
   <chunk x="112" y="32" width="16" height="16">
0,0,0,0,0,0,0,0,0,0,0,0,0,0,0,0,
0,0,0,0,0,0,0,0,0,0,0,0,0,0,0,0,
0,0,0,0,0,0,0,0,0,0,0,0,0,0,0,0,
0,0,0,0,0,0,0,0,0,0,0,0,0,0,0,0,
0,0,0,0,0,1521,1522,1523,1524,1524,0,0,0,0,0,0,
0,0,0,0,0,0,0,0,0,0,0,0,0,0,0,0,
0,0,0,0,0,0,0,0,0,0,0,0,0,0,0,0,
0,0,0,0,0,0,0,0,0,0,0,0,0,0,0,0,
0,0,0,0,0,0,0,0,0,0,0,0,0,0,0,0,
0,0,0,0,0,0,0,0,0,0,0,0,0,0,0,0,
0,0,0,0,0,0,0,0,0,0,0,0,0,0,0,0,
0,0,0,0,0,0,0,0,0,0,0,0,0,0,0,0,
0,0,0,0,0,0,0,0,0,0,0,0,0,0,0,0,
0,0,0,0,0,0,0,0,0,0,0,0,0,0,0,0,
0,0,0,0,0,0,0,0,0,0,0,0,0,0,0,0,
0,0,0,0,0,0,0,0,0,0,0,0,0,0,0,0
</chunk>
   <chunk x="128" y="32" width="16" height="16">
0,0,0,0,0,0,0,0,0,0,0,0,0,0,0,0,
0,0,0,0,0,0,0,0,0,0,0,0,0,0,0,0,
0,0,0,0,0,0,0,0,0,0,0,0,0,0,0,0,
0,0,0,0,0,0,0,0,0,0,0,0,0,0,0,0,
0,0,0,0,0,0,0,0,0,0,0,0,0,0,0,0,
0,0,0,0,0,0,0,0,0,0,0,0,0,0,0,0,
0,0,0,0,0,0,0,0,1525,0,0,0,0,0,0,0,
0,0,0,0,0,0,0,0,0,0,0,0,0,0,0,0,
0,0,0,0,0,0,0,0,0,0,0,0,0,0,0,0,
0,0,0,0,0,0,0,0,0,0,0,0,0,0,0,0,
0,0,0,0,0,0,0,0,0,0,0,0,0,0,0,0,
0,0,0,0,0,0,0,0,0,0,0,0,0,0,0,0,
0,0,0,0,0,0,0,0,0,0,0,0,0,0,0,0,
0,0,0,0,0,0,0,0,0,0,0,0,0,0,0,0,
0,0,0,0,0,0,0,0,0,0,0,0,0,0,0,0,
0,0,0,0,0,0,0,0,0,0,0,0,0,0,0,0
</chunk>
   <chunk x="32" y="48" width="16" height="16">
0,0,0,0,0,0,0,0,0,0,0,0,1522,1523,1524,1524,
0,0,0,0,0,0,0,0,0,0,0,0,0,0,0,0,
0,0,0,0,0,0,0,0,0,0,0,0,0,0,0,0,
0,0,0,0,0,0,0,0,0,0,0,0,0,0,0,0,
0,0,0,0,0,0,0,0,0,0,0,0,0,0,0,0,
0,0,0,0,0,0,0,0,0,0,0,0,0,0,0,0,
0,0,0,0,0,0,0,0,0,0,0,0,0,0,0,0,
0,0,0,0,0,0,0,0,0,0,0,0,0,0,0,0,
0,0,0,0,0,0,0,0,0,0,0,0,0,0,0,0,
0,0,0,0,0,0,0,0,0,0,0,0,0,0,0,0,
0,0,0,0,0,0,0,0,0,0,0,0,0,0,0,0,
0,0,0,0,0,0,0,0,0,0,0,0,0,0,0,0,
0,0,0,0,0,0,0,0,0,0,0,0,0,0,0,0,
0,0,0,0,0,0,0,0,0,0,0,0,0,0,0,0,
1521,1522,1523,1524,1524,1522,1523,1524,1525,0,0,0,0,0,0,0,
0,0,0,0,0,0,0,0,0,0,0,0,0,0,0,0
</chunk>
   <chunk x="48" y="48" width="16" height="16">
1524,1524,1524,1525,0,0,0,0,0,0,0,0,0,0,0,0,
0,0,0,0,0,0,0,0,0,0,0,1522,1523,1524,1524,1525,
0,0,0,0,0,0,0,0,0,0,0,0,0,0,0,0,
0,0,0,0,0,0,0,0,0,0,0,0,0,0,0,0,
0,0,0,0,0,0,0,0,0,0,0,0,0,0,0,0,
0,0,0,0,0,0,0,0,0,0,0,0,0,0,0,0,
0,0,0,0,0,0,0,0,0,0,0,0,0,0,0,0,
0,0,0,0,0,0,0,0,0,0,0,0,0,0,0,0,
0,0,0,0,0,0,0,0,0,0,0,0,0,0,0,0,
0,0,0,0,0,0,0,0,0,0,0,0,0,0,0,0,
0,0,0,0,0,0,0,0,0,0,0,0,0,0,0,0,
0,0,0,0,0,0,0,0,0,0,0,0,0,0,0,0,
0,0,0,0,0,0,0,0,0,0,0,0,0,0,0,0,
0,0,0,0,0,0,0,0,0,0,0,0,0,0,0,0,
0,1521,1522,1522,1522,1523,1524,0,0,0,0,0,0,0,0,0,
0,0,0,0,0,0,0,0,0,0,0,0,0,0,0,0
</chunk>
   <chunk x="64" y="48" width="16" height="16">
0,0,0,0,0,0,0,0,0,0,0,0,0,0,0,0,
0,0,0,0,0,0,0,0,0,0,0,0,0,0,0,0,
0,0,0,0,0,0,0,0,0,0,0,0,0,0,0,0,
0,0,0,0,0,0,0,0,0,0,0,0,0,0,0,0,
1522,1523,1524,1522,1523,1524,1522,1523,1522,1523,1522,1523,1522,1523,1524,1522,
0,0,0,0,0,0,0,0,0,0,0,0,0,0,0,0,
0,0,0,0,0,0,0,0,0,0,0,0,0,0,0,0,
0,0,0,0,0,0,0,0,0,0,0,0,0,0,0,0,
0,0,0,0,0,0,0,0,0,0,0,0,0,0,0,0,
0,0,0,0,0,0,0,0,0,0,0,0,0,0,0,0,
0,0,0,0,0,0,0,0,0,0,0,0,0,0,0,0,
0,0,0,0,0,0,0,0,0,0,0,0,0,0,0,0,
0,0,0,0,0,0,0,0,0,0,0,0,0,0,0,0,
0,0,0,0,0,0,0,0,0,0,0,0,0,0,0,0,
0,0,0,0,0,0,0,0,0,0,0,0,0,0,0,0,
0,0,0,0,0,0,0,0,0,0,0,0,0,0,0,0
</chunk>
   <chunk x="80" y="48" width="16" height="16">
0,0,0,0,0,0,0,0,0,0,0,0,0,0,0,0,
0,0,0,0,0,0,0,0,0,0,0,0,0,0,0,0,
0,0,0,0,0,0,0,0,0,0,0,0,0,0,0,0,
0,0,0,0,0,0,0,0,0,0,0,0,0,0,0,0,
1523,1522,1523,1524,1522,1523,1524,1522,1523,1524,1522,1523,1524,1522,1523,1522,
0,0,0,0,0,0,0,0,0,0,0,0,0,0,0,0,
0,0,0,0,0,0,0,0,0,0,0,0,0,0,0,0,
0,0,0,0,0,0,0,0,0,0,0,0,0,0,0,0,
0,0,0,0,0,0,0,0,0,0,0,0,0,0,0,0,
0,0,0,0,0,0,0,0,0,0,0,0,0,0,0,0,
0,0,0,0,0,0,0,0,0,0,0,0,0,0,0,0,
0,0,0,0,0,0,0,0,0,0,0,0,0,0,0,0,
0,0,0,0,0,0,0,0,0,0,0,0,0,0,0,0,
0,0,0,0,0,0,0,0,0,0,0,0,0,0,0,0,
0,0,0,0,0,0,0,0,0,0,0,0,0,0,0,0,
0,0,0,0,0,0,0,0,0,0,0,0,0,0,0,0
</chunk>
   <chunk x="96" y="48" width="16" height="16">
0,0,0,0,0,0,0,0,0,0,0,0,0,0,0,0,
0,0,0,0,0,0,0,0,0,0,0,0,0,0,0,0,
0,0,0,0,0,0,0,0,0,0,0,0,0,0,0,0,
0,0,0,0,0,0,0,0,0,0,0,0,0,0,0,0,
1522,1523,1524,1522,1522,1522,1522,1523,1522,1522,1522,1522,1523,1522,1522,1522,
0,0,0,0,0,0,0,0,0,0,0,0,0,0,0,0,
0,0,0,0,0,0,0,0,0,0,0,0,0,0,0,0,
0,0,0,0,0,0,0,0,0,0,0,0,0,0,0,0,
0,0,0,0,0,0,0,0,0,0,0,0,0,0,0,0,
0,0,0,0,0,0,0,0,0,0,0,0,0,0,0,0,
0,0,0,0,0,0,0,0,0,0,0,0,0,0,0,0,
0,0,0,0,0,0,0,0,0,0,0,0,0,0,0,0,
0,0,0,0,0,0,0,0,0,0,0,0,0,0,0,0,
0,0,0,0,0,0,0,0,0,0,0,0,0,0,0,0,
0,0,0,0,0,0,0,0,0,0,0,0,0,0,0,0,
0,0,0,0,0,0,0,0,0,0,0,0,0,0,0,0
</chunk>
   <chunk x="112" y="48" width="16" height="16">
0,0,0,0,0,0,0,0,0,0,0,0,0,0,0,0,
0,0,0,0,0,0,0,0,0,0,0,0,0,0,0,0,
0,0,0,0,0,0,0,0,0,0,0,0,0,0,0,0,
0,0,0,0,0,0,0,0,0,0,0,0,0,0,0,0,
1522,1522,1522,1523,1524,0,0,0,0,0,0,0,0,0,0,0,
0,0,0,0,0,0,0,0,0,0,0,0,0,0,0,0,
0,0,0,0,0,0,0,0,0,0,0,0,0,0,0,0,
0,0,0,0,0,0,0,0,0,0,0,0,0,0,0,0,
0,0,0,0,0,0,0,0,0,0,0,0,0,0,0,0,
0,0,0,0,0,0,0,0,0,0,0,0,0,0,0,0,
0,0,0,0,0,0,0,0,0,0,0,0,0,0,0,0,
0,0,0,0,0,0,0,0,0,0,0,0,0,0,0,0,
0,0,0,0,0,0,0,0,0,0,0,0,0,0,0,0,
0,0,0,0,0,0,0,0,0,0,0,0,0,0,0,0,
0,0,0,0,0,0,0,0,0,0,0,0,0,0,0,0,
0,0,0,0,0,0,0,0,0,0,0,0,0,0,0,0
</chunk>
   <chunk x="32" y="64" width="16" height="16">
0,0,0,0,0,0,0,0,0,0,0,0,0,0,0,0,
0,0,0,0,0,0,0,0,0,0,0,0,0,0,0,0,
0,0,0,0,0,0,0,0,0,0,0,0,0,0,0,0,
0,0,0,0,0,0,0,0,0,0,0,0,0,0,0,0,
0,0,0,0,0,0,0,0,0,0,0,0,0,0,0,0,
0,0,0,0,0,0,0,0,0,0,0,0,0,0,0,0,
0,0,0,0,0,0,0,0,0,0,0,0,0,0,0,0,
0,0,0,0,0,0,0,0,0,0,0,0,0,0,0,0,
0,0,0,0,0,0,0,0,0,0,0,0,0,0,0,0,
0,0,0,0,0,0,0,0,0,0,0,0,0,0,0,0,
0,0,0,0,0,0,0,0,0,0,0,0,0,0,0,0,
0,0,1521,1522,1523,1524,1522,1523,1524,1522,1523,1524,1522,1523,1524,1522,
0,0,0,0,0,0,0,0,0,0,0,0,0,0,0,0,
0,0,0,0,0,0,0,0,0,0,0,0,0,0,0,0,
0,0,0,0,0,0,0,0,0,0,0,0,0,0,0,0,
0,0,0,0,0,0,0,0,0,0,0,0,0,0,0,0
</chunk>
   <chunk x="48" y="64" width="16" height="16">
0,0,0,0,0,0,0,0,0,0,0,0,0,0,0,0,
0,0,0,0,0,0,0,0,0,0,0,0,0,0,0,0,
0,0,0,0,0,0,0,0,0,0,0,0,0,0,0,0,
0,0,0,0,0,0,0,0,0,0,0,0,0,0,0,0,
0,0,0,0,0,0,0,0,0,0,0,0,0,0,0,0,
0,0,0,0,0,0,0,0,0,0,0,0,0,0,0,0,
0,0,0,0,0,0,0,0,0,0,0,0,0,0,0,0,
0,0,0,0,0,0,0,0,0,0,0,0,0,0,0,0,
0,0,0,0,0,0,0,0,0,0,0,0,0,0,0,0,
0,0,0,0,0,0,0,0,0,0,0,0,0,0,0,0,
0,0,0,0,0,0,0,0,0,0,0,0,0,0,0,0,
1522,1523,1524,1522,1523,1524,1525,0,0,0,0,0,0,1521,1522,1522,
0,0,0,0,0,0,0,0,0,0,0,0,0,0,0,0,
0,0,0,0,0,0,0,0,0,0,0,0,0,0,0,0,
0,0,0,0,0,0,0,0,0,0,0,0,0,0,0,0,
0,0,0,0,0,0,0,0,0,0,0,0,0,0,0,0
</chunk>
   <chunk x="64" y="64" width="16" height="16">
0,0,0,0,0,0,0,0,0,0,0,0,0,0,0,0,
0,0,0,0,0,0,0,0,0,0,0,0,0,0,0,0,
0,0,0,0,0,0,0,0,0,0,0,0,0,0,0,0,
0,0,0,0,0,0,0,0,0,0,0,0,0,0,0,0,
0,0,0,0,0,0,0,0,0,0,0,0,0,0,0,0,
0,0,0,0,0,0,0,0,0,0,0,0,0,0,0,0,
0,0,0,0,0,0,0,0,0,0,0,0,0,0,0,0,
0,0,0,0,0,0,0,0,0,0,0,0,0,0,0,0,
0,0,0,0,0,0,0,0,0,0,0,0,0,0,0,0,
0,0,0,0,0,0,0,0,0,0,0,0,0,0,0,0,
0,0,0,0,0,0,0,0,0,0,0,0,0,0,0,0,
1522,1523,1524,1530,0,0,0,0,0,0,0,0,0,0,0,0,
0,0,0,0,0,1523,1530,0,0,0,0,0,0,0,0,0,
0,0,0,0,0,0,0,0,1522,1524,1530,0,0,0,0,0,
0,0,0,0,0,0,0,0,0,0,0,0,1522,1522,1523,1524,
0,0,0,0,0,0,0,0,0,0,0,0,0,0,0,0
</chunk>
   <chunk x="80" y="64" width="16" height="16">
0,0,0,0,0,0,0,0,0,0,0,0,0,0,0,0,
0,0,0,0,0,0,0,0,0,0,0,0,0,0,0,0,
0,0,0,0,0,0,0,0,0,0,0,0,0,0,0,0,
0,0,0,0,0,0,0,0,0,0,0,0,0,0,0,0,
0,0,0,0,0,0,0,0,0,0,0,0,0,0,0,0,
0,0,0,0,0,0,0,0,0,0,0,0,0,0,0,0,
0,0,0,0,0,0,0,0,0,0,0,0,0,0,0,0,
0,0,0,0,0,0,0,0,0,0,0,0,0,0,0,0,
0,0,0,0,0,0,0,0,0,0,0,0,0,0,0,0,
0,0,0,0,0,0,0,0,0,0,0,0,0,0,0,0,
0,0,0,0,0,0,0,0,0,0,0,0,0,0,0,0,
0,0,0,0,0,0,0,0,0,0,0,0,0,0,0,0,
0,0,0,0,0,0,0,0,0,0,0,0,0,0,0,0,
0,0,0,0,0,0,0,0,0,0,0,0,0,0,0,0,
1530,0,0,0,0,0,0,0,0,0,0,0,0,0,0,0,
0,0,1522,1523,1524,1524,1522,1523,1524,1523,1522,1523,1524,1523,1524,1522
</chunk>
   <chunk x="96" y="64" width="16" height="16">
0,0,0,0,0,0,0,0,0,0,0,0,0,0,0,0,
0,0,0,0,0,0,0,0,0,0,0,0,0,0,0,0,
0,0,0,0,0,0,0,0,0,0,0,0,0,0,0,0,
0,0,0,0,0,0,0,0,0,0,0,0,0,0,0,0,
0,0,0,0,0,0,0,0,0,0,0,0,0,0,0,0,
0,0,0,0,0,0,0,0,0,0,0,0,0,0,0,0,
0,0,0,0,0,0,0,0,0,0,0,0,0,0,0,0,
0,0,0,0,0,0,0,0,0,0,0,0,0,0,0,0,
0,0,0,0,0,0,0,0,0,0,0,0,0,0,0,0,
0,0,0,0,0,0,0,0,0,0,0,0,0,0,0,0,
0,0,0,0,0,0,0,0,0,0,0,0,0,0,0,0,
0,0,0,0,0,0,0,0,0,0,0,0,0,0,0,0,
0,0,0,0,0,0,0,0,0,0,0,0,0,0,0,0,
0,0,0,0,0,0,0,0,0,0,0,0,0,0,0,0,
0,0,0,0,0,0,0,0,0,0,0,0,0,0,0,0,
1523,1524,1524,1522,1523,1524,1524,1524,1524,0,0,0,0,0,0,0
</chunk>
   <chunk x="32" y="80" width="16" height="16">
0,0,0,0,0,0,0,0,0,0,0,0,0,0,0,0,
0,0,0,0,0,0,0,0,0,0,0,0,0,0,0,0,
0,0,0,0,0,0,0,0,0,0,0,0,0,0,0,0,
0,0,0,0,0,0,0,0,0,0,0,0,0,0,0,0,
0,0,0,0,0,0,0,0,0,0,0,0,0,0,0,1521,
0,0,0,0,0,0,0,0,0,0,0,0,0,0,0,0,
0,0,0,0,0,0,0,0,0,0,0,0,0,0,0,0,
0,0,0,0,0,0,0,0,0,0,0,0,0,0,0,0,
0,0,0,0,0,0,0,0,0,0,0,0,0,0,0,0,
0,0,0,0,0,0,0,0,0,0,0,0,0,0,0,0,
0,0,0,0,0,0,0,0,0,0,0,0,0,0,0,0,
0,0,0,0,0,0,0,0,0,0,0,0,0,0,0,0,
0,0,0,0,0,0,0,0,0,0,0,0,0,0,0,0,
0,0,0,0,0,0,0,0,0,0,0,0,0,0,0,0,
0,0,0,0,0,0,0,0,0,0,0,0,0,0,0,0,
0,0,0,0,0,0,0,0,0,0,0,0,0,0,0,0
</chunk>
   <chunk x="48" y="80" width="16" height="16">
0,0,0,0,0,0,0,0,0,0,0,0,0,0,0,0,
0,0,0,0,0,0,0,0,0,0,0,0,0,0,0,0,
0,0,0,0,0,0,0,0,0,0,0,0,0,0,0,0,
0,0,0,0,0,0,0,0,0,0,0,0,0,0,0,0,
1522,1523,1524,1522,1523,1522,1523,1524,1523,1524,1522,1523,1524,0,0,0,
0,0,0,0,0,0,0,0,0,0,0,0,0,0,0,0,
0,0,0,0,0,0,0,0,0,0,0,0,0,0,0,0,
0,0,0,0,0,0,0,0,0,0,0,0,0,0,0,0,
0,0,0,0,0,0,0,0,0,0,0,0,0,0,0,0,
0,0,0,0,0,0,0,0,0,0,0,0,0,0,0,0,
0,0,0,0,0,0,0,0,0,0,0,0,0,0,0,0,
0,0,0,0,0,0,0,0,0,0,0,0,0,0,0,0,
0,0,0,0,0,0,0,0,0,0,0,0,0,0,0,0,
0,0,0,0,0,0,0,0,0,0,0,0,0,0,0,0,
0,0,0,0,0,0,0,0,0,0,0,0,0,0,0,0,
0,0,0,0,0,0,0,0,0,0,0,0,0,0,0,0
</chunk>
  </data>
 </layer>
 <layer id="2" name="collision" width="64" height="32">
  <data encoding="csv">
   <chunk x="0" y="0" width="16" height="16">
0,0,0,0,0,0,0,0,0,0,0,0,0,0,0,0,
0,0,0,0,0,0,0,0,0,0,0,0,0,0,0,0,
0,0,0,0,0,0,0,0,0,0,0,0,0,0,0,0,
0,0,0,0,0,0,0,0,0,0,0,0,0,0,0,0,
0,0,0,0,0,0,0,0,0,0,0,0,0,0,0,0,
0,0,0,0,0,0,0,0,0,0,0,0,0,0,0,0,
0,0,0,0,0,0,0,0,0,4,0,0,0,0,0,0,
0,0,0,0,0,0,0,0,0,0,0,0,0,0,0,0,
0,0,0,0,0,0,0,0,0,0,0,0,0,0,0,0,
0,0,0,0,0,0,0,0,0,0,0,0,0,0,0,0,
0,0,0,0,0,0,0,0,0,0,0,0,0,0,0,0,
0,0,0,0,0,0,0,0,0,0,0,0,0,0,0,0,
0,0,0,0,0,0,0,0,0,0,0,0,0,0,0,0,
0,0,0,0,0,0,0,0,0,0,0,0,0,0,0,0,
0,0,0,0,0,0,0,0,0,0,0,0,0,0,0,0,
0,0,0,0,0,0,0,0,0,0,0,0,0,0,0,0
</chunk>
   <chunk x="16" y="0" width="16" height="16">
0,0,0,0,0,0,0,0,0,0,0,0,0,0,0,0,
0,0,0,0,0,0,0,0,0,0,0,0,0,0,0,0,
0,0,0,0,0,0,0,0,0,0,0,0,0,0,0,0,
0,0,0,0,0,0,0,0,0,0,0,0,0,0,0,0,
0,0,0,0,0,0,0,0,0,0,0,0,0,0,0,0,
0,0,0,0,0,0,0,0,0,0,0,0,0,0,0,0,
0,0,0,0,0,0,0,0,0,0,0,0,0,0,0,0,
0,0,0,0,0,0,0,0,0,4,0,0,0,0,0,0,
0,0,0,0,0,0,0,0,0,0,0,0,0,0,0,0,
0,0,0,0,0,0,0,0,0,0,0,0,0,0,0,0,
0,0,0,0,0,0,0,0,0,0,0,0,0,0,0,0,
0,0,0,0,0,0,0,0,0,0,0,0,0,0,0,0,
0,0,0,0,0,0,0,0,0,0,0,0,0,0,0,0,
0,0,0,0,0,0,0,0,0,0,0,0,0,0,0,0,
0,0,0,0,0,0,0,0,0,0,0,0,0,0,0,0,
0,0,0,0,0,0,0,0,0,0,0,0,0,0,0,0
</chunk>
   <chunk x="32" y="0" width="16" height="16">
0,0,0,0,0,0,0,0,0,0,0,0,0,0,0,0,
0,0,0,0,0,0,0,0,0,0,0,0,0,0,0,0,
0,0,0,0,0,0,0,0,0,0,0,0,0,0,0,0,
0,0,0,0,0,0,0,0,0,0,0,0,0,0,0,0,
0,0,0,0,0,0,0,0,0,0,0,0,0,0,0,0,
0,0,0,0,0,0,0,0,0,0,0,0,0,0,0,0,
0,0,0,0,0,0,0,0,0,0,0,0,0,0,0,0,
0,0,4,0,0,0,0,0,0,0,0,0,0,0,0,0,
0,0,0,0,0,0,0,0,0,0,0,0,0,0,0,0,
0,0,0,0,0,0,0,0,0,0,0,0,0,0,0,0,
0,0,0,0,0,0,0,0,0,0,0,0,0,0,0,0,
0,0,0,0,0,0,0,0,0,0,0,0,0,0,0,0,
0,0,0,0,0,0,0,0,0,0,0,0,0,0,0,0,
0,0,0,0,0,0,0,0,0,0,0,0,0,0,0,0,
0,0,0,0,0,0,0,0,0,0,0,0,0,0,0,0,
0,0,0,0,0,0,0,0,0,0,0,0,0,0,0,0
</chunk>
   <chunk x="48" y="0" width="16" height="16">
0,0,0,0,0,0,0,0,0,0,0,0,0,0,0,0,
0,0,0,0,0,0,0,0,0,0,0,0,0,0,0,0,
0,0,0,0,0,0,0,0,0,0,0,0,0,0,0,0,
0,0,0,0,0,0,0,0,0,0,0,0,0,0,0,0,
0,0,0,0,0,0,0,0,0,0,0,0,0,0,0,0,
0,0,0,0,0,0,0,0,0,0,0,0,0,0,0,0,
0,0,0,0,0,0,0,0,0,0,0,0,0,0,0,0,
0,0,0,0,0,0,0,0,0,0,0,0,0,0,0,0,
0,0,0,4,0,0,0,0,0,0,0,0,0,0,0,0,
0,0,0,0,0,0,0,0,0,0,0,0,0,0,0,0,
0,0,0,0,0,0,0,0,0,0,0,0,0,0,0,0,
0,0,0,0,0,0,0,0,0,0,0,0,0,0,0,0,
0,0,0,0,0,0,0,0,0,0,0,0,0,0,0,0,
0,0,0,0,0,0,0,0,0,0,0,0,0,0,0,0,
0,0,0,0,0,0,0,0,0,0,0,0,0,0,0,0,
0,0,0,0,0,0,0,0,0,0,0,0,0,0,0,0
</chunk>
   <chunk x="64" y="0" width="16" height="16">
0,0,0,0,0,0,0,0,0,0,0,0,0,0,0,0,
0,0,0,0,0,0,0,0,0,0,0,0,0,0,0,0,
0,0,0,0,0,0,0,0,0,0,0,0,0,0,0,0,
0,0,0,0,0,0,0,0,0,0,0,0,0,0,0,0,
0,0,0,0,0,0,0,0,0,0,0,0,0,0,0,0,
0,0,0,0,0,0,0,0,0,0,0,0,0,0,0,0,
0,0,0,0,0,0,0,0,0,0,0,0,0,0,0,0,
0,0,0,0,0,0,0,0,0,0,0,0,0,0,0,0,
0,0,0,0,0,0,0,0,0,0,0,0,0,0,0,0,
0,0,0,0,0,0,0,4,0,0,0,0,0,0,0,0,
0,0,0,0,0,0,0,0,0,0,0,0,0,0,0,0,
0,0,0,0,0,0,0,0,0,0,0,0,0,0,0,0,
0,0,0,0,0,0,0,0,0,0,0,0,0,0,0,0,
0,0,0,0,0,0,0,0,0,0,0,0,0,0,0,0,
0,0,0,0,0,0,0,0,0,0,0,0,0,0,0,0,
0,0,0,0,0,0,0,0,0,0,0,0,0,0,0,0
</chunk>
   <chunk x="80" y="0" width="16" height="16">
0,0,0,0,0,0,0,0,0,0,0,0,0,0,0,0,
0,0,0,0,0,0,0,0,0,0,0,0,0,0,0,0,
0,0,0,0,0,0,0,0,0,0,0,0,0,0,0,0,
0,0,0,0,0,0,0,0,0,0,0,0,0,0,0,0,
0,0,0,0,0,0,0,0,0,0,0,0,0,0,0,0,
0,0,0,0,0,0,0,0,0,0,0,0,0,0,0,0,
0,0,0,0,0,0,0,0,0,0,0,0,0,0,0,0,
0,0,0,0,0,0,0,0,0,0,0,0,0,4,0,0,
0,0,0,0,0,0,0,0,0,0,0,0,0,0,0,0,
0,0,0,0,0,0,0,0,0,0,0,0,0,0,0,0,
0,0,0,0,0,0,0,0,0,0,0,0,0,0,0,0,
0,0,0,0,0,0,0,0,0,0,0,0,0,0,0,0,
0,0,0,0,0,0,0,0,0,0,0,0,0,0,0,0,
0,0,0,0,0,0,0,0,0,0,0,0,0,0,0,0,
0,0,0,0,0,0,0,0,0,0,0,0,0,0,0,0,
0,0,0,0,0,0,0,0,0,0,0,0,0,0,0,0
</chunk>
   <chunk x="96" y="0" width="16" height="16">
0,0,0,0,0,0,0,0,0,0,0,0,0,0,0,0,
0,0,0,0,0,0,0,0,0,0,0,0,0,0,0,0,
0,0,0,0,0,0,0,0,0,0,0,0,0,0,0,0,
0,0,0,0,0,0,0,0,0,0,0,0,0,0,0,0,
0,0,0,0,0,0,0,0,0,0,0,0,0,0,0,0,
0,0,0,0,0,0,0,0,0,0,0,0,0,0,0,0,
0,0,0,0,0,0,0,0,0,0,0,0,0,0,0,0,
0,0,0,0,0,0,0,4,0,0,0,0,0,0,0,0,
0,0,0,0,0,0,0,0,0,0,0,0,0,0,0,0,
0,0,0,0,0,0,0,0,0,0,0,0,0,0,0,0,
0,0,0,0,0,0,0,0,0,0,0,0,0,0,0,0,
0,0,0,0,0,0,0,0,0,0,0,0,0,0,0,0,
0,0,0,0,0,0,0,0,0,0,0,0,0,0,0,0,
0,0,0,0,0,0,0,0,0,0,0,0,0,0,0,0,
0,0,0,0,0,0,0,0,0,0,0,0,0,0,0,0,
0,0,0,0,0,0,0,0,0,0,0,0,0,0,0,0
</chunk>
   <chunk x="112" y="0" width="16" height="16">
0,0,0,0,0,0,0,0,0,0,0,0,0,0,0,0,
0,0,0,0,0,0,0,0,0,0,0,0,0,0,0,0,
0,0,0,0,0,0,0,0,0,0,0,0,0,0,0,0,
0,0,0,0,0,0,0,0,0,0,0,0,0,0,0,0,
0,0,0,0,0,0,0,0,0,0,0,0,0,0,0,0,
0,0,0,0,0,0,0,0,0,0,0,0,0,0,0,0,
0,0,0,0,0,0,0,0,0,0,0,0,0,0,0,0,
0,0,0,0,0,0,0,0,0,0,0,0,0,0,0,0,
0,0,0,0,0,0,0,0,0,0,0,0,0,0,0,0,
0,0,0,0,0,0,0,0,0,0,0,0,0,0,0,0,
0,0,0,0,0,0,0,0,0,4,0,0,0,0,0,0,
0,0,0,0,0,0,0,0,0,0,0,0,0,0,0,0,
0,0,0,0,0,0,0,0,0,0,0,0,0,0,0,0,
0,0,0,0,0,0,0,0,0,0,0,0,0,0,0,0,
0,0,0,0,0,0,0,0,0,0,0,0,0,0,0,0,
0,0,0,0,0,0,0,0,0,0,0,0,0,0,0,0
</chunk>
   <chunk x="128" y="0" width="16" height="16">
0,0,0,0,0,0,0,0,0,0,0,0,0,0,0,0,
0,0,0,0,0,0,0,0,0,0,0,0,0,0,0,0,
0,0,0,0,0,0,0,0,0,0,0,0,0,0,0,0,
0,0,0,0,0,0,0,0,0,0,0,0,0,0,0,0,
0,0,0,0,0,0,0,0,0,0,0,0,0,0,0,0,
0,0,0,0,0,0,0,0,0,0,0,0,0,0,0,0,
0,0,0,0,0,0,0,0,0,0,0,0,0,0,0,0,
0,0,0,0,0,0,0,0,0,0,0,0,0,0,0,0,
0,0,0,0,0,0,0,0,0,0,0,0,0,0,0,0,
0,0,0,0,0,4,0,0,0,0,0,0,0,0,0,0,
0,0,0,0,0,0,0,0,0,0,0,0,0,0,0,0,
0,0,0,0,0,0,0,0,0,0,0,0,0,0,0,0,
0,0,0,0,0,0,0,0,0,0,0,0,0,0,0,0,
0,0,0,0,0,0,0,0,0,0,0,0,0,0,0,0,
0,0,0,0,0,0,0,0,0,0,0,0,0,0,0,0,
0,0,0,0,0,0,0,0,0,0,0,0,0,0,0,0
</chunk>
   <chunk x="144" y="0" width="16" height="16">
0,0,0,0,0,0,0,0,0,0,0,0,0,0,0,0,
0,0,0,0,0,0,0,0,0,0,0,0,0,0,0,0,
0,0,0,0,0,0,0,0,0,0,0,0,0,0,0,0,
0,0,0,0,0,0,0,0,0,0,0,0,0,0,0,0,
0,0,0,0,0,0,0,0,0,0,0,0,0,0,0,0,
0,0,0,0,0,0,0,0,0,0,0,0,0,0,0,0,
0,0,0,0,0,0,0,0,0,0,0,0,0,0,0,0,
0,0,0,0,0,0,0,0,0,0,0,0,0,0,0,0,
0,0,0,0,0,0,0,0,0,0,0,0,0,0,0,0,
0,0,0,0,0,0,0,0,0,0,0,0,0,0,0,0,
0,0,0,0,0,0,0,4,0,0,0,0,0,0,0,0,
0,0,0,0,0,0,0,0,0,0,0,0,0,0,0,0,
0,0,0,0,0,0,0,0,0,0,0,0,0,0,0,0,
0,0,0,0,0,0,0,0,0,0,0,0,0,0,0,0,
0,0,0,0,0,0,0,0,0,0,0,0,0,0,0,0,
0,0,0,0,0,0,0,0,0,0,0,0,0,0,0,0
</chunk>
   <chunk x="0" y="16" width="16" height="16">
0,0,0,0,0,0,0,0,0,0,0,0,0,0,0,0,
0,0,0,0,0,0,0,0,0,0,0,0,0,0,0,0,
0,0,0,0,0,0,0,0,0,0,0,0,0,0,0,0,
0,0,0,0,0,0,0,0,0,0,0,0,0,0,0,0,
0,0,0,0,0,0,0,0,0,0,0,0,0,0,0,0,
0,0,0,0,0,0,0,0,0,0,0,0,0,0,0,0,
0,0,0,0,4,0,0,0,0,0,0,0,0,0,0,0,
0,0,0,0,0,0,0,0,0,0,0,0,0,0,0,0,
0,0,0,0,0,0,0,0,0,0,0,0,0,0,0,0,
0,0,0,0,0,0,0,0,0,0,0,0,0,0,0,0,
0,0,0,0,0,0,0,0,0,0,0,0,0,0,0,0,
0,0,0,0,0,0,0,0,0,0,0,0,0,0,0,0,
0,0,0,0,0,0,0,0,0,0,0,0,0,0,0,0,
0,0,0,0,0,0,0,0,0,0,0,0,0,0,0,0,
0,0,0,0,0,0,0,0,0,0,0,0,0,0,0,0,
0,0,0,0,0,0,0,0,0,0,0,0,0,0,0,0
</chunk>
   <chunk x="16" y="16" width="16" height="16">
0,0,0,0,0,0,0,0,0,0,0,0,0,0,0,0,
0,0,0,0,0,0,0,0,0,0,0,0,0,0,0,0,
0,0,0,0,0,0,0,0,0,0,0,0,0,0,0,0,
0,0,0,0,0,0,0,0,0,0,0,0,0,0,0,0,
0,0,0,0,0,0,0,0,0,0,0,0,0,0,0,0,
0,0,0,0,0,0,0,0,0,0,0,0,0,0,0,0,
0,0,0,0,0,0,0,0,0,4,0,0,0,0,0,0,
0,0,0,0,0,0,0,0,0,0,0,0,0,0,0,0,
0,0,0,0,0,0,0,0,0,0,0,0,0,0,0,0,
0,0,0,0,0,0,0,0,0,0,0,0,0,0,0,0,
0,0,0,0,0,0,0,0,0,0,0,0,0,0,0,0,
0,0,0,0,0,0,0,0,0,0,0,0,0,0,0,0,
0,0,0,0,0,0,0,0,0,0,0,0,0,0,0,0,
0,0,0,0,0,0,0,0,0,0,0,0,0,0,0,0,
0,0,0,0,0,0,0,0,0,0,0,0,0,0,0,0,
0,0,0,0,0,0,0,0,0,0,0,0,0,0,0,0
</chunk>
   <chunk x="32" y="16" width="16" height="16">
0,0,0,0,0,0,0,0,0,0,0,0,0,0,0,0,
0,0,0,0,0,0,0,0,0,0,0,0,0,0,0,0,
0,0,0,0,0,0,0,0,0,0,0,0,0,0,0,0,
0,0,0,0,0,0,0,0,0,0,0,0,0,0,0,0,
0,0,0,0,0,0,0,0,0,0,0,0,0,0,0,0,
0,0,0,0,0,0,0,0,0,0,0,0,0,0,0,0,
0,0,0,0,0,0,0,0,0,0,0,0,0,0,0,0,
0,0,0,0,0,0,0,0,0,0,0,0,0,0,0,0,
0,0,0,0,0,0,0,0,0,0,0,0,0,0,0,0,
0,0,0,0,0,0,0,0,0,0,0,0,0,0,0,0,
0,0,0,0,0,0,0,0,0,0,0,0,0,12,13,62,
0,0,0,0,0,0,0,0,0,0,0,12,13,69,71,71,
0,0,0,0,0,0,0,12,13,62,62,69,71,71,71,71,
0,0,0,0,0,0,10,69,71,71,71,71,71,71,71,71,
0,0,0,0,0,0,70,71,71,71,71,71,71,71,71,71,
0,0,0,0,0,0,70,71,71,71,71,71,71,71,71,71
</chunk>
   <chunk x="48" y="16" width="16" height="16">
0,0,0,0,0,0,0,0,0,0,0,0,0,0,0,0,
0,0,0,0,0,0,0,0,0,0,0,0,0,0,0,0,
0,0,0,0,0,0,0,0,0,0,0,0,0,0,0,0,
0,0,0,0,0,0,0,0,0,0,0,0,0,0,0,0,
0,0,0,0,0,0,0,0,0,0,0,0,0,0,0,0,
0,0,0,0,0,0,0,0,0,0,0,0,0,0,0,0,
0,0,0,0,0,0,0,0,0,0,0,0,0,0,0,0,
0,0,0,0,0,0,0,0,0,0,0,0,0,0,0,0,
0,0,0,0,0,0,0,0,0,0,0,0,0,0,0,0,
0,0,0,0,0,0,0,0,0,0,0,0,0,0,0,0,
62,62,62,62,62,62,62,62,62,62,63,25,0,25,61,62,
71,71,71,71,71,71,71,71,71,71,72,0,0,0,70,71,
71,71,71,71,71,71,71,71,71,71,72,0,0,0,70,71,
71,71,71,71,71,71,71,71,71,71,72,0,0,0,70,71,
71,71,71,71,71,71,71,71,71,71,72,0,0,0,70,71,
71,71,71,71,71,71,71,71,71,71,72,0,0,0,70,71
</chunk>
   <chunk x="64" y="16" width="16" height="16">
0,0,0,0,0,0,0,0,0,0,0,0,0,0,0,0,
0,0,0,0,0,0,0,0,0,0,0,0,0,0,0,0,
0,0,0,0,0,0,0,0,0,0,0,0,0,0,0,0,
0,0,0,0,0,0,0,0,0,0,0,0,0,0,0,0,
0,0,0,0,0,0,0,0,0,0,0,0,0,0,0,0,
0,0,0,0,0,0,0,0,0,0,0,0,0,0,0,0,
0,0,0,0,0,0,0,0,0,0,0,0,0,12,13,62,
0,0,0,0,0,0,0,0,0,0,0,0,10,69,71,71,
0,0,0,0,0,0,0,0,0,0,0,10,69,71,71,71,
0,0,0,0,0,0,0,0,0,0,10,69,71,71,71,71,
62,62,62,63,25,25,25,25,25,25,79,80,80,80,80,80,
71,71,71,72,0,0,0,0,0,0,0,0,0,0,0,0,
71,71,71,72,0,0,0,0,0,0,0,0,0,0,0,0,
71,71,71,72,0,0,0,0,0,0,0,0,0,0,0,0,
71,71,71,72,0,0,0,0,0,0,0,0,0,0,0,0,
71,71,71,72,0,0,0,0,0,0,0,0,0,0,0,0
</chunk>
   <chunk x="80" y="16" width="16" height="16">
0,0,0,0,0,0,0,0,0,0,0,0,0,0,0,0,
0,0,0,0,0,0,0,0,0,0,0,0,0,0,0,0,
0,0,0,0,0,0,0,0,0,0,0,0,0,0,0,0,
0,0,0,0,0,0,0,0,0,0,0,0,0,0,0,0,
0,0,0,12,13,62,62,62,62,62,62,62,14,15,0,0,
0,12,13,69,71,71,71,71,71,71,71,71,71,68,62,62,
62,69,71,71,71,71,71,71,71,71,71,71,71,71,71,71,
71,71,71,71,71,71,71,71,71,71,71,71,71,71,71,71,
71,71,71,71,71,71,71,71,71,71,71,71,71,71,71,71,
71,71,71,71,71,59,80,80,80,80,80,80,80,80,80,80,
80,80,80,80,80,18,0,0,0,0,0,0,0,0,0,0,
0,0,0,0,0,0,0,0,0,0,0,0,0,0,0,0,
0,0,0,0,0,0,0,0,0,0,0,0,0,0,0,0,
0,0,0,0,0,0,0,0,0,0,0,0,0,0,0,0,
0,0,0,0,0,0,0,0,0,0,0,0,0,0,0,0,
0,0,0,0,0,0,0,0,0,0,0,0,0,0,0,0
</chunk>
   <chunk x="96" y="16" width="16" height="16">
0,0,0,0,0,0,0,0,0,0,0,0,0,0,0,0,
0,0,0,0,0,0,0,0,0,0,0,0,0,0,0,0,
0,0,0,0,0,0,0,0,0,0,0,0,0,0,0,0,
0,0,0,0,0,0,0,0,0,0,0,0,0,0,0,0,
0,0,0,0,0,0,0,0,0,0,12,13,62,62,62,62,
62,62,62,62,62,62,62,62,62,62,69,71,71,71,71,71,
71,71,71,71,71,71,71,71,71,71,71,71,71,71,71,71,
71,71,71,71,71,71,71,71,71,71,71,71,71,71,71,71,
71,71,71,71,71,71,71,71,71,71,71,71,71,71,71,71,
60,71,71,71,71,71,71,71,71,71,71,71,59,80,80,80,
27,80,80,80,80,80,80,80,80,80,80,80,18,0,0,0,
0,0,0,0,0,0,0,0,0,0,0,0,0,0,0,0,
0,0,0,0,0,0,0,0,0,0,0,0,0,0,0,0,
0,0,0,0,0,0,0,0,0,0,0,0,0,0,0,0,
0,0,0,0,0,0,0,0,0,0,0,0,0,0,0,0,
0,0,0,0,0,0,0,0,0,0,0,0,0,0,0,0
</chunk>
   <chunk x="112" y="16" width="16" height="16">
0,0,0,0,0,0,0,0,0,0,0,0,0,0,0,0,
0,0,0,0,0,0,0,0,0,0,0,0,0,0,0,0,
0,0,0,0,0,0,0,0,0,0,0,0,0,0,0,0,
0,0,0,0,0,0,0,0,0,0,0,0,0,0,0,0,
62,62,62,62,63,25,25,25,25,25,0,0,0,0,0,0,
71,71,71,71,72,0,0,0,0,0,0,0,0,0,0,0,
71,71,71,71,72,0,0,0,0,0,0,0,0,0,0,0,
71,71,71,71,72,0,0,0,0,0,0,0,0,0,0,0,
71,59,80,80,81,0,0,0,0,0,0,0,0,0,0,0,
80,81,0,0,0,25,25,25,25,25,61,62,62,62,62,62,
0,0,0,0,0,0,0,0,0,0,70,71,71,71,71,71,
0,0,0,0,0,0,0,0,0,0,70,71,71,71,71,71,
0,0,0,0,0,0,0,0,0,0,70,71,71,71,71,71,
0,0,0,0,0,0,0,0,0,0,70,71,71,71,71,71,
0,0,0,0,0,0,0,0,0,0,70,71,71,71,71,71,
0,0,0,0,0,0,0,0,0,0,70,71,71,71,71,71
</chunk>
   <chunk x="128" y="16" width="16" height="16">
0,0,0,0,0,0,0,0,0,0,0,0,0,0,0,0,
0,0,0,0,0,0,0,0,0,0,0,0,0,0,0,0,
0,0,0,0,0,0,0,0,0,0,0,0,0,0,0,0,
0,0,0,0,0,0,0,0,0,0,0,0,0,0,0,0,
0,0,0,0,0,0,0,0,0,0,0,0,0,0,0,0,
0,0,0,0,0,0,0,0,0,0,0,0,0,0,0,0,
0,0,0,0,0,0,0,0,0,0,0,0,0,0,0,0,
0,0,0,0,0,0,0,0,0,0,0,0,0,0,0,0,
0,0,0,0,0,0,0,0,0,0,0,0,0,0,0,0,
14,15,0,0,0,0,0,0,0,0,0,0,0,0,0,0,
71,68,11,0,0,0,0,0,0,0,0,0,0,0,0,0,
71,71,68,62,62,62,62,63,0,0,0,0,0,0,0,0,
71,71,71,71,71,71,71,72,0,0,0,0,0,0,0,0,
71,71,71,71,71,71,71,72,0,0,0,0,0,0,0,0,
71,71,71,71,71,71,71,72,0,0,0,0,0,0,0,0,
71,71,71,71,71,71,71,72,0,0,0,0,0,0,0,0
</chunk>
   <chunk x="144" y="16" width="16" height="16">
0,0,0,0,0,0,0,0,0,0,0,0,0,0,0,0,
0,0,0,0,0,0,0,0,0,0,0,0,0,0,0,0,
0,0,0,0,0,0,0,0,0,0,0,0,0,0,0,0,
0,0,0,0,0,0,0,0,0,0,0,0,0,0,0,0,
0,0,0,0,0,0,0,0,0,0,0,0,0,0,0,0,
0,0,0,0,0,0,0,0,0,0,0,0,0,0,0,0,
0,0,0,0,0,0,0,0,0,0,0,0,0,0,0,0,
0,0,0,0,0,0,0,0,0,0,0,0,0,0,0,0,
0,0,0,0,0,0,4,0,0,0,0,0,0,0,0,0,
0,0,0,0,0,0,0,0,0,0,0,0,0,0,0,0,
0,0,0,0,0,0,0,0,0,0,0,0,0,0,0,0,
0,0,0,0,0,0,0,0,0,0,0,0,0,0,0,0,
0,0,0,0,0,0,0,0,0,0,0,0,0,0,0,0,
0,0,0,0,0,0,0,0,0,0,0,0,0,0,0,0,
0,0,0,0,0,0,0,0,0,0,0,0,0,0,0,0,
0,0,0,0,0,0,0,0,0,0,0,0,0,0,0,0
</chunk>
   <chunk x="0" y="32" width="16" height="16">
0,0,0,0,0,0,0,0,0,0,0,0,0,0,0,0,
0,0,0,0,0,0,0,0,0,0,0,0,0,0,0,0,
0,0,0,0,0,0,0,0,0,0,0,0,0,0,0,0,
0,0,0,0,0,0,0,0,0,0,0,0,0,0,0,0,
0,0,0,0,0,0,0,0,0,0,0,0,0,0,0,0,
0,0,0,0,0,0,0,0,0,0,0,0,0,0,0,0,
0,0,0,0,0,0,0,0,0,0,0,0,0,0,0,0,
0,0,0,0,0,0,0,0,0,0,0,0,0,0,0,0,
0,0,0,0,0,0,0,0,0,0,0,0,0,0,4,0,
0,0,0,0,0,0,0,0,0,0,0,0,0,0,0,0,
0,0,0,0,0,0,0,0,0,0,0,0,0,0,0,0,
0,0,0,0,0,0,0,0,0,0,0,0,0,0,0,0,
0,0,0,0,0,0,0,0,0,0,0,0,0,0,0,0,
0,0,0,0,0,0,0,0,0,0,0,0,0,0,0,0,
0,0,0,0,0,0,0,0,0,0,0,0,0,0,0,0,
0,0,0,0,0,0,0,0,0,0,0,0,0,0,0,0
</chunk>
   <chunk x="16" y="32" width="16" height="16">
0,0,0,0,0,0,0,0,0,0,0,0,0,0,0,0,
0,0,0,0,0,0,0,0,0,0,0,0,0,0,0,0,
0,0,0,0,0,0,0,0,0,0,0,0,0,0,0,0,
0,0,0,0,0,0,0,0,0,0,0,0,0,0,0,0,
0,0,0,0,0,0,0,0,0,0,0,0,0,0,0,0,
0,0,0,0,0,0,0,0,0,0,0,0,0,0,0,0,
0,0,0,0,0,0,0,0,0,0,0,0,0,0,0,0,
0,0,0,0,0,0,0,0,4,0,0,0,0,0,0,0,
0,0,0,0,0,0,0,0,0,0,0,0,0,0,0,0,
0,0,0,0,0,0,0,0,0,0,0,0,0,0,0,0,
0,0,0,0,0,0,0,0,0,0,0,0,0,0,0,0,
0,0,0,0,0,0,0,0,0,0,0,0,0,0,0,0,
0,0,0,0,0,0,0,0,0,0,0,0,0,0,0,0,
0,0,0,0,0,0,0,0,0,0,0,0,0,0,0,0,
0,0,0,0,0,0,0,0,0,0,0,0,0,0,0,0,
0,0,0,0,0,0,0,0,0,0,0,0,0,0,0,0
</chunk>
   <chunk x="32" y="32" width="16" height="16">
0,0,0,0,0,0,70,71,71,71,71,71,71,71,59,80,
0,0,0,0,0,0,70,71,71,71,71,71,59,84,85,0,
0,0,0,0,0,0,70,71,71,71,71,59,18,0,0,0,
0,0,0,0,0,0,70,71,71,71,71,72,0,0,0,0,
0,0,0,0,0,0,70,71,71,71,71,72,0,0,0,0,
0,0,0,0,0,0,70,71,71,71,71,72,0,0,0,0,
0,0,0,0,0,0,70,71,71,71,71,72,0,0,0,0,
0,0,0,0,0,0,70,71,71,71,71,72,0,0,0,0,
0,0,0,0,0,0,70,71,71,71,71,72,0,0,0,0,
0,0,0,0,0,0,70,71,71,71,71,72,0,0,0,0,
0,0,0,0,0,0,70,71,71,71,71,72,0,0,0,0,
0,0,0,0,0,0,70,71,71,71,71,72,0,0,0,0,
0,0,0,0,0,0,70,71,71,71,71,72,0,0,0,0,
0,0,0,0,0,0,70,71,71,71,71,72,0,0,0,0,
0,0,0,0,0,0,70,71,71,71,71,72,0,0,0,0,
0,0,0,0,0,0,70,71,71,71,71,72,0,0,0,0
</chunk>
   <chunk x="48" y="32" width="16" height="16">
80,80,80,80,60,71,71,71,71,71,72,0,0,0,70,71,
0,0,0,0,70,71,71,71,71,71,72,0,0,0,70,71,
0,0,0,0,70,71,71,71,71,71,72,0,0,0,70,71,
0,0,0,0,70,71,71,71,71,71,72,0,0,0,70,71,
0,0,0,0,70,71,71,71,71,71,72,0,0,0,70,71,
0,0,0,0,70,71,71,71,71,71,72,0,0,0,70,71,
25,25,25,25,79,80,80,80,80,80,81,0,0,0,70,71,
0,0,0,0,0,0,0,0,0,0,0,0,0,0,70,71,
0,0,0,0,0,0,0,0,0,0,0,0,0,0,70,71,
0,0,0,0,0,0,0,0,0,0,0,0,0,0,70,71,
0,0,0,0,0,0,0,0,0,0,0,0,0,0,70,71,
0,0,0,0,0,0,0,61,62,62,63,0,0,0,70,71,
0,0,0,0,0,0,0,70,71,71,72,0,0,0,70,71,
0,0,0,0,0,0,0,70,71,71,72,0,0,0,79,80,
0,0,0,0,0,0,0,70,71,71,72,0,0,0,0,0,
0,0,0,0,0,0,0,70,71,71,72,0,0,0,0,0
</chunk>
   <chunk x="64" y="32" width="16" height="16">
71,71,71,72,0,0,0,0,0,0,0,0,0,0,0,0,
71,71,71,72,0,0,0,0,0,0,0,0,0,0,0,0,
71,71,71,72,0,0,0,0,0,0,0,0,0,0,0,0,
71,71,71,72,0,0,0,0,0,0,0,0,0,0,0,0,
71,71,71,72,0,0,0,0,0,0,0,0,0,0,0,0,
71,71,59,18,0,0,0,0,0,0,0,0,0,0,0,0,
71,71,72,0,0,0,0,0,0,0,0,0,0,0,0,0,
71,71,72,0,0,0,0,0,0,0,0,0,0,0,0,0,
71,71,72,0,0,0,0,0,0,0,0,0,0,0,0,0,
71,71,72,0,0,0,0,0,0,0,0,0,0,0,0,0,
71,71,72,0,0,0,0,0,0,0,0,0,0,0,0,0,
71,71,72,0,0,0,0,0,0,0,0,0,0,0,0,0,
71,71,72,0,0,0,0,0,0,0,0,0,0,0,0,0,
80,80,81,0,0,0,0,0,0,0,0,0,0,0,0,0,
0,0,0,0,0,0,0,0,0,0,0,0,0,0,0,0,
0,0,0,0,0,0,0,0,0,0,0,0,0,0,0,0
</chunk>
   <chunk x="80" y="32" width="16" height="16">
0,0,0,0,0,0,0,0,0,0,0,0,0,0,0,0,
0,0,0,0,0,0,0,0,0,0,0,0,0,0,0,0,
0,0,0,0,0,0,0,0,0,0,0,0,0,0,0,0,
0,0,0,0,0,0,0,0,0,0,0,0,0,0,0,0,
0,0,0,0,0,0,0,0,0,0,0,0,0,0,0,0,
0,0,0,0,0,0,0,0,0,0,0,0,0,0,0,0,
0,0,0,0,0,0,0,0,0,0,0,0,0,0,0,0,
0,0,0,0,0,0,0,0,0,0,0,0,0,0,0,0,
0,0,0,0,0,0,0,0,0,0,0,0,4,0,0,0,
0,0,0,0,0,0,0,0,0,0,0,0,0,0,0,0,
0,0,0,0,0,0,0,0,0,0,0,0,0,0,0,0,
0,0,0,0,0,0,0,0,0,0,0,0,0,0,0,0,
0,0,0,0,0,0,0,0,0,0,0,0,0,0,0,0,
0,0,0,0,0,0,0,0,0,0,0,0,0,0,0,0,
0,0,0,0,0,0,0,0,0,0,0,0,0,0,0,0,
0,0,0,0,0,0,0,0,0,0,0,0,0,0,0,0
</chunk>
   <chunk x="96" y="32" width="16" height="16">
0,0,0,0,0,0,0,0,0,0,0,0,0,0,0,0,
0,0,0,0,0,0,0,0,0,0,0,0,0,0,0,0,
0,0,0,0,0,0,0,0,0,0,0,0,0,0,0,0,
0,0,0,0,0,0,0,0,0,0,0,0,0,0,0,0,
0,0,0,0,0,0,0,0,0,0,0,0,0,0,0,0,
0,0,0,0,0,0,0,0,0,0,0,0,0,0,0,0,
0,0,0,0,0,0,4,0,0,0,0,0,0,0,0,0,
0,0,0,0,0,0,0,0,0,0,0,0,0,0,0,0,
0,0,0,0,0,0,0,0,0,0,0,0,0,0,0,0,
0,0,0,0,0,0,0,0,0,0,0,0,0,0,0,0,
0,0,0,0,0,0,0,0,0,0,0,0,0,0,0,0,
0,0,0,0,0,0,0,0,0,0,0,0,0,0,0,0,
0,0,0,0,0,0,0,0,0,0,0,0,0,0,0,0,
0,0,0,0,0,0,0,0,0,0,0,0,0,0,0,0,
0,0,0,0,0,0,0,0,0,0,0,0,0,0,0,0,
0,0,0,0,0,0,0,0,0,0,0,0,0,0,0,0
</chunk>
   <chunk x="112" y="32" width="16" height="16">
0,0,0,0,0,0,0,0,0,0,70,71,71,71,71,71,
0,0,0,0,0,0,0,0,0,0,70,71,71,71,71,71,
0,0,0,0,0,0,0,0,0,0,70,71,71,71,71,71,
0,0,0,0,0,0,0,0,0,0,70,71,71,71,71,71,
0,0,0,0,0,0,0,0,0,0,70,71,71,71,71,71,
0,0,0,0,0,61,62,62,62,62,69,71,71,71,71,71,
0,0,0,0,0,70,71,71,71,71,71,71,71,71,71,71,
0,0,0,0,0,70,71,71,71,71,71,71,71,71,71,71,
0,0,0,0,0,70,71,71,71,71,71,71,71,71,71,71,
0,0,0,0,0,70,71,71,71,71,71,71,71,71,71,71,
0,0,0,0,0,70,71,71,71,71,71,71,71,71,71,71,
0,0,0,0,0,70,71,71,71,71,71,71,71,71,71,71,
0,0,0,0,0,70,71,71,71,71,71,71,71,71,71,71,
0,0,0,0,0,70,71,71,71,71,71,71,71,71,71,71,
0,0,0,0,0,70,71,71,71,71,71,71,71,71,71,71,
0,0,0,0,0,70,71,71,71,71,71,71,71,71,71,71
</chunk>
   <chunk x="128" y="32" width="16" height="16">
71,71,71,71,71,71,71,72,0,0,0,0,0,0,0,0,
71,71,71,71,71,71,71,72,0,0,0,0,0,0,0,0,
71,71,71,71,71,71,71,72,0,0,0,0,0,0,0,0,
71,71,71,71,71,71,71,72,0,0,0,0,0,0,0,0,
71,71,71,71,71,71,71,72,0,0,0,0,0,0,0,0,
71,71,71,71,71,71,71,72,0,0,0,0,0,0,0,0,
71,71,71,71,71,71,71,72,0,0,0,0,0,0,0,0,
71,71,71,71,71,71,71,68,63,0,0,0,0,0,0,0,
71,71,71,71,71,71,71,71,72,0,0,0,0,0,0,0,
71,71,71,71,71,71,71,71,72,0,0,0,0,0,0,0,
71,71,71,71,71,71,71,71,72,0,0,0,0,0,0,0,
71,71,71,71,71,71,71,71,72,0,0,0,0,0,0,0,
71,71,71,71,71,71,71,71,72,0,0,0,0,0,0,0,
71,71,71,71,71,71,71,71,72,0,0,0,0,0,0,0,
71,71,71,71,71,71,71,71,72,0,0,0,0,0,0,0,
71,71,71,71,71,71,71,71,72,0,0,0,0,0,0,0
</chunk>
   <chunk x="144" y="32" width="16" height="16">
0,0,0,0,0,0,0,0,0,0,0,0,0,0,0,0,
0,0,0,0,0,0,0,0,0,0,0,0,0,0,0,0,
0,0,0,0,0,0,0,0,0,0,0,0,0,0,0,0,
0,0,0,0,0,0,0,0,0,0,0,0,0,0,0,0,
0,0,0,0,0,0,0,0,0,0,0,0,0,0,0,0,
0,0,0,0,0,0,0,0,0,0,0,0,0,0,0,0,
0,0,0,0,0,0,4,0,0,0,0,0,0,0,0,0,
0,0,0,0,0,0,0,0,0,0,0,0,0,0,0,0,
0,0,0,0,0,0,0,0,0,0,0,0,0,0,0,0,
0,0,0,0,0,0,0,0,0,0,0,0,0,0,0,0,
0,0,0,0,0,0,0,0,0,0,0,0,0,0,0,0,
0,0,0,0,0,0,0,0,0,0,0,0,0,0,0,0,
0,0,0,0,0,0,0,0,0,0,0,0,0,0,0,0,
0,0,0,0,0,0,0,0,0,0,0,0,0,0,0,0,
0,0,0,0,0,0,0,0,0,0,0,0,0,0,0,0,
0,0,0,0,0,0,0,0,0,0,0,0,0,0,0,0
</chunk>
   <chunk x="0" y="48" width="16" height="16">
0,0,0,0,0,0,0,0,0,0,0,0,0,0,0,0,
0,0,0,0,0,0,0,0,0,0,0,0,0,0,0,0,
0,0,0,0,0,0,0,0,0,0,0,0,0,0,0,0,
0,0,0,0,0,0,0,0,0,0,0,0,0,0,0,0,
0,0,0,0,0,0,0,0,0,0,0,0,0,0,0,0,
0,0,0,0,0,0,0,0,0,0,0,0,0,0,0,0,
0,0,0,0,0,0,0,0,0,0,0,0,0,0,0,0,
0,0,0,0,0,0,0,0,0,0,0,0,0,0,0,0,
0,0,0,0,0,0,0,0,0,4,0,0,0,0,0,0,
0,0,0,0,0,0,0,0,0,0,0,0,0,0,0,0,
0,0,0,0,0,0,0,0,0,0,0,0,0,0,0,0,
0,0,0,0,0,0,0,0,0,0,0,0,0,0,0,0,
0,0,0,0,0,0,0,0,0,0,0,0,0,0,0,0,
0,0,0,0,0,0,0,0,0,0,0,0,0,0,0,0,
0,0,0,0,0,0,0,0,0,0,0,0,0,0,0,0,
0,0,0,0,0,0,0,0,0,0,0,0,0,0,0,0
</chunk>
   <chunk x="16" y="48" width="16" height="16">
0,0,0,0,0,0,0,0,0,0,0,0,0,0,0,0,
0,0,0,0,0,0,0,0,0,0,0,0,0,0,0,0,
0,0,0,0,0,0,0,0,0,0,0,0,0,0,0,0,
0,0,0,0,0,0,0,0,0,0,0,0,0,0,0,0,
0,0,0,0,0,0,0,0,0,0,0,0,0,0,0,0,
0,0,4,0,0,0,0,0,0,0,0,0,0,0,0,0,
0,0,0,0,0,0,0,0,0,0,0,0,0,0,0,0,
0,0,0,0,0,0,0,0,0,0,0,0,0,0,0,0,
0,0,0,0,0,0,0,0,0,0,0,0,0,0,0,0,
0,0,0,0,0,0,0,0,0,0,0,0,0,0,0,0,
0,0,0,0,0,0,0,0,0,0,0,0,0,0,0,0,
0,0,0,0,0,0,0,0,0,0,0,0,0,0,0,0,
0,0,0,0,0,0,0,0,0,0,0,0,0,0,0,0,
0,0,0,0,0,0,0,0,0,0,0,0,0,0,0,0,
0,0,0,0,0,0,0,0,0,0,0,0,0,0,0,0,
0,0,0,0,0,0,0,0,0,0,0,0,0,0,0,0
</chunk>
   <chunk x="32" y="48" width="16" height="16">
0,0,0,0,0,0,70,71,71,71,71,72,0,0,0,0,
0,0,0,0,0,0,70,71,71,71,71,68,62,62,62,62,
0,0,0,0,0,0,70,71,71,71,71,71,71,71,71,71,
0,0,0,0,0,0,79,80,60,71,71,71,71,71,71,71,
0,0,0,0,0,0,0,0,27,80,60,71,71,71,71,71,
0,0,0,0,0,0,0,0,0,0,27,80,60,71,71,71,
0,0,0,0,0,0,0,0,0,0,0,0,27,60,71,71,
0,0,0,0,0,0,0,0,0,0,0,0,0,27,80,60,
0,0,0,0,0,0,0,0,0,0,0,0,0,0,0,27,
0,0,0,0,0,0,0,0,0,0,0,0,0,0,0,0,
0,0,0,0,0,0,0,0,0,0,0,0,0,0,0,0,
0,0,0,0,0,0,0,0,0,0,0,0,0,0,0,0,
0,0,0,0,0,0,0,0,0,0,0,0,0,0,0,0,
0,0,0,0,0,0,0,0,0,0,0,0,0,0,0,0,
0,0,0,0,0,0,0,0,0,0,0,0,0,0,0,0,
61,62,62,62,62,62,62,62,63,0,0,0,0,0,25,25
</chunk>
   <chunk x="48" y="48" width="16" height="16">
0,0,0,0,0,0,0,70,71,71,72,0,0,0,0,0,
62,62,62,63,25,0,0,70,71,71,72,0,0,0,0,0,
71,71,71,72,0,0,0,70,71,71,68,62,62,62,62,63,
71,71,71,72,0,0,0,70,71,71,71,71,71,71,71,72,
71,71,71,72,0,0,0,70,71,71,71,71,71,71,71,72,
71,71,71,72,0,0,0,70,71,71,71,71,71,71,71,68,
71,71,71,72,0,0,0,70,71,71,71,71,71,71,71,71,
71,71,71,72,0,0,0,70,71,71,71,71,71,71,71,71,
80,80,80,81,0,0,0,70,71,71,71,71,71,71,71,71,
0,0,0,0,0,0,0,70,71,71,71,71,71,71,71,71,
0,0,0,0,0,0,0,70,71,71,71,71,71,71,71,71,
0,0,0,0,0,0,0,70,71,71,71,71,71,71,71,71,
0,0,0,0,0,0,0,70,71,71,71,71,71,71,71,71,
0,0,0,0,0,0,0,70,71,71,71,71,71,71,71,71,
0,0,0,0,0,0,0,70,71,71,71,71,71,71,71,71,
25,61,62,62,62,62,62,69,71,71,71,71,71,71,71,71
</chunk>
   <chunk x="64" y="48" width="16" height="16">
0,0,0,0,0,0,0,0,0,0,0,0,0,0,0,0,
0,0,0,0,0,0,0,0,0,0,0,0,0,0,0,0,
0,0,0,0,0,0,0,0,0,0,0,0,0,0,0,0,
0,0,0,0,0,0,0,0,0,0,0,0,0,0,0,0,
0,0,0,0,0,0,0,0,0,0,0,0,0,0,0,0,
62,62,62,62,62,62,62,62,62,62,62,62,62,62,62,62,
71,71,71,71,71,71,71,71,71,71,71,71,71,71,71,71,
71,71,71,71,71,71,71,71,71,71,71,71,71,71,71,71,
71,71,71,71,71,71,71,71,71,71,71,71,71,71,71,71,
71,71,71,71,71,71,71,71,71,71,71,71,71,71,71,71,
71,71,71,71,71,71,71,71,71,71,71,71,71,71,71,71,
71,71,71,71,71,71,71,71,71,71,71,71,71,71,71,71,
71,71,71,71,71,71,71,71,71,71,71,71,71,71,71,71,
71,71,71,71,71,71,71,71,71,71,71,71,71,71,71,71,
71,71,71,71,71,71,71,71,71,71,71,71,71,71,71,71,
71,71,71,71,71,71,71,71,71,71,71,71,71,71,71,71
</chunk>
   <chunk x="80" y="48" width="16" height="16">
0,0,0,0,0,0,0,0,0,0,0,0,0,0,0,0,
0,0,0,0,0,0,0,0,0,0,0,0,0,0,0,0,
0,0,0,0,0,0,0,0,0,0,0,0,0,0,0,0,
0,0,0,0,0,0,0,0,0,0,0,0,0,0,0,0,
0,0,0,0,0,0,0,0,0,0,0,0,0,0,0,0,
62,62,62,62,62,62,62,62,62,62,62,62,62,62,62,62,
71,71,71,71,71,71,71,71,71,71,71,71,71,71,71,71,
71,71,71,71,71,71,71,71,71,71,71,71,71,71,71,71,
71,71,71,71,71,71,71,71,71,71,71,71,71,71,71,71,
71,71,71,71,71,71,71,71,71,71,71,71,71,71,71,71,
71,71,71,71,71,71,71,71,71,71,71,71,71,71,71,71,
71,71,71,71,71,71,71,71,71,71,71,71,71,71,71,71,
71,71,71,71,71,71,71,71,71,71,71,71,71,71,71,71,
71,71,71,71,71,71,71,71,71,71,71,71,71,71,71,71,
71,71,71,71,71,71,71,71,71,71,71,71,71,71,71,71,
71,71,71,71,71,71,71,71,71,71,71,71,71,71,71,71
</chunk>
   <chunk x="96" y="48" width="16" height="16">
0,0,0,0,0,0,0,0,0,0,0,0,0,0,0,0,
0,0,0,0,0,0,0,0,0,0,0,0,0,0,0,0,
0,0,0,0,0,0,0,0,0,0,0,0,0,0,0,0,
0,0,0,0,0,0,0,0,0,0,0,0,0,0,0,0,
0,0,0,0,0,0,0,0,0,0,0,0,0,0,0,0,
62,62,62,62,62,62,62,62,62,62,62,62,62,62,62,62,
71,71,71,71,71,71,71,71,71,71,71,71,71,71,71,71,
71,71,71,71,71,71,71,71,71,71,71,71,71,71,71,71,
71,71,71,71,71,71,71,71,71,71,71,71,71,71,71,71,
71,71,71,71,71,71,71,71,71,71,71,71,71,71,71,71,
71,71,71,71,71,71,71,71,71,71,71,71,71,71,71,71,
71,71,71,71,71,71,71,71,71,71,71,71,71,71,71,71,
71,71,71,71,71,71,71,71,71,71,71,71,71,71,71,71,
71,71,71,71,71,71,71,71,71,71,71,71,71,71,71,71,
71,71,71,71,71,71,71,71,71,71,71,71,71,71,71,71,
71,71,71,71,71,71,71,71,71,71,71,71,71,71,71,71
</chunk>
   <chunk x="112" y="48" width="16" height="16">
0,0,0,0,0,70,71,71,71,71,71,71,71,71,71,71,
0,0,0,0,0,70,71,71,71,71,71,71,71,71,71,71,
0,0,0,0,0,70,71,71,71,71,71,71,71,71,71,71,
0,0,0,0,0,70,71,71,71,71,71,71,71,71,71,71,
0,0,0,0,0,70,71,71,71,71,71,71,71,71,71,71,
62,62,62,62,62,69,71,71,71,71,71,71,71,71,71,71,
71,71,71,71,71,71,71,71,71,71,71,71,71,71,71,71,
71,71,71,71,71,71,71,71,71,71,71,71,71,71,71,71,
71,71,71,71,71,71,71,71,71,71,71,71,71,71,71,71,
71,71,71,71,71,71,71,71,71,71,71,71,71,71,71,71,
71,71,71,71,71,71,71,71,71,71,71,71,71,71,71,71,
71,71,71,71,71,71,71,71,71,71,71,71,71,71,71,71,
71,71,71,71,71,71,71,71,71,71,71,71,71,71,71,71,
71,71,71,71,71,71,71,71,71,71,71,71,71,71,71,71,
71,71,71,71,71,71,71,71,71,71,71,71,71,71,71,71,
71,71,71,71,71,71,71,71,71,71,71,71,71,71,71,71
</chunk>
   <chunk x="128" y="48" width="16" height="16">
71,71,71,71,71,71,71,71,72,0,0,0,0,0,0,0,
71,71,71,71,71,71,71,71,72,0,0,0,0,0,0,0,
71,71,71,71,71,71,71,71,72,0,0,0,0,0,0,0,
71,71,71,71,71,71,71,71,72,0,0,0,0,0,0,0,
71,71,71,71,71,71,71,71,72,0,0,0,0,0,0,0,
71,71,71,71,71,71,71,71,72,0,0,0,0,0,0,0,
71,71,71,71,71,71,71,71,72,0,0,0,0,0,0,0,
71,71,71,71,71,71,71,71,72,0,0,0,0,0,0,0,
71,71,71,71,71,71,71,71,72,0,0,0,0,0,0,0,
71,71,71,71,71,71,71,71,72,0,0,0,0,0,0,0,
71,71,71,71,71,71,71,71,72,0,0,0,0,0,0,0,
71,71,71,71,71,71,71,71,72,0,0,0,0,0,0,0,
71,71,71,71,71,71,71,71,72,0,0,0,0,0,0,0,
71,71,71,71,71,71,71,71,72,0,0,0,0,0,0,0,
71,71,71,71,71,71,71,71,72,0,0,0,0,0,0,0,
71,71,71,71,71,71,71,71,72,0,0,0,0,0,0,0
</chunk>
   <chunk x="144" y="48" width="16" height="16">
0,0,0,0,0,0,0,0,0,0,0,0,0,0,0,0,
0,0,0,0,0,0,0,0,0,0,0,0,0,0,0,0,
0,0,0,0,0,0,0,0,0,0,0,0,0,0,0,0,
0,0,0,0,0,0,0,0,0,0,0,0,0,0,0,0,
0,0,0,0,0,0,4,0,0,0,0,0,0,0,0,0,
0,0,0,0,0,0,0,0,0,0,0,0,0,0,0,0,
0,0,0,0,0,0,0,0,0,0,0,0,0,0,0,0,
0,0,0,0,0,0,0,0,0,0,0,0,0,0,0,0,
0,0,0,0,0,0,0,0,0,0,0,0,0,0,0,0,
0,0,0,0,0,0,0,0,0,0,0,0,0,0,0,0,
0,0,0,0,0,0,0,0,0,0,0,0,0,0,0,0,
0,0,0,0,0,0,0,0,0,0,0,0,0,0,0,0,
0,0,0,0,0,0,0,0,0,0,0,0,0,0,0,0,
0,0,0,0,0,0,0,0,0,0,0,0,0,0,0,0,
0,0,0,0,0,0,0,0,0,0,0,0,0,0,0,0,
0,0,0,0,0,0,0,0,0,0,0,0,0,0,0,0
</chunk>
   <chunk x="0" y="64" width="16" height="16">
0,0,0,0,0,0,0,0,0,0,0,0,0,0,0,0,
0,0,0,0,0,0,0,0,0,0,0,0,0,0,0,0,
0,0,0,0,0,0,0,0,0,0,0,0,0,0,0,0,
0,0,0,0,0,0,0,0,0,0,0,0,0,0,0,0,
0,0,0,0,0,0,0,0,0,0,0,0,0,0,0,0,
0,0,0,0,0,0,0,0,0,0,0,0,0,0,0,0,
0,0,0,0,0,0,0,0,0,0,0,0,0,0,0,0,
0,0,0,0,0,0,0,0,0,0,0,0,0,0,0,0,
0,0,0,0,0,0,0,0,0,0,0,0,0,0,0,0,
0,0,0,0,0,0,0,0,0,0,0,0,0,0,0,0,
0,0,0,0,0,0,0,0,0,0,0,0,0,0,0,0,
0,0,0,0,0,0,0,0,0,0,4,0,0,0,0,0,
0,0,0,0,0,0,0,0,0,0,0,0,0,0,0,0,
0,0,0,0,0,0,0,0,0,0,0,0,0,0,0,0,
0,0,0,0,0,0,0,0,0,0,0,0,0,0,0,0,
0,0,0,0,0,0,0,0,0,0,0,0,0,0,0,0
</chunk>
   <chunk x="16" y="64" width="16" height="16">
0,0,0,0,0,0,0,0,0,0,0,0,0,0,0,0,
0,0,0,0,0,0,0,0,0,0,0,0,0,0,0,0,
0,0,0,0,0,0,0,0,0,0,0,0,0,0,0,0,
0,0,0,0,0,0,0,0,0,0,0,0,0,0,0,0,
0,0,0,0,0,0,0,0,0,0,0,0,0,0,0,0,
0,0,0,0,0,0,0,0,0,0,0,0,0,0,0,0,
0,0,0,0,0,0,0,0,0,0,0,0,0,0,0,0,
0,0,0,0,0,0,0,0,0,0,0,0,0,0,0,0,
0,0,0,0,0,0,0,0,0,0,0,0,0,0,0,0,
0,0,0,0,0,0,0,0,0,0,0,0,0,0,0,0,
0,0,0,0,0,0,0,0,0,0,0,0,0,0,0,0,
0,0,0,0,0,0,0,0,0,0,0,0,0,0,0,0,
0,0,0,0,0,0,0,0,0,0,0,25,25,25,25,25,
0,0,0,0,0,0,0,0,0,0,0,0,0,0,0,0,
0,0,0,0,0,0,0,0,0,0,0,0,0,0,0,0,
0,0,0,0,0,0,0,0,0,0,0,0,0,0,0,0
</chunk>
   <chunk x="32" y="64" width="16" height="16">
70,71,71,71,71,71,71,71,72,0,0,0,0,0,0,0,
70,71,71,71,71,71,71,71,72,0,0,0,0,0,0,0,
79,80,80,80,80,80,80,80,81,0,0,0,0,0,0,0,
0,0,0,0,0,0,0,0,0,0,0,0,0,0,0,0,
0,0,0,0,0,0,0,0,0,0,0,0,0,0,0,0,
0,0,0,0,0,0,0,0,0,0,0,0,0,0,0,25,
0,0,0,0,0,0,0,0,0,0,0,0,0,0,0,0,
0,0,0,0,0,0,0,0,0,0,0,0,0,0,0,0,
0,0,0,0,0,0,0,0,0,0,0,0,0,0,0,0,
0,0,0,0,0,0,0,0,0,0,0,0,0,0,0,0,
0,0,0,0,0,0,0,0,0,0,0,0,0,0,0,0,
0,0,0,0,0,0,0,0,0,0,0,0,0,0,0,0,
25,25,61,62,62,62,62,62,62,62,62,62,62,62,62,62,
0,0,70,71,71,71,71,71,71,71,71,71,71,71,71,71,
0,0,70,71,71,71,71,71,71,71,71,71,71,71,71,71,
0,0,70,71,71,71,71,71,71,71,71,71,71,71,71,71
</chunk>
   <chunk x="48" y="64" width="16" height="16">
0,70,71,71,71,71,71,71,71,71,71,71,71,71,71,71,
0,70,71,71,71,71,71,71,71,71,71,71,71,71,71,71,
0,70,71,71,71,71,71,71,71,71,71,71,71,71,71,71,
0,70,71,71,71,71,71,71,71,71,71,71,71,71,71,71,
0,70,71,71,71,71,71,71,71,71,71,71,71,71,71,71,
25,70,71,71,71,71,71,71,71,71,71,71,71,71,71,71,
0,79,80,80,80,80,80,80,80,80,80,80,80,80,80,80,
0,0,0,0,0,0,0,0,0,0,0,0,0,0,0,0,
0,0,0,0,0,0,0,0,0,0,0,0,0,0,0,0,
0,0,0,0,0,0,0,0,0,0,0,0,0,0,0,0,
0,0,0,0,0,0,0,0,0,0,0,0,0,0,0,0,
0,0,0,0,0,0,0,0,0,0,0,0,0,0,0,0,
62,62,62,62,62,62,63,25,25,25,0,0,0,61,62,62,
71,71,71,71,71,71,72,0,0,0,0,0,0,70,71,71,
71,71,71,71,71,71,72,0,0,0,0,0,0,70,71,71,
71,71,71,71,71,71,72,0,0,0,0,0,0,70,71,71
</chunk>
   <chunk x="64" y="64" width="16" height="16">
71,71,71,71,71,71,71,71,71,71,71,71,71,71,71,71,
71,71,71,71,71,71,71,71,71,71,71,71,71,71,71,71,
71,71,71,71,71,71,71,71,71,71,71,71,71,71,71,71,
71,71,71,71,71,71,71,71,71,71,71,71,59,80,80,80,
71,71,71,71,71,71,59,80,80,80,80,80,18,0,0,0,
59,80,80,80,80,80,18,0,0,0,0,0,0,0,0,0,
18,0,0,0,0,0,0,0,0,0,0,0,0,0,0,0,
0,0,0,0,0,0,0,0,0,0,0,0,0,0,0,0,
0,0,0,0,0,0,0,0,0,0,0,0,0,0,0,0,
0,0,0,0,0,0,0,0,0,0,0,0,0,0,0,0,
0,0,0,0,0,0,0,0,0,0,0,0,0,0,0,0,
0,0,0,0,0,0,0,0,0,0,0,0,0,0,0,0,
62,62,62,14,15,0,0,0,0,0,0,0,0,0,0,0,
71,71,71,71,68,62,14,15,0,0,0,0,0,0,0,0,
71,71,71,71,71,71,71,68,62,62,14,15,0,0,0,0,
71,71,71,71,71,71,71,71,71,71,71,68,62,62,62,62
</chunk>
   <chunk x="80" y="64" width="16" height="16">
71,71,71,71,71,71,71,71,71,71,71,71,71,71,71,71,
71,71,71,71,71,71,71,71,71,71,71,71,71,71,71,71,
71,71,71,71,71,71,71,71,71,71,71,71,71,71,71,71,
80,80,80,80,80,80,80,80,80,80,80,80,80,80,80,80,
0,0,0,0,0,0,0,0,0,0,0,0,0,0,0,0,
0,0,0,0,0,0,0,0,0,0,0,0,0,0,0,0,
0,0,0,0,0,0,0,0,0,0,0,0,0,0,0,0,
0,0,0,0,0,0,0,0,0,0,0,0,0,0,0,0,
0,0,0,0,0,0,0,0,0,0,0,0,0,0,0,0,
0,0,0,0,0,0,0,0,0,0,0,0,0,0,0,0,
0,0,0,0,0,0,0,0,0,0,0,0,0,0,0,0,
0,0,0,0,0,0,0,0,0,0,0,0,0,0,0,0,
0,0,0,0,0,0,0,0,0,0,0,0,0,0,0,0,
0,0,0,0,0,0,0,0,0,0,0,0,0,0,0,0,
0,0,0,0,0,0,0,0,0,0,0,0,0,0,0,0,
14,15,0,0,0,0,0,0,0,0,0,0,0,0,0,0
</chunk>
   <chunk x="96" y="64" width="16" height="16">
71,71,71,71,71,71,71,71,71,71,71,71,71,71,71,71,
71,71,71,71,71,71,71,71,71,71,71,71,71,71,71,71,
71,71,71,71,71,71,71,71,71,71,71,71,71,71,71,71,
80,80,80,80,80,80,80,60,71,71,71,71,71,71,71,71,
0,0,0,0,0,0,0,27,60,71,71,71,71,71,71,71,
0,0,0,0,0,0,0,0,27,60,71,71,71,71,71,71,
0,0,0,0,0,0,0,0,0,70,71,71,71,71,71,71,
0,0,0,0,0,0,0,0,0,70,71,71,71,71,71,71,
0,0,0,0,0,0,0,0,0,70,71,71,71,71,71,71,
0,0,0,0,0,0,0,0,0,70,71,71,71,71,71,71,
0,0,0,0,0,0,0,0,0,70,71,71,71,71,71,71,
0,0,0,0,0,0,0,0,0,70,71,71,71,71,71,71,
0,0,0,0,0,0,0,0,0,79,60,71,71,71,71,71,
0,0,0,0,0,0,0,0,0,0,70,71,71,71,71,71,
0,0,0,0,0,0,0,0,0,0,70,71,71,71,71,71,
0,0,0,0,0,0,0,0,0,10,69,71,71,71,71,71
</chunk>
   <chunk x="112" y="64" width="16" height="16">
71,71,71,71,71,71,71,71,71,71,71,71,71,71,71,71,
71,71,71,71,71,71,71,71,71,71,71,71,71,71,71,71,
71,71,71,71,71,71,71,71,71,71,71,71,71,71,71,71,
71,71,71,71,71,71,71,71,71,71,71,71,71,71,71,71,
71,71,71,71,71,71,71,71,71,71,71,71,71,71,71,71,
71,71,71,71,71,71,71,71,71,71,71,71,71,71,71,71,
71,71,71,71,71,71,71,71,71,71,71,71,71,71,71,71,
71,71,71,71,71,71,71,71,71,71,71,71,71,71,71,71,
71,71,71,71,71,71,71,71,71,71,71,71,71,71,71,71,
71,71,71,71,71,71,71,71,71,71,71,71,71,71,71,71,
71,71,71,71,71,71,71,71,71,71,71,71,71,71,71,71,
71,71,71,71,71,71,71,71,71,71,71,71,71,71,71,71,
71,71,71,71,71,71,71,71,71,71,71,71,71,71,71,71,
71,71,71,71,71,71,71,71,71,71,71,71,71,71,71,71,
71,71,71,71,71,71,71,71,71,71,71,71,71,71,71,71,
71,71,71,71,71,71,71,71,71,71,71,71,71,71,71,71
</chunk>
   <chunk x="128" y="64" width="16" height="16">
71,71,71,71,71,71,71,71,72,0,0,0,0,0,0,0,
71,71,71,71,71,71,71,71,72,0,0,0,0,0,0,0,
71,71,71,71,71,71,71,71,72,0,0,0,0,0,0,0,
71,71,71,71,71,71,71,71,72,0,0,0,0,0,0,0,
71,71,71,71,71,71,71,71,72,0,0,0,0,0,0,0,
71,71,71,71,71,71,71,71,72,0,0,0,0,0,0,0,
71,71,71,71,71,71,71,71,72,0,0,0,0,0,0,0,
71,71,71,71,71,71,71,71,72,0,0,0,0,0,0,0,
71,71,71,71,71,71,71,71,72,0,0,0,0,0,0,0,
71,71,71,71,71,71,71,71,72,0,0,0,0,0,0,0,
71,71,71,71,71,71,71,59,81,0,0,0,0,0,0,0,
71,71,71,71,71,71,71,72,0,0,0,0,0,0,0,0,
71,71,71,71,71,71,71,72,0,0,0,0,0,0,0,0,
71,71,71,71,71,71,71,72,0,0,0,0,0,0,0,0,
71,71,71,71,71,71,71,72,0,0,0,0,0,0,0,0,
71,71,71,71,71,71,71,72,0,0,0,0,0,0,0,0
</chunk>
   <chunk x="144" y="64" width="16" height="16">
0,0,0,0,0,0,0,0,0,0,0,0,0,0,0,0,
0,0,0,0,0,0,0,0,0,0,0,0,0,0,0,0,
0,0,0,0,0,0,0,0,0,0,0,0,0,0,0,0,
0,0,0,0,0,0,0,0,0,0,0,0,0,0,0,0,
0,0,0,0,0,0,0,0,0,0,0,0,0,0,0,0,
0,0,0,0,0,0,0,0,0,0,0,0,0,0,0,0,
0,0,0,0,0,0,0,0,0,0,0,0,0,0,0,0,
0,0,0,0,0,0,0,0,0,0,4,0,0,0,0,0,
0,0,0,0,0,0,0,0,0,0,0,0,0,0,0,0,
0,0,0,0,0,0,0,0,0,0,0,0,0,0,0,0,
0,0,0,0,0,0,0,0,0,0,0,0,0,0,0,0,
0,0,0,0,0,0,0,0,0,0,0,0,0,0,0,0,
0,0,0,0,0,0,0,0,0,0,0,0,0,0,0,0,
0,0,0,0,0,0,0,0,0,0,0,0,0,0,0,0,
0,0,0,0,0,0,0,0,0,0,0,0,0,0,0,0,
0,0,0,0,0,0,0,0,0,0,0,0,0,0,0,0
</chunk>
   <chunk x="0" y="80" width="16" height="16">
0,0,0,0,0,0,0,0,0,0,0,0,0,0,0,0,
0,0,0,0,0,0,0,0,0,0,0,0,0,0,0,0,
0,0,0,0,0,0,0,0,0,0,0,0,0,0,0,0,
0,0,0,0,0,0,0,0,0,0,0,0,0,0,0,0,
0,0,0,0,0,0,0,0,0,0,0,0,4,0,0,0,
0,0,0,0,0,0,0,0,0,0,0,0,0,0,0,0,
0,0,0,0,0,0,0,0,0,0,0,0,0,0,0,0,
0,0,0,0,0,0,0,0,0,0,0,0,0,0,0,0,
0,0,0,0,0,0,0,0,0,0,0,0,0,0,0,0,
0,0,0,0,0,0,0,0,0,0,0,0,0,0,0,0,
0,0,0,0,0,0,0,0,0,0,0,0,0,0,0,0,
0,0,0,0,0,0,0,0,0,0,0,0,0,0,0,0,
0,0,0,0,0,0,0,0,0,0,0,0,0,0,0,0,
0,0,0,0,0,0,0,0,0,0,0,0,0,0,0,0,
0,0,0,0,0,0,0,0,0,0,0,0,0,0,0,0,
0,0,0,0,0,0,0,0,0,0,0,0,0,0,0,0
</chunk>
   <chunk x="16" y="80" width="16" height="16">
0,0,0,0,0,0,0,0,0,0,0,0,0,0,0,0,
0,0,0,0,0,0,0,0,0,0,0,0,0,0,0,0,
0,0,0,0,0,0,0,0,0,0,0,0,0,0,0,0,
0,0,0,0,0,0,0,0,0,0,0,0,0,0,0,0,
0,0,0,0,0,0,0,0,0,0,0,0,0,0,0,0,
0,0,0,0,0,0,0,0,4,0,0,0,0,0,0,0,
0,0,0,0,0,0,0,0,0,0,0,0,0,0,0,0,
0,0,0,0,0,0,0,0,0,0,0,0,0,0,0,0,
0,0,0,0,0,0,0,0,0,0,0,0,0,0,0,0,
0,0,0,0,0,0,0,0,0,0,0,0,0,0,0,0,
0,0,0,0,0,0,0,0,0,0,0,0,0,0,0,0,
0,0,0,0,0,0,0,0,0,0,0,0,0,0,0,0,
0,0,0,0,0,0,0,0,0,0,0,0,0,0,0,0,
0,0,0,0,0,0,0,0,0,0,0,0,0,0,0,0,
0,0,0,0,0,0,0,0,0,0,0,0,0,0,0,0,
0,0,0,0,0,0,0,0,0,0,0,0,0,0,0,0
</chunk>
   <chunk x="32" y="80" width="16" height="16">
0,0,70,71,71,71,71,71,71,71,59,80,80,80,80,80,
0,0,70,71,71,71,71,71,71,71,72,0,0,0,0,0,
0,10,69,71,71,71,71,71,71,71,72,0,0,0,0,0,
0,70,71,71,71,71,71,71,71,71,72,0,0,0,0,0,
0,70,71,71,71,71,71,71,71,71,72,0,0,0,0,0,
0,70,71,71,71,71,71,71,71,71,72,0,0,25,25,61,
0,70,71,71,71,71,71,71,71,71,72,0,0,0,0,70,
0,70,71,71,71,71,71,71,71,71,72,0,0,0,0,70,
0,70,71,71,71,71,71,71,71,71,72,0,0,0,0,70,
10,69,71,71,71,71,71,71,71,71,72,0,0,0,0,70,
70,71,71,71,71,71,71,71,71,71,72,0,0,0,0,70,
70,71,71,71,71,71,71,71,71,71,72,0,0,0,0,70,
70,71,71,71,71,71,71,71,71,71,68,62,62,62,62,69,
70,71,71,71,71,71,71,71,71,71,71,71,71,71,71,71,
70,71,71,71,71,71,71,71,71,71,71,71,71,71,71,71,
70,71,71,71,71,71,71,71,71,71,71,71,71,71,71,71
</chunk>
   <chunk x="48" y="80" width="16" height="16">
80,80,80,80,80,80,81,0,0,0,0,0,0,70,71,71,
0,0,0,0,0,0,0,0,0,0,0,0,0,70,71,71,
0,0,0,0,0,0,0,0,0,0,0,0,0,70,71,71,
0,0,0,0,0,0,0,0,0,0,0,0,0,70,71,71,
0,0,0,0,0,0,0,0,0,0,0,0,0,70,71,71,
62,62,62,62,62,62,62,62,62,62,62,62,62,69,71,71,
71,71,71,71,71,71,71,71,71,71,71,71,71,71,71,71,
71,71,71,71,71,71,71,71,71,71,71,71,71,71,71,71,
71,71,71,71,71,71,71,71,71,71,71,71,71,71,71,71,
71,71,71,71,71,71,71,71,71,71,71,71,71,71,71,71,
71,71,71,71,71,71,71,71,71,71,71,71,71,71,71,71,
71,71,71,71,71,71,71,71,71,71,71,71,71,71,71,71,
71,71,71,71,71,71,71,71,71,71,71,71,71,71,71,71,
71,71,71,71,71,71,71,71,71,71,71,71,71,71,71,71,
71,71,71,71,71,71,71,71,71,71,71,71,71,71,71,71,
71,71,71,71,71,71,71,71,71,71,71,71,71,71,71,71
</chunk>
   <chunk x="64" y="80" width="16" height="16">
71,71,71,71,71,71,71,71,71,71,71,71,71,71,71,71,
71,71,71,71,71,71,71,71,71,71,71,71,71,71,71,71,
71,71,71,71,71,71,71,71,71,71,71,71,71,71,71,71,
71,71,71,71,71,71,71,71,71,71,71,71,71,71,71,71,
71,71,71,71,71,71,71,71,71,71,71,71,71,71,71,71,
71,71,71,71,71,71,71,71,71,71,71,71,71,71,71,71,
71,71,71,71,71,71,71,71,71,71,71,71,71,71,71,71,
71,71,71,71,71,71,71,71,71,71,71,71,71,71,71,71,
71,71,71,71,71,71,71,71,71,71,71,71,71,71,71,71,
71,71,71,71,71,71,71,71,71,71,71,71,71,71,71,71,
71,71,71,71,71,71,71,71,71,71,71,71,71,71,71,71,
71,71,71,71,71,71,71,71,71,71,71,71,71,71,71,71,
71,71,71,71,71,71,71,71,71,71,71,71,71,71,71,71,
71,71,71,71,71,71,71,71,71,71,71,71,71,71,71,71,
71,71,71,71,71,71,71,71,71,71,71,71,71,71,71,71,
71,71,71,71,71,71,71,71,71,71,71,71,71,71,71,71
</chunk>
   <chunk x="80" y="80" width="16" height="16">
71,68,62,62,62,62,62,62,62,62,62,62,62,62,62,62,
71,71,71,71,71,71,71,71,71,71,71,71,71,71,71,71,
71,71,71,71,71,71,71,71,71,71,71,71,71,71,71,71,
71,71,71,71,71,71,71,71,71,71,71,71,71,71,71,71,
71,71,71,71,71,71,71,71,71,71,71,71,71,71,71,71,
71,71,71,71,71,71,71,71,71,71,71,71,71,71,71,71,
71,71,71,71,71,71,71,71,71,71,71,71,71,71,71,71,
71,71,71,71,71,71,71,71,71,71,71,71,71,71,71,71,
71,71,71,71,71,71,71,71,71,71,71,71,71,71,71,71,
71,71,71,71,71,71,71,71,71,71,71,71,71,71,71,71,
71,71,71,71,71,71,71,71,71,71,71,71,71,71,71,71,
71,71,71,71,71,71,71,71,71,71,71,71,71,71,71,71,
71,71,71,71,71,71,71,71,71,71,71,71,71,71,71,71,
71,71,71,71,71,71,71,71,71,71,71,71,71,71,71,71,
71,71,71,71,71,71,71,71,71,71,71,71,71,71,71,71,
71,71,71,71,71,71,71,71,71,71,71,71,71,71,71,71
</chunk>
   <chunk x="96" y="80" width="16" height="16">
62,62,62,62,62,62,62,62,62,69,71,71,71,71,71,71,
71,71,71,71,71,71,71,71,71,71,71,71,71,71,71,71,
71,71,71,71,71,71,71,71,71,71,71,71,71,71,71,71,
71,71,71,71,71,71,71,71,71,71,71,71,71,71,71,71,
71,71,71,71,71,71,71,71,71,71,71,71,71,71,71,71,
71,71,71,71,71,71,71,71,71,71,71,71,71,71,71,71,
71,71,71,71,71,71,71,71,71,71,71,71,71,71,71,71,
71,71,71,71,71,71,71,71,71,71,71,71,71,71,71,71,
71,71,71,71,71,71,71,71,71,71,71,71,71,71,71,71,
71,71,71,71,71,71,71,71,71,71,71,71,71,71,71,71,
71,71,71,71,71,71,71,71,71,71,71,71,71,71,71,71,
71,71,71,71,71,71,71,71,71,71,71,71,71,71,71,71,
71,71,71,71,71,71,71,71,71,71,71,71,71,71,71,71,
71,71,71,71,71,71,71,71,71,71,71,71,71,71,71,71,
71,71,71,71,71,71,71,71,71,71,71,71,71,71,71,71,
71,71,71,71,71,71,71,71,71,71,71,71,71,71,71,71
</chunk>
   <chunk x="112" y="80" width="16" height="16">
71,71,71,71,71,71,71,71,71,71,71,71,71,71,71,71,
71,71,71,71,71,71,71,71,71,71,71,71,71,71,71,71,
71,71,71,71,71,71,71,71,71,71,71,71,71,71,71,71,
71,71,71,71,71,71,71,71,71,71,71,71,71,71,71,71,
71,71,71,71,71,71,71,71,71,71,71,71,71,71,71,71,
71,71,71,71,71,71,71,71,71,71,71,71,71,71,71,71,
71,71,71,71,71,71,71,71,71,71,71,71,71,71,71,71,
71,71,71,71,71,71,71,71,71,71,71,71,71,71,71,71,
71,71,71,71,71,71,71,71,71,71,71,71,71,71,71,71,
71,71,71,71,71,71,71,71,71,71,71,71,71,71,71,71,
71,71,71,71,71,71,71,71,71,71,71,71,71,71,71,71,
71,71,71,71,71,71,71,71,71,71,71,71,71,71,71,71,
71,71,71,71,71,71,71,71,71,71,71,71,71,71,71,71,
71,71,71,71,71,71,71,71,71,71,71,71,71,71,71,71,
71,71,71,71,71,71,71,71,71,71,71,71,71,71,71,71,
71,71,71,71,71,71,71,71,71,71,71,71,71,71,71,71
</chunk>
   <chunk x="128" y="80" width="16" height="16">
71,71,71,71,71,71,71,72,0,0,0,0,0,0,0,0,
71,71,71,71,71,71,71,72,0,0,0,0,0,0,0,0,
71,71,71,71,71,71,71,72,0,0,0,0,0,0,0,0,
71,71,71,71,71,71,71,72,0,0,0,0,0,0,0,0,
71,71,71,71,71,71,71,72,0,0,0,0,0,0,0,0,
71,71,71,71,71,71,71,72,0,0,0,0,0,0,0,0,
71,71,71,71,71,71,71,72,0,0,0,0,0,0,0,0,
71,71,71,71,71,71,71,72,0,0,0,0,0,0,0,0,
71,71,71,71,71,71,71,72,0,0,0,0,0,0,0,0,
71,71,71,71,71,71,71,72,0,0,0,0,0,0,0,0,
71,71,71,71,71,71,71,72,0,0,0,0,0,0,0,0,
71,71,71,71,71,71,71,72,0,0,0,0,0,0,0,0,
71,71,71,71,71,71,71,72,0,0,0,0,0,0,0,0,
71,71,71,71,71,71,71,72,0,0,0,0,0,0,0,0,
71,71,71,71,71,71,71,72,0,0,0,0,0,0,0,0,
71,71,71,71,71,71,71,72,0,0,0,0,0,0,0,0
</chunk>
   <chunk x="144" y="80" width="16" height="16">
0,0,0,0,0,0,0,0,0,0,0,0,0,0,0,0,
0,0,0,0,0,0,0,0,0,0,0,0,0,0,0,0,
0,0,0,0,0,0,0,0,0,0,0,0,0,0,0,0,
0,0,0,0,0,0,0,0,0,0,0,0,0,0,0,0,
0,0,0,0,0,0,0,0,0,0,0,0,0,0,0,0,
0,0,0,0,0,0,0,0,0,0,0,0,0,0,0,0,
0,0,0,0,0,0,0,0,0,0,0,0,0,0,0,0,
0,0,0,0,0,0,0,0,0,0,0,0,0,0,0,0,
0,0,0,0,0,0,0,4,0,0,0,0,0,0,0,0,
0,0,0,0,0,0,0,0,0,0,0,0,0,0,0,0,
0,0,0,0,0,0,0,0,0,0,0,0,0,0,0,0,
0,0,0,0,0,0,0,0,0,0,0,0,0,0,0,0,
0,0,0,0,0,0,0,0,0,0,0,0,0,0,0,0,
0,0,0,0,0,0,0,0,0,0,0,0,0,0,0,0,
0,0,0,0,0,0,0,0,0,0,0,0,0,0,0,0,
0,0,0,0,0,0,0,0,0,0,0,0,0,0,0,0
</chunk>
  </data>
 </layer>
 <objectgroup color="#fffa61" id="8" name="lights" visible="0">
  <object id="147" class="light_area" x="0" y="-160" width="688" height="1792.38">
   <properties>
    <property name="brightness" type="float" value="1"/>
    <property name="color" type="color" value="#ffdcddff"/>
    <property name="radius" type="float" value="6"/>
    <property name="startActive" type="bool" value="true"/>
   </properties>
  </object>
  <object id="149" class="light" x="719" y="1158.38">
   <properties>
    <property name="angle" type="float" value="270"/>
    <property name="brightness" type="float" value="1.5"/>
    <property name="color" type="color" value="#ffdcddff"/>
    <property name="dirRadius" type="float" value="80"/>
    <property name="directional" type="bool" value="false"/>
    <property name="falloff" type="float" value="2"/>
    <property name="radius" type="float" value="0.8"/>
    <property name="shadows" type="bool" value="false"/>
    <property name="startActive" type="bool" value="true"/>
   </properties>
   <point/>
  </object>
  <object id="150" class="light" x="717" y="924.378">
   <properties>
    <property name="angle" type="float" value="270"/>
    <property name="brightness" type="float" value="2"/>
    <property name="color" type="color" value="#ffdcddff"/>
    <property name="dirRadius" type="float" value="80"/>
    <property name="directional" type="bool" value="false"/>
    <property name="falloff" type="float" value="2"/>
    <property name="radius" type="float" value="0.8"/>
    <property name="shadows" type="bool" value="false"/>
    <property name="startActive" type="bool" value="true"/>
   </properties>
   <point/>
  </object>
  <object id="151" class="light" x="1099" y="719.378">
   <properties>
    <property name="angle" type="float" value="270"/>
    <property name="brightness" type="float" value="1.5"/>
    <property name="color" type="color" value="#ffdcddff"/>
    <property name="dirRadius" type="float" value="80"/>
    <property name="directional" type="bool" value="false"/>
    <property name="falloff" type="float" value="2"/>
    <property name="radius" type="float" value="0.8"/>
    <property name="shadows" type="bool" value="false"/>
    <property name="startActive" type="bool" value="true"/>
   </properties>
   <point/>
  </object>
  <object id="152" class="light" x="1129" y="541.378">
   <properties>
    <property name="angle" type="float" value="270"/>
    <property name="brightness" type="float" value="2"/>
    <property name="color" type="color" value="#ffdcddff"/>
    <property name="dirRadius" type="float" value="80"/>
    <property name="directional" type="bool" value="false"/>
    <property name="falloff" type="float" value="2"/>
    <property name="radius" type="float" value="0.8"/>
    <property name="shadows" type="bool" value="false"/>
    <property name="startActive" type="bool" value="true"/>
   </properties>
   <point/>
  </object>
  <object id="153" class="light" x="1879" y="463.378">
   <properties>
    <property name="angle" type="float" value="270"/>
    <property name="brightness" type="float" value="1"/>
    <property name="color" type="color" value="#ffdcddff"/>
    <property name="dirRadius" type="float" value="80"/>
    <property name="directional" type="bool" value="false"/>
    <property name="falloff" type="float" value="2"/>
    <property name="radius" type="float" value="0.8"/>
    <property name="shadows" type="bool" value="false"/>
    <property name="startActive" type="bool" value="true"/>
   </properties>
   <point/>
  </object>
  <object id="154" class="light_area" x="992" y="-160" width="1008" height="608">
   <properties>
    <property name="brightness" type="float" value="1"/>
    <property name="color" type="color" value="#ffdcddff"/>
    <property name="radius" type="float" value="6"/>
    <property name="startActive" type="bool" value="true"/>
   </properties>
  </object>
  <object id="155" class="light_area" x="592" y="-160" width="496" height="704">
   <properties>
    <property name="brightness" type="float" value="1"/>
    <property name="color" type="color" value="#ffdcddff"/>
    <property name="radius" type="float" value="6"/>
    <property name="startActive" type="bool" value="true"/>
   </properties>
  </object>
  <object id="156" class="light_area" x="1904" y="-160" width="640" height="686.608">
   <properties>
    <property name="brightness" type="float" value="1"/>
    <property name="color" type="color" value="#ffdcddff"/>
    <property name="radius" type="float" value="6"/>
    <property name="startActive" type="bool" value="true"/>
   </properties>
  </object>
  <object id="157" class="light_area" x="2098.12" y="429.547" width="445.877" height="1106.45">
   <properties>
    <property name="brightness" type="float" value="1"/>
    <property name="color" type="color" value="#ffdcddff"/>
    <property name="radius" type="float" value="6"/>
    <property name="startActive" type="bool" value="true"/>
   </properties>
  </object>
  <object id="228" class="light_area" x="1144" y="383" width="782" height="561">
   <properties>
    <property name="brightness" type="float" value="0.2"/>
    <property name="color" type="color" value="#ffebffca"/>
    <property name="radius" type="float" value="6"/>
    <property name="startActive" type="bool" value="true"/>
   </properties>
  </object>
  <object id="229" class="light" x="1605" y="528">
   <properties>
    <property name="angle" type="float" value="270"/>
    <property name="brightness" type="float" value="2.5"/>
    <property name="color" type="color" value="#ffff9b4a"/>
    <property name="dirRadius" type="float" value="80"/>
    <property name="directional" type="bool" value="false"/>
    <property name="falloff" type="float" value="2"/>
    <property name="radius" type="float" value="3"/>
    <property name="shadows" type="bool" value="false"/>
    <property name="startActive" type="bool" value="true"/>
   </properties>
   <point/>
  </object>
  <object id="230" class="light" x="1297" y="701">
   <properties>
    <property name="angle" type="float" value="270"/>
    <property name="brightness" type="float" value="2.5"/>
    <property name="color" type="color" value="#ffff9b4a"/>
    <property name="dirRadius" type="float" value="80"/>
    <property name="directional" type="bool" value="false"/>
    <property name="falloff" type="float" value="2"/>
    <property name="radius" type="float" value="3"/>
    <property name="shadows" type="bool" value="false"/>
    <property name="startActive" type="bool" value="true"/>
   </properties>
   <point/>
  </object>
  <object id="231" class="light" x="1677" y="713">
   <properties>
    <property name="angle" type="float" value="270"/>
    <property name="brightness" type="float" value="2.5"/>
    <property name="color" type="color" value="#ffff9b4a"/>
    <property name="dirRadius" type="float" value="80"/>
    <property name="directional" type="bool" value="false"/>
    <property name="falloff" type="float" value="2"/>
    <property name="radius" type="float" value="3"/>
    <property name="shadows" type="bool" value="false"/>
    <property name="startActive" type="bool" value="true"/>
   </properties>
   <point/>
  </object>
  <object id="232" class="light" x="1440" y="1136">
   <properties>
    <property name="angle" type="float" value="270"/>
    <property name="brightness" type="float" value="3"/>
    <property name="color" type="color" value="#ffff9b4a"/>
    <property name="dirRadius" type="float" value="80"/>
    <property name="directional" type="bool" value="false"/>
    <property name="falloff" type="float" value="2"/>
    <property name="radius" type="float" value="1"/>
    <property name="shadows" type="bool" value="false"/>
    <property name="startActive" type="bool" value="true"/>
   </properties>
   <point/>
  </object>
  <object id="233" class="light" x="1008" y="1152">
   <properties>
    <property name="angle" type="float" value="270"/>
    <property name="brightness" type="float" value="2.5"/>
    <property name="color" type="color" value="#ffff9b4a"/>
    <property name="dirRadius" type="float" value="80"/>
    <property name="directional" type="bool" value="false"/>
    <property name="falloff" type="float" value="2"/>
    <property name="radius" type="float" value="3"/>
    <property name="shadows" type="bool" value="false"/>
    <property name="startActive" type="bool" value="true"/>
   </properties>
   <point/>
  </object>
  <object id="234" class="light" x="848" y="672">
   <properties>
    <property name="angle" type="float" value="270"/>
    <property name="brightness" type="float" value="2.5"/>
    <property name="color" type="color" value="#ffff9b4a"/>
    <property name="dirRadius" type="float" value="80"/>
    <property name="directional" type="bool" value="false"/>
    <property name="falloff" type="float" value="2"/>
    <property name="radius" type="float" value="3"/>
    <property name="shadows" type="bool" value="false"/>
    <property name="startActive" type="bool" value="true"/>
   </properties>
   <point/>
  </object>
  <object id="235" class="light" x="725" y="545">
   <properties>
    <property name="angle" type="float" value="270"/>
    <property name="brightness" type="float" value="2.5"/>
    <property name="color" type="color" value="#ffffd950"/>
    <property name="dirRadius" type="float" value="80"/>
    <property name="directional" type="bool" value="false"/>
    <property name="falloff" type="float" value="2"/>
    <property name="radius" type="float" value="3"/>
    <property name="shadows" type="bool" value="false"/>
    <property name="startActive" type="bool" value="true"/>
   </properties>
   <point/>
  </object>
  <object id="236" class="light" x="1664" y="1216">
   <properties>
    <property name="angle" type="float" value="270"/>
    <property name="brightness" type="float" value="1.5"/>
    <property name="color" type="color" value="#fffff953"/>
    <property name="dirRadius" type="float" value="80"/>
    <property name="directional" type="bool" value="false"/>
    <property name="falloff" type="float" value="2"/>
    <property name="radius" type="float" value="4"/>
    <property name="shadows" type="bool" value="false"/>
    <property name="startActive" type="bool" value="true"/>
   </properties>
   <point/>
  </object>
  <object id="237" class="light" x="960" y="1344">
   <properties>
    <property name="angle" type="float" value="270"/>
    <property name="brightness" type="float" value="1.5"/>
    <property name="color" type="color" value="#fffff953"/>
    <property name="dirRadius" type="float" value="80"/>
    <property name="directional" type="bool" value="false"/>
    <property name="falloff" type="float" value="2"/>
    <property name="radius" type="float" value="4"/>
    <property name="shadows" type="bool" value="false"/>
    <property name="startActive" type="bool" value="true"/>
   </properties>
   <point/>
  </object>
 </objectgroup>
 <objectgroup color="#ff8284" id="7" name="npcs">
  <object id="244" class="npc" x="1360" y="1216">
   <properties>
    <property name="id" type="int" value="4"/>
    <property name="noticeDist" type="int" value="400"/>
    <property name="perma" type="bool" value="false"/>
    <property name="phantom" type="int" value="1"/>
    <property name="wanderDist" type="int" value="0"/>
   </properties>
   <point/>
  </object>
  <object id="245" class="npc" x="1527" y="1218">
   <properties>
    <property name="id" type="int" value="8"/>
    <property name="noticeDist" type="int" value="400"/>
    <property name="perma" type="bool" value="false"/>
    <property name="phantom" type="int" value="0"/>
    <property name="wanderDist" type="int" value="0"/>
   </properties>
   <point/>
  </object>
  <object id="246" class="npc" x="1588" y="224">
   <properties>
    <property name="id" type="int" value="18"/>
    <property name="noticeDist" type="int" value="400"/>
    <property name="perma" type="bool" value="false"/>
    <property name="phantom" type="int" value="0"/>
    <property name="wanderDist" type="int" value="0"/>
   </properties>
   <point/>
  </object>
  <object id="249" name="khaled" class="npc" x="608" y="960">
   <properties>
    <property name="id" type="int" value="8"/>
    <property name="noticeDist" type="int" value="70"/>
    <property name="perma" type="bool" value="false"/>
    <property name="phantom" type="int" value="0"/>
    <property name="wanderDist" type="int" value="0"/>
   </properties>
   <point/>
  </object>
  <object id="251" name="fynalie" class="npc" x="1328" y="816">
   <properties>
    <property name="id" type="int" value="26"/>
    <property name="noticeDist" type="int" value="100"/>
    <property name="perma" type="bool" value="false"/>
    <property name="phantom" type="int" value="0"/>
    <property name="wanderDist" type="int" value="0"/>
   </properties>
   <point/>
  </object>
  <object id="252" name="stenonat" class="npc" x="1354" y="816">
   <properties>
    <property name="id" type="int" value="26"/>
    <property name="noticeDist" type="int" value="100"/>
    <property name="perma" type="bool" value="false"/>
    <property name="phantom" type="int" value="0"/>
    <property name="wanderDist" type="int" value="0"/>
   </properties>
   <point/>
  </object>
  <object id="253" name="gorjan" class="npc" x="1367" y="795">
   <properties>
    <property name="id" type="int" value="27"/>
    <property name="noticeDist" type="int" value="100"/>
    <property name="perma" type="bool" value="false"/>
    <property name="phantom" type="int" value="0"/>
    <property name="wanderDist" type="int" value="0"/>
   </properties>
   <point/>
  </object>
  <object id="254" name="jesersant" class="npc" x="1394" y="816">
   <properties>
    <property name="id" type="int" value="26"/>
    <property name="noticeDist" type="int" value="100"/>
    <property name="perma" type="bool" value="false"/>
    <property name="phantom" type="int" value="0"/>
    <property name="wanderDist" type="int" value="0"/>
   </properties>
   <point/>
  </object>
  <object id="255" name="bafixi" class="npc" x="1413" y="816">
   <properties>
    <property name="id" type="int" value="26"/>
    <property name="noticeDist" type="int" value="100"/>
    <property name="perma" type="bool" value="false"/>
    <property name="phantom" type="int" value="0"/>
    <property name="wanderDist" type="int" value="0"/>
   </properties>
   <point/>
  </object>
  <object id="256" name="myran" class="npc" x="1429" y="816">
   <properties>
    <property name="id" type="int" value="26"/>
    <property name="noticeDist" type="int" value="100"/>
    <property name="perma" type="bool" value="false"/>
    <property name="phantom" type="int" value="0"/>
    <property name="wanderDist" type="int" value="0"/>
   </properties>
   <point/>
  </object>
 </objectgroup>
 <objectgroup color="#7de8b9" id="11" name="deco">
  <object id="271" class="prop" gid="571" x="1221" y="848" width="510" height="383">
   <properties>
    <property name="foreground" type="bool" value="false"/>
    <property name="noDestroy" type="bool" value="true"/>
    <property name="rotationMult" type="float" value="1"/>
    <property name="squib" type="int" value="-1"/>
    <property name="squibSE" value=""/>
    <property name="static" type="bool" value="true"/>
   </properties>
  </object>
  <object id="275" class="prop" gid="546" x="1340" y="1280" width="101" height="99">
   <properties>
    <property name="foreground" type="bool" value="false"/>
    <property name="noDestroy" type="bool" value="true"/>
    <property name="rotationMult" type="float" value="1"/>
    <property name="squib" type="int" value="-1"/>
    <property name="squibSE" value=""/>
    <property name="static" type="bool" value="true"/>
   </properties>
  </object>
  <object id="276" class="prop" gid="547" x="1415" y="1280" width="102" height="140">
   <properties>
    <property name="foreground" type="bool" value="false"/>
    <property name="noDestroy" type="bool" value="true"/>
    <property name="rotationMult" type="float" value="1"/>
    <property name="squib" type="int" value="-1"/>
    <property name="squibSE" value=""/>
    <property name="static" type="bool" value="true"/>
   </properties>
  </object>
  <object id="277" class="prop" gid="545" x="1508" y="1280" width="135" height="103">
   <properties>
    <property name="foreground" type="bool" value="false"/>
    <property name="noDestroy" type="bool" value="true"/>
    <property name="rotationMult" type="float" value="1"/>
    <property name="squib" type="int" value="-1"/>
    <property name="squibSE" value=""/>
    <property name="static" type="bool" value="true"/>
   </properties>
  </object>
  <object id="278" class="prop" gid="545" x="513" y="1008" width="135" height="103">
   <properties>
    <property name="foreground" type="bool" value="false"/>
    <property name="noDestroy" type="bool" value="true"/>
    <property name="rotationMult" type="float" value="1"/>
    <property name="squib" type="int" value="-1"/>
    <property name="squibSE" value=""/>
    <property name="static" type="bool" value="true"/>
   </properties>
  </object>
  <object id="280" class="prop" gid="547" x="715" y="784" width="102" height="140">
   <properties>
    <property name="foreground" type="bool" value="false"/>
    <property name="noDestroy" type="bool" value="true"/>
    <property name="rotationMult" type="float" value="1"/>
    <property name="squib" type="int" value="-1"/>
    <property name="squibSE" value=""/>
    <property name="static" type="bool" value="true"/>
   </properties>
  </object>
  <object id="284" class="prop" gid="546" x="808" y="360" width="101" height="99">
   <properties>
    <property name="foreground" type="bool" value="false"/>
    <property name="noDestroy" type="bool" value="true"/>
    <property name="rotationMult" type="float" value="1"/>
    <property name="squib" type="int" value="-1"/>
    <property name="squibSE" value=""/>
    <property name="static" type="bool" value="true"/>
   </properties>
  </object>
  <object id="285" class="prop" gid="545" x="809" y="416" width="135" height="103">
   <properties>
    <property name="foreground" type="bool" value="false"/>
    <property name="noDestroy" type="bool" value="true"/>
    <property name="rotationMult" type="float" value="1"/>
    <property name="squib" type="int" value="-1"/>
    <property name="squibSE" value=""/>
    <property name="static" type="bool" value="true"/>
   </properties>
  </object>
  <object id="286" class="prop" gid="547" x="754" y="416" width="102" height="140">
   <properties>
    <property name="foreground" type="bool" value="false"/>
    <property name="noDestroy" type="bool" value="true"/>
    <property name="rotationMult" type="float" value="1"/>
    <property name="squib" type="int" value="-1"/>
    <property name="squibSE" value=""/>
    <property name="static" type="bool" value="true"/>
   </properties>
  </object>
  <object id="287" class="prop" gid="343" x="1511" y="338" width="171" height="97">
   <properties>
    <property name="foreground" type="bool" value="false"/>
    <property name="noDestroy" type="bool" value="true"/>
    <property name="rotationMult" type="float" value="0"/>
    <property name="squib" type="int" value="-1"/>
    <property name="squibSE" value=""/>
    <property name="static" type="bool" value="true"/>
   </properties>
  </object>
  <object id="288" class="prop" gid="546" x="1950" y="400" width="101" height="99">
   <properties>
    <property name="foreground" type="bool" value="false"/>
    <property name="noDestroy" type="bool" value="true"/>
    <property name="rotationMult" type="float" value="1"/>
    <property name="squib" type="int" value="-1"/>
    <property name="squibSE" value=""/>
    <property name="static" type="bool" value="true"/>
   </properties>
  </object>
  <object id="289" class="prop" gid="575" x="166" y="841" width="277" height="98">
   <properties>
    <property name="foreground" type="bool" value="false"/>
    <property name="noDestroy" type="bool" value="true"/>
    <property name="rotationMult" type="float" value="1"/>
    <property name="squib" type="int" value="-1"/>
    <property name="squibSE" value=""/>
    <property name="static" type="bool" value="true"/>
   </properties>
  </object>
  <object id="290" class="prop" gid="574" x="176" y="980" width="257" height="139">
   <properties>
    <property name="foreground" type="bool" value="false"/>
    <property name="noDestroy" type="bool" value="true"/>
    <property name="rotationMult" type="float" value="1"/>
    <property name="squib" type="int" value="-1"/>
    <property name="squibSE" value=""/>
    <property name="static" type="bool" value="true"/>
   </properties>
  </object>
  <object id="291" class="prop" gid="574" x="176" y="1119" width="257" height="139">
   <properties>
    <property name="foreground" type="bool" value="false"/>
    <property name="noDestroy" type="bool" value="true"/>
    <property name="rotationMult" type="float" value="1"/>
    <property name="squib" type="int" value="-1"/>
    <property name="squibSE" value=""/>
    <property name="static" type="bool" value="true"/>
   </properties>
  </object>
  <object id="292" class="prop" gid="574" x="176" y="1258" width="257" height="139">
   <properties>
    <property name="foreground" type="bool" value="false"/>
    <property name="noDestroy" type="bool" value="true"/>
    <property name="rotationMult" type="float" value="1"/>
    <property name="squib" type="int" value="-1"/>
    <property name="squibSE" value=""/>
    <property name="static" type="bool" value="true"/>
   </properties>
  </object>
  <object id="293" class="prop" gid="574" x="176" y="1397" width="257" height="139">
   <properties>
    <property name="foreground" type="bool" value="false"/>
    <property name="noDestroy" type="bool" value="true"/>
    <property name="rotationMult" type="float" value="1"/>
    <property name="squib" type="int" value="-1"/>
    <property name="squibSE" value=""/>
    <property name="static" type="bool" value="true"/>
   </properties>
  </object>
  <object id="294" class="prop" gid="574" x="176" y="1536" width="257" height="139">
   <properties>
    <property name="foreground" type="bool" value="false"/>
    <property name="noDestroy" type="bool" value="true"/>
    <property name="rotationMult" type="float" value="1"/>
    <property name="squib" type="int" value="-1"/>
    <property name="squibSE" value=""/>
    <property name="static" type="bool" value="true"/>
   </properties>
  </object>
  <object id="296" class="prop" gid="572" x="432" y="1256" width="112" height="112">
   <properties>
    <property name="foreground" type="bool" value="false"/>
    <property name="noDestroy" type="bool" value="true"/>
    <property name="rotationMult" type="float" value="1"/>
    <property name="squib" type="int" value="-1"/>
    <property name="squibSE" value=""/>
    <property name="static" type="bool" value="true"/>
   </properties>
  </object>
  <object id="301" class="prop" gid="378" x="1223" y="438" width="40" height="39" rotation="246.664">
   <properties>
    <property name="foreground" type="bool" value="true"/>
    <property name="noDestroy" type="bool" value="true"/>
    <property name="rotationMult" type="float" value="1"/>
    <property name="squib" type="int" value="-1"/>
    <property name="squibSE" value=""/>
    <property name="static" type="bool" value="true"/>
   </properties>
  </object>
  <object id="302" class="prop" gid="375" x="1325" y="416" width="47" height="39" rotation="186.723">
   <properties>
    <property name="foreground" type="bool" value="true"/>
    <property name="noDestroy" type="bool" value="true"/>
    <property name="rotationMult" type="float" value="1"/>
    <property name="squib" type="int" value="-1"/>
    <property name="squibSE" value=""/>
    <property name="static" type="bool" value="true"/>
   </properties>
  </object>
  <object id="303" class="prop" gid="376" x="1257" y="419" width="34" height="46" rotation="211.687">
   <properties>
    <property name="foreground" type="bool" value="true"/>
    <property name="noDestroy" type="bool" value="true"/>
    <property name="rotationMult" type="float" value="1"/>
    <property name="squib" type="int" value="-1"/>
    <property name="squibSE" value=""/>
    <property name="static" type="bool" value="true"/>
   </properties>
  </object>
  <object id="304" class="prop" gid="379" x="1268" y="429" width="25" height="23" rotation="199.823">
   <properties>
    <property name="foreground" type="bool" value="true"/>
    <property name="noDestroy" type="bool" value="true"/>
    <property name="rotationMult" type="float" value="1"/>
    <property name="squib" type="int" value="-1"/>
    <property name="squibSE" value=""/>
    <property name="static" type="bool" value="true"/>
   </properties>
  </object>
  <object id="305" class="prop" gid="383" x="1283" y="417" width="25" height="22" rotation="171.484">
   <properties>
    <property name="foreground" type="bool" value="true"/>
    <property name="noDestroy" type="bool" value="true"/>
    <property name="rotationMult" type="float" value="1"/>
    <property name="squib" type="int" value="-1"/>
    <property name="squibSE" value=""/>
    <property name="static" type="bool" value="true"/>
   </properties>
  </object>
  <object id="306" class="prop" gid="623" x="1368" y="423" width="44" height="37" rotation="205.179">
   <properties>
    <property name="foreground" type="bool" value="true"/>
    <property name="noDestroy" type="bool" value="true"/>
    <property name="rotationMult" type="float" value="1"/>
    <property name="squib" type="int" value="-1"/>
    <property name="squibSE" value=""/>
    <property name="static" type="bool" value="true"/>
   </properties>
  </object>
  <object id="307" class="prop" gid="626" x="1387" y="439" width="40" height="39" rotation="276.087">
   <properties>
    <property name="foreground" type="bool" value="true"/>
    <property name="noDestroy" type="bool" value="true"/>
    <property name="rotationMult" type="float" value="1"/>
    <property name="squib" type="int" value="-1"/>
    <property name="squibSE" value=""/>
    <property name="static" type="bool" value="true"/>
   </properties>
  </object>
  <object id="308" class="prop" gid="375" x="1405" y="384" width="47" height="39" rotation="140.209">
   <properties>
    <property name="foreground" type="bool" value="true"/>
    <property name="noDestroy" type="bool" value="true"/>
    <property name="rotationMult" type="float" value="1"/>
    <property name="squib" type="int" value="-1"/>
    <property name="squibSE" value=""/>
    <property name="static" type="bool" value="true"/>
   </properties>
  </object>
  <object id="309" class="prop" gid="623" x="1609" y="431.098" width="44" height="37" rotation="213.605">
   <properties>
    <property name="foreground" type="bool" value="true"/>
    <property name="noDestroy" type="bool" value="true"/>
    <property name="rotationMult" type="float" value="1"/>
    <property name="squib" type="int" value="-1"/>
    <property name="squibSE" value=""/>
    <property name="static" type="bool" value="true"/>
   </properties>
  </object>
  <object id="310" class="prop" gid="375" x="1630.69" y="405" width="47" height="39" rotation="163.649">
   <properties>
    <property name="foreground" type="bool" value="true"/>
    <property name="noDestroy" type="bool" value="true"/>
    <property name="rotationMult" type="float" value="1"/>
    <property name="squib" type="int" value="-1"/>
    <property name="squibSE" value=""/>
    <property name="static" type="bool" value="true"/>
   </properties>
  </object>
  <object id="311" class="prop" gid="377" x="1671.69" y="401" width="40" height="43" rotation="178.856">
   <properties>
    <property name="foreground" type="bool" value="true"/>
    <property name="noDestroy" type="bool" value="true"/>
    <property name="rotationMult" type="float" value="1"/>
    <property name="squib" type="int" value="-1"/>
    <property name="squibSE" value=""/>
    <property name="static" type="bool" value="true"/>
   </properties>
  </object>
  <object id="312" class="prop" gid="378" x="1693.69" y="411" width="40" height="39" rotation="168.622">
   <properties>
    <property name="foreground" type="bool" value="true"/>
    <property name="noDestroy" type="bool" value="true"/>
    <property name="rotationMult" type="float" value="1"/>
    <property name="squib" type="int" value="-1"/>
    <property name="squibSE" value=""/>
    <property name="static" type="bool" value="true"/>
   </properties>
  </object>
  <object id="313" class="prop" gid="376" x="1711.69" y="395" width="34" height="46" rotation="141.513">
   <properties>
    <property name="foreground" type="bool" value="true"/>
    <property name="noDestroy" type="bool" value="true"/>
    <property name="rotationMult" type="float" value="1"/>
    <property name="squib" type="int" value="-1"/>
    <property name="squibSE" value=""/>
    <property name="static" type="bool" value="true"/>
   </properties>
  </object>
  <object id="314" class="prop" gid="627" x="1701.69" y="426" width="25" height="22" rotation="149.868">
   <properties>
    <property name="foreground" type="bool" value="true"/>
    <property name="noDestroy" type="bool" value="true"/>
    <property name="rotationMult" type="float" value="1"/>
    <property name="squib" type="int" value="-1"/>
    <property name="squibSE" value=""/>
    <property name="static" type="bool" value="true"/>
   </properties>
  </object>
  <object id="315" class="prop" gid="379" x="1644.69" y="447" width="25" height="23" rotation="242.083">
   <properties>
    <property name="foreground" type="bool" value="true"/>
    <property name="noDestroy" type="bool" value="true"/>
    <property name="rotationMult" type="float" value="1"/>
    <property name="squib" type="int" value="-1"/>
    <property name="squibSE" value=""/>
    <property name="static" type="bool" value="true"/>
   </properties>
  </object>
  <object id="316" class="prop" gid="380" x="1502.62" y="409" width="24" height="18" rotation="186.396">
   <properties>
    <property name="foreground" type="bool" value="true"/>
    <property name="noDestroy" type="bool" value="true"/>
    <property name="rotationMult" type="float" value="1"/>
    <property name="squib" type="int" value="-1"/>
    <property name="squibSE" value=""/>
    <property name="static" type="bool" value="true"/>
   </properties>
  </object>
  <object id="317" class="prop" gid="381" x="1477.62" y="402" width="28" height="22" rotation="166.814">
   <properties>
    <property name="foreground" type="bool" value="true"/>
    <property name="noDestroy" type="bool" value="true"/>
    <property name="rotationMult" type="float" value="1"/>
    <property name="squib" type="int" value="-1"/>
    <property name="squibSE" value=""/>
    <property name="static" type="bool" value="true"/>
   </properties>
  </object>
  <object id="319" class="prop" gid="627" x="1446" y="406.669" width="25" height="22" rotation="194.308">
   <properties>
    <property name="foreground" type="bool" value="true"/>
    <property name="noDestroy" type="bool" value="true"/>
    <property name="rotationMult" type="float" value="1"/>
    <property name="squib" type="int" value="-1"/>
    <property name="squibSE" value=""/>
    <property name="static" type="bool" value="true"/>
   </properties>
  </object>
  <object id="320" class="prop" gid="377" x="1543.12" y="396.062" width="40" height="43" rotation="203.22">
   <properties>
    <property name="foreground" type="bool" value="true"/>
    <property name="noDestroy" type="bool" value="true"/>
    <property name="rotationMult" type="float" value="1"/>
    <property name="squib" type="int" value="-1"/>
    <property name="squibSE" value=""/>
    <property name="static" type="bool" value="true"/>
   </properties>
  </object>
  <object id="321" class="prop" gid="375" x="1482.59" y="390.651" width="47" height="39" rotation="184.15">
   <properties>
    <property name="foreground" type="bool" value="true"/>
    <property name="noDestroy" type="bool" value="true"/>
    <property name="rotationMult" type="float" value="1"/>
    <property name="squib" type="int" value="-1"/>
    <property name="squibSE" value=""/>
    <property name="static" type="bool" value="true"/>
   </properties>
  </object>
  <object id="322" class="prop" gid="384" x="1498.62" y="383" width="19" height="12" rotation="166.814">
   <properties>
    <property name="foreground" type="bool" value="true"/>
    <property name="noDestroy" type="bool" value="true"/>
    <property name="rotationMult" type="float" value="1"/>
    <property name="squib" type="int" value="-1"/>
    <property name="squibSE" value=""/>
    <property name="static" type="bool" value="true"/>
   </properties>
  </object>
  <object id="323" class="prop" gid="626" x="1755" y="438" width="40" height="39" rotation="276.087">
   <properties>
    <property name="foreground" type="bool" value="true"/>
    <property name="noDestroy" type="bool" value="true"/>
    <property name="rotationMult" type="float" value="1"/>
    <property name="squib" type="int" value="-1"/>
    <property name="squibSE" value=""/>
    <property name="static" type="bool" value="true"/>
   </properties>
  </object>
  <object id="324" class="prop" gid="623" x="1805" y="383" width="44" height="37" rotation="163.649">
   <properties>
    <property name="foreground" type="bool" value="true"/>
    <property name="noDestroy" type="bool" value="true"/>
    <property name="rotationMult" type="float" value="1"/>
    <property name="squib" type="int" value="-1"/>
    <property name="squibSE" value=""/>
    <property name="static" type="bool" value="true"/>
   </properties>
  </object>
  <object id="325" class="prop" gid="377" x="1886" y="388" width="40" height="43" rotation="217.206">
   <properties>
    <property name="foreground" type="bool" value="true"/>
    <property name="noDestroy" type="bool" value="true"/>
    <property name="rotationMult" type="float" value="1"/>
    <property name="squib" type="int" value="-1"/>
    <property name="squibSE" value=""/>
    <property name="static" type="bool" value="true"/>
   </properties>
  </object>
  <object id="327" class="prop" gid="376" x="1875" y="306" width="34" height="46" rotation="154.128">
   <properties>
    <property name="foreground" type="bool" value="true"/>
    <property name="noDestroy" type="bool" value="true"/>
    <property name="rotationMult" type="float" value="1"/>
    <property name="squib" type="int" value="-1"/>
    <property name="squibSE" value=""/>
    <property name="static" type="bool" value="true"/>
   </properties>
  </object>
  <object id="328" class="prop" gid="635" x="1555" y="428" width="19" height="12" rotation="233.325">
   <properties>
    <property name="foreground" type="bool" value="true"/>
    <property name="noDestroy" type="bool" value="true"/>
    <property name="rotationMult" type="float" value="1"/>
    <property name="squib" type="int" value="-1"/>
    <property name="squibSE" value=""/>
    <property name="static" type="bool" value="true"/>
   </properties>
  </object>
  <object id="329" class="prop" gid="212" x="1528" y="338" width="32" height="20" rotation="4.90594">
   <properties>
    <property name="foreground" type="bool" value="true"/>
    <property name="noDestroy" type="bool" value="true"/>
    <property name="rotationMult" type="float" value="1"/>
    <property name="squib" type="int" value="-1"/>
    <property name="squibSE" value=""/>
    <property name="static" type="bool" value="false"/>
   </properties>
  </object>
  <object id="330" class="prop" gid="213" x="1518" y="342" width="24" height="23" rotation="349.586">
   <properties>
    <property name="foreground" type="bool" value="true"/>
    <property name="noDestroy" type="bool" value="true"/>
    <property name="rotationMult" type="float" value="1"/>
    <property name="squib" type="int" value="-1"/>
    <property name="squibSE" value=""/>
    <property name="static" type="bool" value="false"/>
   </properties>
  </object>
  <object id="331" class="prop" gid="211" x="1503" y="340" width="26" height="23" rotation="4.90594">
   <properties>
    <property name="foreground" type="bool" value="true"/>
    <property name="noDestroy" type="bool" value="true"/>
    <property name="rotationMult" type="float" value="1"/>
    <property name="squib" type="int" value="-1"/>
    <property name="squibSE" value=""/>
    <property name="static" type="bool" value="false"/>
   </properties>
  </object>
  <object id="332" class="prop" gid="210" x="1480" y="335" width="35" height="20" rotation="4.98863">
   <properties>
    <property name="foreground" type="bool" value="true"/>
    <property name="noDestroy" type="bool" value="true"/>
    <property name="rotationMult" type="float" value="1"/>
    <property name="squib" type="int" value="-1"/>
    <property name="squibSE" value=""/>
    <property name="static" type="bool" value="false"/>
   </properties>
  </object>
  <object id="333" class="prop" gid="265" x="1460" y="321" width="11" height="13" rotation="358.432">
   <properties>
    <property name="foreground" type="bool" value="true"/>
    <property name="noDestroy" type="bool" value="true"/>
    <property name="rotationMult" type="float" value="1"/>
    <property name="squib" type="int" value="-1"/>
    <property name="squibSE" value=""/>
    <property name="static" type="bool" value="false"/>
   </properties>
  </object>
  <object id="334" class="prop" gid="263" x="1561" y="336" width="22" height="14" rotation="2.18209">
   <properties>
    <property name="foreground" type="bool" value="true"/>
    <property name="noDestroy" type="bool" value="true"/>
    <property name="rotationMult" type="float" value="1"/>
    <property name="squib" type="int" value="-1"/>
    <property name="squibSE" value=""/>
    <property name="static" type="bool" value="false"/>
   </properties>
  </object>
  <object id="335" class="prop" gid="131" x="1583" y="337" width="11" height="13" rotation="358.432">
   <properties>
    <property name="foreground" type="bool" value="true"/>
    <property name="noDestroy" type="bool" value="true"/>
    <property name="rotationMult" type="float" value="1"/>
    <property name="squib" type="int" value="-1"/>
    <property name="squibSE" value=""/>
    <property name="static" type="bool" value="false"/>
   </properties>
  </object>
  <object id="336" class="prop" gid="132" x="1592" y="337" width="12" height="13" rotation="358.432">
   <properties>
    <property name="foreground" type="bool" value="true"/>
    <property name="noDestroy" type="bool" value="true"/>
    <property name="rotationMult" type="float" value="1"/>
    <property name="squib" type="int" value="-1"/>
    <property name="squibSE" value=""/>
    <property name="static" type="bool" value="false"/>
   </properties>
  </object>
  <object id="337" class="prop" gid="264" x="1610" y="339" width="27" height="15" rotation="357.05">
   <properties>
    <property name="foreground" type="bool" value="true"/>
    <property name="noDestroy" type="bool" value="true"/>
    <property name="rotationMult" type="float" value="1"/>
    <property name="squib" type="int" value="-1"/>
    <property name="squibSE" value=""/>
    <property name="static" type="bool" value="false"/>
   </properties>
  </object>
  <object id="338" class="prop" gid="266" x="1646" y="338" width="12" height="13" rotation="358.432">
   <properties>
    <property name="foreground" type="bool" value="true"/>
    <property name="noDestroy" type="bool" value="true"/>
    <property name="rotationMult" type="float" value="1"/>
    <property name="squib" type="int" value="-1"/>
    <property name="squibSE" value=""/>
    <property name="static" type="bool" value="false"/>
   </properties>
  </object>
  <object id="339" class="prop" gid="486" x="1677" y="337" width="20" height="29" rotation="2.18209">
   <properties>
    <property name="foreground" type="bool" value="true"/>
    <property name="noDestroy" type="bool" value="true"/>
    <property name="rotationMult" type="float" value="1"/>
    <property name="squib" type="int" value="-1"/>
    <property name="squibSE" value=""/>
    <property name="static" type="bool" value="false"/>
   </properties>
  </object>
  <object id="340" class="prop" gid="265" x="1658" y="337" width="11" height="13" rotation="358.432">
   <properties>
    <property name="foreground" type="bool" value="true"/>
    <property name="noDestroy" type="bool" value="true"/>
    <property name="rotationMult" type="float" value="1"/>
    <property name="squib" type="int" value="-1"/>
    <property name="squibSE" value=""/>
    <property name="static" type="bool" value="false"/>
   </properties>
  </object>
  <object id="341" class="prop" gid="266" x="1670" y="336" width="12" height="13" rotation="358.432">
   <properties>
    <property name="foreground" type="bool" value="true"/>
    <property name="noDestroy" type="bool" value="true"/>
    <property name="rotationMult" type="float" value="1"/>
    <property name="squib" type="int" value="-1"/>
    <property name="squibSE" value=""/>
    <property name="static" type="bool" value="false"/>
   </properties>
  </object>
  <object id="342" class="prop" gid="483" x="1469" y="324" width="12" height="29" rotation="358.432">
   <properties>
    <property name="foreground" type="bool" value="true"/>
    <property name="noDestroy" type="bool" value="true"/>
    <property name="rotationMult" type="float" value="1"/>
    <property name="squib" type="int" value="-1"/>
    <property name="squibSE" value=""/>
    <property name="static" type="bool" value="false"/>
   </properties>
  </object>
  <object id="343" class="prop" gid="484" x="1453" y="321" width="13" height="27" rotation="7.65142">
   <properties>
    <property name="foreground" type="bool" value="true"/>
    <property name="noDestroy" type="bool" value="true"/>
    <property name="rotationMult" type="float" value="1"/>
    <property name="squib" type="int" value="-1"/>
    <property name="squibSE" value=""/>
    <property name="static" type="bool" value="false"/>
   </properties>
  </object>
  <object id="344" class="prop" gid="264" x="1588.85" y="336.782" width="27" height="15" rotation="6.32688">
   <properties>
    <property name="foreground" type="bool" value="true"/>
    <property name="noDestroy" type="bool" value="true"/>
    <property name="rotationMult" type="float" value="1"/>
    <property name="squib" type="int" value="-1"/>
    <property name="squibSE" value=""/>
    <property name="static" type="bool" value="false"/>
   </properties>
  </object>
  <object id="345" class="prop" gid="582" x="1599" y="345" width="28" height="16">
   <properties>
    <property name="foreground" type="bool" value="true"/>
    <property name="noDestroy" type="bool" value="true"/>
    <property name="rotationMult" type="float" value="0"/>
    <property name="squib" type="int" value="-1"/>
    <property name="squibSE" value=""/>
    <property name="static" type="bool" value="true"/>
   </properties>
  </object>
  <object id="346" class="prop" gid="583" x="1581" y="345" width="24" height="15">
   <properties>
    <property name="foreground" type="bool" value="true"/>
    <property name="noDestroy" type="bool" value="true"/>
    <property name="rotationMult" type="float" value="0"/>
    <property name="squib" type="int" value="-1"/>
    <property name="squibSE" value=""/>
    <property name="static" type="bool" value="true"/>
   </properties>
  </object>
  <object id="347" class="prop" gid="585" x="1563" y="345" width="23" height="15">
   <properties>
    <property name="foreground" type="bool" value="true"/>
    <property name="noDestroy" type="bool" value="true"/>
    <property name="rotationMult" type="float" value="0"/>
    <property name="squib" type="int" value="-1"/>
    <property name="squibSE" value=""/>
    <property name="static" type="bool" value="true"/>
   </properties>
  </object>
  <object id="350" class="prop" gid="483" x="1848" y="318" width="12" height="29" rotation="358.432">
   <properties>
    <property name="foreground" type="bool" value="true"/>
    <property name="noDestroy" type="bool" value="true"/>
    <property name="rotationMult" type="float" value="1"/>
    <property name="squib" type="int" value="-1"/>
    <property name="squibSE" value=""/>
    <property name="static" type="bool" value="false"/>
   </properties>
  </object>
  <object id="351" class="prop" gid="582" x="1851" y="327" width="28" height="16" rotation="339.715">
   <properties>
    <property name="foreground" type="bool" value="true"/>
    <property name="noDestroy" type="bool" value="true"/>
    <property name="rotationMult" type="float" value="0"/>
    <property name="squib" type="int" value="-1"/>
    <property name="squibSE" value=""/>
    <property name="static" type="bool" value="true"/>
   </properties>
  </object>
  <object id="352" class="prop" gid="265" x="1475" y="324" width="11" height="13" rotation="20.7929">
   <properties>
    <property name="foreground" type="bool" value="true"/>
    <property name="noDestroy" type="bool" value="true"/>
    <property name="rotationMult" type="float" value="1"/>
    <property name="squib" type="int" value="-1"/>
    <property name="squibSE" value=""/>
    <property name="static" type="bool" value="false"/>
   </properties>
  </object>
  <object id="353" class="prop" gid="212" x="1704" y="331" width="32" height="20" rotation="352.356">
   <properties>
    <property name="foreground" type="bool" value="true"/>
    <property name="noDestroy" type="bool" value="true"/>
    <property name="rotationMult" type="float" value="1"/>
    <property name="squib" type="int" value="-1"/>
    <property name="squibSE" value=""/>
    <property name="static" type="bool" value="false"/>
   </properties>
  </object>
  <object id="354" class="prop" gid="213" x="1695" y="340" width="24" height="23" rotation="349.586">
   <properties>
    <property name="foreground" type="bool" value="true"/>
    <property name="noDestroy" type="bool" value="true"/>
    <property name="rotationMult" type="float" value="1"/>
    <property name="squib" type="int" value="-1"/>
    <property name="squibSE" value=""/>
    <property name="static" type="bool" value="false"/>
   </properties>
  </object>
  <object id="355" class="prop" gid="486" x="1785" y="321" width="20" height="29" rotation="2.18209">
   <properties>
    <property name="foreground" type="bool" value="true"/>
    <property name="noDestroy" type="bool" value="true"/>
    <property name="rotationMult" type="float" value="1"/>
    <property name="squib" type="int" value="-1"/>
    <property name="squibSE" value=""/>
    <property name="static" type="bool" value="false"/>
   </properties>
  </object>
  <object id="356" class="prop" gid="487" x="1772" y="322" width="20" height="27" rotation="355.442">
   <properties>
    <property name="foreground" type="bool" value="true"/>
    <property name="noDestroy" type="bool" value="true"/>
    <property name="rotationMult" type="float" value="1"/>
    <property name="squib" type="int" value="-1"/>
    <property name="squibSE" value=""/>
    <property name="static" type="bool" value="false"/>
   </properties>
  </object>
  <object id="357" class="prop" gid="485" x="1753" y="320" width="13" height="26" rotation="355.442">
   <properties>
    <property name="foreground" type="bool" value="true"/>
    <property name="noDestroy" type="bool" value="true"/>
    <property name="rotationMult" type="float" value="1"/>
    <property name="squib" type="int" value="-1"/>
    <property name="squibSE" value=""/>
    <property name="static" type="bool" value="false"/>
   </properties>
  </object>
  <object id="358" class="prop" gid="262" x="1729" y="320" width="26" height="19" rotation="2.18209">
   <properties>
    <property name="foreground" type="bool" value="true"/>
    <property name="noDestroy" type="bool" value="true"/>
    <property name="rotationMult" type="float" value="1"/>
    <property name="squib" type="int" value="-1"/>
    <property name="squibSE" value=""/>
    <property name="static" type="bool" value="false"/>
   </properties>
  </object>
  <object id="359" class="prop" gid="265" x="1762" y="319" width="11" height="13" rotation="358.432">
   <properties>
    <property name="foreground" type="bool" value="true"/>
    <property name="noDestroy" type="bool" value="true"/>
    <property name="rotationMult" type="float" value="1"/>
    <property name="squib" type="int" value="-1"/>
    <property name="squibSE" value=""/>
    <property name="static" type="bool" value="false"/>
   </properties>
  </object>
  <object id="360" class="prop" gid="266" x="1803" y="320" width="12" height="13" rotation="358.432">
   <properties>
    <property name="foreground" type="bool" value="true"/>
    <property name="noDestroy" type="bool" value="true"/>
    <property name="rotationMult" type="float" value="1"/>
    <property name="squib" type="int" value="-1"/>
    <property name="squibSE" value=""/>
    <property name="static" type="bool" value="false"/>
   </properties>
  </object>
  <object id="361" class="prop" gid="263" x="1811" y="321" width="22" height="14" rotation="354.71">
   <properties>
    <property name="foreground" type="bool" value="true"/>
    <property name="noDestroy" type="bool" value="true"/>
    <property name="rotationMult" type="float" value="1"/>
    <property name="squib" type="int" value="-1"/>
    <property name="squibSE" value=""/>
    <property name="static" type="bool" value="false"/>
   </properties>
  </object>
  <object id="362" class="prop" gid="264" x="1824" y="318" width="27" height="15" rotation="12.0576">
   <properties>
    <property name="foreground" type="bool" value="true"/>
    <property name="noDestroy" type="bool" value="true"/>
    <property name="rotationMult" type="float" value="1"/>
    <property name="squib" type="int" value="-1"/>
    <property name="squibSE" value=""/>
    <property name="static" type="bool" value="false"/>
   </properties>
  </object>
  <object id="363" class="prop" gid="583" x="1787" y="330" width="24" height="15">
   <properties>
    <property name="foreground" type="bool" value="true"/>
    <property name="noDestroy" type="bool" value="true"/>
    <property name="rotationMult" type="float" value="0"/>
    <property name="squib" type="int" value="-1"/>
    <property name="squibSE" value=""/>
    <property name="static" type="bool" value="true"/>
   </properties>
  </object>
  <object id="364" class="prop" gid="583" x="1768" y="330" width="24" height="15">
   <properties>
    <property name="foreground" type="bool" value="true"/>
    <property name="noDestroy" type="bool" value="true"/>
    <property name="rotationMult" type="float" value="0"/>
    <property name="squib" type="int" value="-1"/>
    <property name="squibSE" value=""/>
    <property name="static" type="bool" value="true"/>
   </properties>
  </object>
  <object id="365" class="prop" gid="265" x="1375" y="320" width="11" height="13" rotation="358.432">
   <properties>
    <property name="foreground" type="bool" value="true"/>
    <property name="noDestroy" type="bool" value="true"/>
    <property name="rotationMult" type="float" value="1"/>
    <property name="squib" type="int" value="-1"/>
    <property name="squibSE" value=""/>
    <property name="static" type="bool" value="false"/>
   </properties>
  </object>
  <object id="366" class="prop" gid="483" x="1407" y="320" width="12" height="29" rotation="3.67965">
   <properties>
    <property name="foreground" type="bool" value="true"/>
    <property name="noDestroy" type="bool" value="true"/>
    <property name="rotationMult" type="float" value="1"/>
    <property name="squib" type="int" value="-1"/>
    <property name="squibSE" value=""/>
    <property name="static" type="bool" value="false"/>
   </properties>
  </object>
  <object id="367" class="prop" gid="484" x="1366" y="322" width="13" height="27" rotation="346.511">
   <properties>
    <property name="foreground" type="bool" value="true"/>
    <property name="noDestroy" type="bool" value="true"/>
    <property name="rotationMult" type="float" value="1"/>
    <property name="squib" type="int" value="-1"/>
    <property name="squibSE" value=""/>
    <property name="static" type="bool" value="false"/>
   </properties>
  </object>
  <object id="368" class="prop" gid="583" x="1403" y="329" width="24" height="15">
   <properties>
    <property name="foreground" type="bool" value="true"/>
    <property name="noDestroy" type="bool" value="true"/>
    <property name="rotationMult" type="float" value="0"/>
    <property name="squib" type="int" value="-1"/>
    <property name="squibSE" value=""/>
    <property name="static" type="bool" value="true"/>
   </properties>
  </object>
  <object id="369" class="prop" gid="264" x="1427" y="322" width="27" height="15" rotation="357.05">
   <properties>
    <property name="foreground" type="bool" value="true"/>
    <property name="noDestroy" type="bool" value="true"/>
    <property name="rotationMult" type="float" value="1"/>
    <property name="squib" type="int" value="-1"/>
    <property name="squibSE" value=""/>
    <property name="static" type="bool" value="false"/>
   </properties>
  </object>
  <object id="377" class="prop" gid="487" x="1195" y="394" width="20" height="27" rotation="355.442">
   <properties>
    <property name="foreground" type="bool" value="true"/>
    <property name="noDestroy" type="bool" value="true"/>
    <property name="rotationMult" type="float" value="1"/>
    <property name="squib" type="int" value="-1"/>
    <property name="squibSE" value=""/>
    <property name="static" type="bool" value="false"/>
   </properties>
  </object>
  <object id="378" class="prop" gid="211" x="1186" y="404" width="26" height="23" rotation="4.90594">
   <properties>
    <property name="foreground" type="bool" value="true"/>
    <property name="noDestroy" type="bool" value="true"/>
    <property name="rotationMult" type="float" value="1"/>
    <property name="squib" type="int" value="-1"/>
    <property name="squibSE" value=""/>
    <property name="static" type="bool" value="false"/>
   </properties>
  </object>
  <object id="379" class="prop" gid="210" x="1170" y="410" width="35" height="20" rotation="4.98863">
   <properties>
    <property name="foreground" type="bool" value="true"/>
    <property name="noDestroy" type="bool" value="true"/>
    <property name="rotationMult" type="float" value="1"/>
    <property name="squib" type="int" value="-1"/>
    <property name="squibSE" value=""/>
    <property name="static" type="bool" value="false"/>
   </properties>
  </object>
  <object id="380" class="prop" gid="213" x="1165" y="425" width="24" height="23" rotation="349.586">
   <properties>
    <property name="foreground" type="bool" value="true"/>
    <property name="noDestroy" type="bool" value="true"/>
    <property name="rotationMult" type="float" value="1"/>
    <property name="squib" type="int" value="-1"/>
    <property name="squibSE" value=""/>
    <property name="static" type="bool" value="false"/>
   </properties>
  </object>
  <object id="381" class="prop" gid="583" x="1180" y="420" width="24" height="15">
   <properties>
    <property name="foreground" type="bool" value="true"/>
    <property name="noDestroy" type="bool" value="true"/>
    <property name="rotationMult" type="float" value="0"/>
    <property name="squib" type="int" value="-1"/>
    <property name="squibSE" value=""/>
    <property name="static" type="bool" value="true"/>
   </properties>
  </object>
  <object id="382" class="prop" gid="583" x="1170" y="427" width="24" height="15" rotation="348.521">
   <properties>
    <property name="foreground" type="bool" value="true"/>
    <property name="noDestroy" type="bool" value="true"/>
    <property name="rotationMult" type="float" value="0"/>
    <property name="squib" type="int" value="-1"/>
    <property name="squibSE" value=""/>
    <property name="static" type="bool" value="true"/>
   </properties>
  </object>
  <object id="384" class="prop" gid="266" x="1335" y="332" width="12" height="13" rotation="358.432">
   <properties>
    <property name="foreground" type="bool" value="true"/>
    <property name="noDestroy" type="bool" value="true"/>
    <property name="rotationMult" type="float" value="1"/>
    <property name="squib" type="int" value="-1"/>
    <property name="squibSE" value=""/>
    <property name="static" type="bool" value="false"/>
   </properties>
  </object>
  <object id="385" class="prop" gid="265" x="1312" y="343" width="11" height="13" rotation="358.432">
   <properties>
    <property name="foreground" type="bool" value="true"/>
    <property name="noDestroy" type="bool" value="true"/>
    <property name="rotationMult" type="float" value="1"/>
    <property name="squib" type="int" value="-1"/>
    <property name="squibSE" value=""/>
    <property name="static" type="bool" value="false"/>
   </properties>
  </object>
  <object id="386" class="prop" gid="266" x="1327" y="335" width="12" height="13" rotation="358.432">
   <properties>
    <property name="foreground" type="bool" value="true"/>
    <property name="noDestroy" type="bool" value="true"/>
    <property name="rotationMult" type="float" value="1"/>
    <property name="squib" type="int" value="-1"/>
    <property name="squibSE" value=""/>
    <property name="static" type="bool" value="false"/>
   </properties>
  </object>
  <object id="387" class="prop" gid="265" x="1348" y="324" width="11" height="13" rotation="358.432">
   <properties>
    <property name="foreground" type="bool" value="true"/>
    <property name="noDestroy" type="bool" value="true"/>
    <property name="rotationMult" type="float" value="1"/>
    <property name="squib" type="int" value="-1"/>
    <property name="squibSE" value=""/>
    <property name="static" type="bool" value="false"/>
   </properties>
  </object>
  <object id="388" class="prop" gid="487" x="1281" y="350" width="20" height="27" rotation="14.8646">
   <properties>
    <property name="foreground" type="bool" value="true"/>
    <property name="noDestroy" type="bool" value="true"/>
    <property name="rotationMult" type="float" value="1"/>
    <property name="squib" type="int" value="-1"/>
    <property name="squibSE" value=""/>
    <property name="static" type="bool" value="false"/>
   </properties>
  </object>
  <object id="389" class="prop" gid="585" x="1288.22" y="360.615" width="23" height="15" rotation="345.659">
   <properties>
    <property name="foreground" type="bool" value="true"/>
    <property name="noDestroy" type="bool" value="true"/>
    <property name="rotationMult" type="float" value="0"/>
    <property name="squib" type="int" value="-1"/>
    <property name="squibSE" value=""/>
    <property name="static" type="bool" value="true"/>
   </properties>
  </object>
  <object id="390" class="prop" gid="264" x="1259" y="354" width="27" height="15" rotation="357.05">
   <properties>
    <property name="foreground" type="bool" value="true"/>
    <property name="noDestroy" type="bool" value="true"/>
    <property name="rotationMult" type="float" value="1"/>
    <property name="squib" type="int" value="-1"/>
    <property name="squibSE" value=""/>
    <property name="static" type="bool" value="false"/>
   </properties>
  </object>
  <object id="391" class="prop" gid="266" x="1238" y="365" width="12" height="13" rotation="358.432">
   <properties>
    <property name="foreground" type="bool" value="true"/>
    <property name="noDestroy" type="bool" value="true"/>
    <property name="rotationMult" type="float" value="1"/>
    <property name="squib" type="int" value="-1"/>
    <property name="squibSE" value=""/>
    <property name="static" type="bool" value="false"/>
   </properties>
  </object>
  <object id="392" class="prop" gid="265" x="1249" y="359" width="11" height="13" rotation="358.432">
   <properties>
    <property name="foreground" type="bool" value="true"/>
    <property name="noDestroy" type="bool" value="true"/>
    <property name="rotationMult" type="float" value="1"/>
    <property name="squib" type="int" value="-1"/>
    <property name="squibSE" value=""/>
    <property name="static" type="bool" value="false"/>
   </properties>
  </object>
  <object id="393" class="prop" gid="484" x="1213" y="385" width="13" height="27" rotation="346.511">
   <properties>
    <property name="foreground" type="bool" value="true"/>
    <property name="noDestroy" type="bool" value="true"/>
    <property name="rotationMult" type="float" value="1"/>
    <property name="squib" type="int" value="-1"/>
    <property name="squibSE" value=""/>
    <property name="static" type="bool" value="false"/>
   </properties>
  </object>
  <object id="402" class="prop" gid="377" x="1085" y="438" width="40" height="43" rotation="136.459">
   <properties>
    <property name="foreground" type="bool" value="true"/>
    <property name="noDestroy" type="bool" value="true"/>
    <property name="rotationMult" type="float" value="1"/>
    <property name="squib" type="int" value="-1"/>
    <property name="squibSE" value=""/>
    <property name="static" type="bool" value="true"/>
   </properties>
  </object>
  <object id="408" class="prop" gid="150" x="1095" y="594" width="27" height="41" rotation="324.536">
   <properties>
    <property name="foreground" type="bool" value="false"/>
    <property name="noDestroy" type="bool" value="true"/>
    <property name="rotationMult" type="float" value="1"/>
    <property name="squib" type="int" value="-1"/>
    <property name="squibSE" value=""/>
    <property name="static" type="bool" value="true"/>
   </properties>
  </object>
  <object id="409" class="prop" gid="623" x="1079.53" y="505" width="44" height="37" rotation="124.652">
   <properties>
    <property name="foreground" type="bool" value="true"/>
    <property name="noDestroy" type="bool" value="true"/>
    <property name="rotationMult" type="float" value="1"/>
    <property name="squib" type="int" value="-1"/>
    <property name="squibSE" value=""/>
    <property name="static" type="bool" value="true"/>
   </properties>
  </object>
  <object id="410" class="prop" gid="585" x="1076" y="517.607" width="23" height="15" rotation="20.4212">
   <properties>
    <property name="foreground" type="bool" value="true"/>
    <property name="noDestroy" type="bool" value="true"/>
    <property name="rotationMult" type="float" value="0"/>
    <property name="squib" type="int" value="-1"/>
    <property name="squibSE" value=""/>
    <property name="static" type="bool" value="true"/>
   </properties>
  </object>
  <object id="411" class="prop" gid="265" x="1090" y="509.607" width="11" height="13" rotation="41.1965">
   <properties>
    <property name="foreground" type="bool" value="true"/>
    <property name="noDestroy" type="bool" value="true"/>
    <property name="rotationMult" type="float" value="1"/>
    <property name="squib" type="int" value="-1"/>
    <property name="squibSE" value=""/>
    <property name="static" type="bool" value="false"/>
   </properties>
  </object>
  <object id="412" class="prop" gid="265" x="1082" y="509.607" width="11" height="13" rotation="11.1965">
   <properties>
    <property name="foreground" type="bool" value="true"/>
    <property name="noDestroy" type="bool" value="true"/>
    <property name="rotationMult" type="float" value="1"/>
    <property name="squib" type="int" value="-1"/>
    <property name="squibSE" value=""/>
    <property name="static" type="bool" value="false"/>
   </properties>
  </object>
  <object id="413" class="prop" gid="484" x="1070" y="413" width="13" height="27" rotation="346.511">
   <properties>
    <property name="foreground" type="bool" value="true"/>
    <property name="noDestroy" type="bool" value="true"/>
    <property name="rotationMult" type="float" value="1"/>
    <property name="squib" type="int" value="-1"/>
    <property name="squibSE" value=""/>
    <property name="static" type="bool" value="false"/>
   </properties>
  </object>
  <object id="414" class="prop" gid="483" x="1081" y="411" width="12" height="29" rotation="15.312">
   <properties>
    <property name="foreground" type="bool" value="true"/>
    <property name="noDestroy" type="bool" value="true"/>
    <property name="rotationMult" type="float" value="1"/>
    <property name="squib" type="int" value="-1"/>
    <property name="squibSE" value=""/>
    <property name="static" type="bool" value="false"/>
   </properties>
  </object>
  <object id="415" class="prop" gid="375" x="1077" y="461" width="47" height="39" rotation="313.832">
   <properties>
    <property name="foreground" type="bool" value="true"/>
    <property name="noDestroy" type="bool" value="true"/>
    <property name="rotationMult" type="float" value="1"/>
    <property name="squib" type="int" value="-1"/>
    <property name="squibSE" value=""/>
    <property name="static" type="bool" value="true"/>
   </properties>
  </object>
  <object id="416" class="prop" gid="585" x="1063" y="422" width="23" height="15" rotation="344.446">
   <properties>
    <property name="foreground" type="bool" value="true"/>
    <property name="noDestroy" type="bool" value="true"/>
    <property name="rotationMult" type="float" value="0"/>
    <property name="squib" type="int" value="-1"/>
    <property name="squibSE" value=""/>
    <property name="static" type="bool" value="true"/>
   </properties>
  </object>
  <object id="417" class="prop" gid="585" x="1075" y="415" width="23" height="15" rotation="20.4212">
   <properties>
    <property name="foreground" type="bool" value="true"/>
    <property name="noDestroy" type="bool" value="true"/>
    <property name="rotationMult" type="float" value="0"/>
    <property name="squib" type="int" value="-1"/>
    <property name="squibSE" value=""/>
    <property name="static" type="bool" value="true"/>
   </properties>
  </object>
  <object id="418" class="prop" gid="383" x="1084" y="585" width="25" height="22" rotation="150.713">
   <properties>
    <property name="foreground" type="bool" value="true"/>
    <property name="noDestroy" type="bool" value="true"/>
    <property name="rotationMult" type="float" value="1"/>
    <property name="squib" type="int" value="-1"/>
    <property name="squibSE" value=""/>
    <property name="static" type="bool" value="true"/>
   </properties>
  </object>
  <object id="420" class="prop" gid="630" x="1063" y="622" width="27" height="19" rotation="101.604">
   <properties>
    <property name="foreground" type="bool" value="true"/>
    <property name="noDestroy" type="bool" value="true"/>
    <property name="rotationMult" type="float" value="1"/>
    <property name="squib" type="int" value="-1"/>
    <property name="squibSE" value=""/>
    <property name="static" type="bool" value="true"/>
   </properties>
  </object>
  <object id="421" class="prop" gid="631" x="1063" y="645" width="25" height="22" rotation="117.43">
   <properties>
    <property name="foreground" type="bool" value="true"/>
    <property name="noDestroy" type="bool" value="true"/>
    <property name="rotationMult" type="float" value="1"/>
    <property name="squib" type="int" value="-1"/>
    <property name="squibSE" value=""/>
    <property name="static" type="bool" value="true"/>
   </properties>
  </object>
  <object id="423" class="prop" gid="149" x="1085" y="699" width="17" height="28" rotation="310.312">
   <properties>
    <property name="foreground" type="bool" value="false"/>
    <property name="noDestroy" type="bool" value="true"/>
    <property name="rotationMult" type="float" value="1"/>
    <property name="squib" type="int" value="-1"/>
    <property name="squibSE" value=""/>
    <property name="static" type="bool" value="true"/>
   </properties>
  </object>
  <object id="424" class="prop" gid="148" x="1086" y="646" width="21" height="37" rotation="310.312">
   <properties>
    <property name="foreground" type="bool" value="false"/>
    <property name="noDestroy" type="bool" value="true"/>
    <property name="rotationMult" type="float" value="1"/>
    <property name="squib" type="int" value="-1"/>
    <property name="squibSE" value=""/>
    <property name="static" type="bool" value="true"/>
   </properties>
  </object>
  <object id="425" class="prop" gid="626" x="1081" y="702" width="40" height="39" rotation="170.353">
   <properties>
    <property name="foreground" type="bool" value="true"/>
    <property name="noDestroy" type="bool" value="true"/>
    <property name="rotationMult" type="float" value="1"/>
    <property name="squib" type="int" value="-1"/>
    <property name="squibSE" value=""/>
    <property name="static" type="bool" value="true"/>
   </properties>
  </object>
  <object id="426" class="prop" gid="585" x="1063" y="709" width="23" height="15" rotation="36.7173">
   <properties>
    <property name="foreground" type="bool" value="true"/>
    <property name="noDestroy" type="bool" value="true"/>
    <property name="rotationMult" type="float" value="0"/>
    <property name="squib" type="int" value="-1"/>
    <property name="squibSE" value=""/>
    <property name="static" type="bool" value="true"/>
   </properties>
  </object>
  <object id="427" class="prop" gid="265" x="1077" y="707" width="11" height="13" rotation="46.1789">
   <properties>
    <property name="foreground" type="bool" value="true"/>
    <property name="noDestroy" type="bool" value="true"/>
    <property name="rotationMult" type="float" value="1"/>
    <property name="squib" type="int" value="-1"/>
    <property name="squibSE" value=""/>
    <property name="static" type="bool" value="false"/>
   </properties>
  </object>
  <object id="428" class="prop" gid="376" x="1012" y="751" width="34" height="46" rotation="300.048">
   <properties>
    <property name="foreground" type="bool" value="true"/>
    <property name="noDestroy" type="bool" value="true"/>
    <property name="rotationMult" type="float" value="1"/>
    <property name="squib" type="int" value="-1"/>
    <property name="squibSE" value=""/>
    <property name="static" type="bool" value="true"/>
   </properties>
  </object>
  <object id="429" class="prop" gid="379" x="1049" y="728" width="25" height="23" rotation="199.823">
   <properties>
    <property name="foreground" type="bool" value="true"/>
    <property name="noDestroy" type="bool" value="true"/>
    <property name="rotationMult" type="float" value="1"/>
    <property name="squib" type="int" value="-1"/>
    <property name="squibSE" value=""/>
    <property name="static" type="bool" value="true"/>
   </properties>
  </object>
  <object id="432" class="prop" gid="625" x="996" y="522" width="40" height="43" rotation="320.567">
   <properties>
    <property name="foreground" type="bool" value="true"/>
    <property name="noDestroy" type="bool" value="true"/>
    <property name="rotationMult" type="float" value="1"/>
    <property name="squib" type="int" value="-1"/>
    <property name="squibSE" value=""/>
    <property name="static" type="bool" value="true"/>
   </properties>
  </object>
  <object id="433" class="prop" gid="626" x="986" y="545" width="40" height="39" rotation="357.993">
   <properties>
    <property name="foreground" type="bool" value="true"/>
    <property name="noDestroy" type="bool" value="true"/>
    <property name="rotationMult" type="float" value="1"/>
    <property name="squib" type="int" value="-1"/>
    <property name="squibSE" value=""/>
    <property name="static" type="bool" value="true"/>
   </properties>
  </object>
  <object id="434" class="prop" gid="150" x="971" y="581" width="27" height="41" rotation="16.8345">
   <properties>
    <property name="foreground" type="bool" value="false"/>
    <property name="noDestroy" type="bool" value="true"/>
    <property name="rotationMult" type="float" value="1"/>
    <property name="squib" type="int" value="-1"/>
    <property name="squibSE" value=""/>
    <property name="static" type="bool" value="true"/>
   </properties>
  </object>
  <object id="435" class="prop" gid="582" x="984" y="489" width="28" height="16" rotation="326.718">
   <properties>
    <property name="foreground" type="bool" value="true"/>
    <property name="noDestroy" type="bool" value="true"/>
    <property name="rotationMult" type="float" value="1"/>
    <property name="squib" type="int" value="-1"/>
    <property name="squibSE" value=""/>
    <property name="static" type="bool" value="true"/>
   </properties>
  </object>
  <object id="436" class="prop" gid="583" x="987" y="499" width="24" height="15" rotation="302.085">
   <properties>
    <property name="foreground" type="bool" value="true"/>
    <property name="noDestroy" type="bool" value="true"/>
    <property name="rotationMult" type="float" value="1"/>
    <property name="squib" type="int" value="-1"/>
    <property name="squibSE" value=""/>
    <property name="static" type="bool" value="true"/>
   </properties>
  </object>
  <object id="439" class="prop" gid="586" x="994" y="527" width="22" height="18" rotation="336.673">
   <properties>
    <property name="foreground" type="bool" value="true"/>
    <property name="noDestroy" type="bool" value="true"/>
    <property name="rotationMult" type="float" value="1"/>
    <property name="squib" type="int" value="-1"/>
    <property name="squibSE" value=""/>
    <property name="static" type="bool" value="true"/>
   </properties>
  </object>
  <object id="440" class="prop" gid="586" x="989" y="537" width="22" height="18" rotation="317.472">
   <properties>
    <property name="foreground" type="bool" value="true"/>
    <property name="noDestroy" type="bool" value="true"/>
    <property name="rotationMult" type="float" value="1"/>
    <property name="squib" type="int" value="-1"/>
    <property name="squibSE" value=""/>
    <property name="static" type="bool" value="true"/>
   </properties>
  </object>
  <object id="441" class="prop" gid="625" x="978" y="628.106" width="40" height="43" rotation="1.07856">
   <properties>
    <property name="foreground" type="bool" value="true"/>
    <property name="noDestroy" type="bool" value="true"/>
    <property name="rotationMult" type="float" value="1"/>
    <property name="squib" type="int" value="-1"/>
    <property name="squibSE" value=""/>
    <property name="static" type="bool" value="true"/>
   </properties>
  </object>
  <object id="442" class="prop" gid="629" x="992" y="646" width="26" height="21" rotation="336.518">
   <properties>
    <property name="foreground" type="bool" value="true"/>
    <property name="noDestroy" type="bool" value="true"/>
    <property name="rotationMult" type="float" value="1"/>
    <property name="squib" type="int" value="-1"/>
    <property name="squibSE" value=""/>
    <property name="static" type="bool" value="true"/>
   </properties>
  </object>
  <object id="443" class="prop" gid="582" x="982" y="622.106" width="28" height="16" rotation="298.772">
   <properties>
    <property name="foreground" type="bool" value="true"/>
    <property name="noDestroy" type="bool" value="true"/>
    <property name="rotationMult" type="float" value="1"/>
    <property name="squib" type="int" value="-1"/>
    <property name="squibSE" value=""/>
    <property name="static" type="bool" value="true"/>
   </properties>
  </object>
  <object id="444" class="prop" gid="586" x="986" y="606.106" width="22" height="18" rotation="336.673">
   <properties>
    <property name="foreground" type="bool" value="true"/>
    <property name="noDestroy" type="bool" value="true"/>
    <property name="rotationMult" type="float" value="1"/>
    <property name="squib" type="int" value="-1"/>
    <property name="squibSE" value=""/>
    <property name="static" type="bool" value="true"/>
   </properties>
  </object>
  <object id="445" class="prop" gid="586" x="991" y="596.106" width="22" height="18" rotation="4.32404">
   <properties>
    <property name="foreground" type="bool" value="true"/>
    <property name="noDestroy" type="bool" value="true"/>
    <property name="rotationMult" type="float" value="1"/>
    <property name="squib" type="int" value="-1"/>
    <property name="squibSE" value=""/>
    <property name="static" type="bool" value="true"/>
   </properties>
  </object>
  <object id="446" class="prop" gid="485" x="986.95" y="596" width="13" height="26" rotation="333.573">
   <properties>
    <property name="foreground" type="bool" value="true"/>
    <property name="noDestroy" type="bool" value="true"/>
    <property name="rotationMult" type="float" value="1"/>
    <property name="squib" type="int" value="-1"/>
    <property name="squibSE" value=""/>
    <property name="static" type="bool" value="false"/>
   </properties>
  </object>
  <object id="447" class="prop" gid="132" x="984.81" y="599.148" width="12" height="13" rotation="301.996">
   <properties>
    <property name="foreground" type="bool" value="true"/>
    <property name="noDestroy" type="bool" value="true"/>
    <property name="rotationMult" type="float" value="1"/>
    <property name="squib" type="int" value="-1"/>
    <property name="squibSE" value=""/>
    <property name="static" type="bool" value="false"/>
   </properties>
  </object>
  <object id="448" class="prop" gid="631" x="1000" y="676" width="25" height="22" rotation="305.845">
   <properties>
    <property name="foreground" type="bool" value="true"/>
    <property name="noDestroy" type="bool" value="true"/>
    <property name="rotationMult" type="float" value="1"/>
    <property name="squib" type="int" value="-1"/>
    <property name="squibSE" value=""/>
    <property name="static" type="bool" value="true"/>
   </properties>
  </object>
  <object id="449" class="prop" gid="630" x="999" y="699" width="27" height="19" rotation="315.549">
   <properties>
    <property name="foreground" type="bool" value="true"/>
    <property name="noDestroy" type="bool" value="true"/>
    <property name="rotationMult" type="float" value="1"/>
    <property name="squib" type="int" value="-1"/>
    <property name="squibSE" value=""/>
    <property name="static" type="bool" value="true"/>
   </properties>
  </object>
  <object id="450" class="prop" gid="152" x="974" y="700" width="19" height="25" rotation="61.3073">
   <properties>
    <property name="foreground" type="bool" value="false"/>
    <property name="noDestroy" type="bool" value="true"/>
    <property name="rotationMult" type="float" value="1"/>
    <property name="squib" type="int" value="-1"/>
    <property name="squibSE" value=""/>
    <property name="static" type="bool" value="true"/>
   </properties>
  </object>
  <object id="451" class="prop" gid="264" x="1035" y="417" width="27" height="15" rotation="357.05">
   <properties>
    <property name="foreground" type="bool" value="true"/>
    <property name="noDestroy" type="bool" value="true"/>
    <property name="rotationMult" type="float" value="1"/>
    <property name="squib" type="int" value="-1"/>
    <property name="squibSE" value=""/>
    <property name="static" type="bool" value="false"/>
   </properties>
  </object>
  <object id="452" class="prop" gid="266" x="1011" y="416" width="12" height="13" rotation="358.432">
   <properties>
    <property name="foreground" type="bool" value="true"/>
    <property name="noDestroy" type="bool" value="true"/>
    <property name="rotationMult" type="float" value="1"/>
    <property name="squib" type="int" value="-1"/>
    <property name="squibSE" value=""/>
    <property name="static" type="bool" value="false"/>
   </properties>
  </object>
  <object id="453" class="prop" gid="265" x="1024" y="416" width="11" height="13" rotation="358.432">
   <properties>
    <property name="foreground" type="bool" value="true"/>
    <property name="noDestroy" type="bool" value="true"/>
    <property name="rotationMult" type="float" value="1"/>
    <property name="squib" type="int" value="-1"/>
    <property name="squibSE" value=""/>
    <property name="static" type="bool" value="false"/>
   </properties>
  </object>
  <object id="454" class="prop" gid="487" x="987" y="413" width="20" height="27" rotation="14.8646">
   <properties>
    <property name="foreground" type="bool" value="true"/>
    <property name="noDestroy" type="bool" value="true"/>
    <property name="rotationMult" type="float" value="1"/>
    <property name="squib" type="int" value="-1"/>
    <property name="squibSE" value=""/>
    <property name="static" type="bool" value="false"/>
   </properties>
  </object>
  <object id="455" class="prop" gid="624" x="995" y="462" width="33" height="46" rotation="326.244">
   <properties>
    <property name="foreground" type="bool" value="true"/>
    <property name="noDestroy" type="bool" value="true"/>
    <property name="rotationMult" type="float" value="1"/>
    <property name="squib" type="int" value="-1"/>
    <property name="squibSE" value=""/>
    <property name="static" type="bool" value="true"/>
   </properties>
  </object>
  <object id="456" class="prop" gid="584" x="982" y="424" width="24" height="16" rotation="354.411">
   <properties>
    <property name="foreground" type="bool" value="true"/>
    <property name="noDestroy" type="bool" value="true"/>
    <property name="rotationMult" type="float" value="1"/>
    <property name="squib" type="int" value="-1"/>
    <property name="squibSE" value=""/>
    <property name="static" type="bool" value="true"/>
   </properties>
  </object>
  <object id="457" class="prop" gid="583" x="985" y="437" width="24" height="15" rotation="302.085">
   <properties>
    <property name="foreground" type="bool" value="true"/>
    <property name="noDestroy" type="bool" value="true"/>
    <property name="rotationMult" type="float" value="1"/>
    <property name="squib" type="int" value="-1"/>
    <property name="squibSE" value=""/>
    <property name="static" type="bool" value="true"/>
   </properties>
  </object>
  <object id="458" class="prop" gid="265" x="980" y="479" width="11" height="13" rotation="332.166">
   <properties>
    <property name="foreground" type="bool" value="true"/>
    <property name="noDestroy" type="bool" value="true"/>
    <property name="rotationMult" type="float" value="1"/>
    <property name="squib" type="int" value="-1"/>
    <property name="squibSE" value=""/>
    <property name="static" type="bool" value="false"/>
   </properties>
  </object>
  <object id="459" class="prop" gid="265" x="979" y="488" width="11" height="13" rotation="301.472">
   <properties>
    <property name="foreground" type="bool" value="true"/>
    <property name="noDestroy" type="bool" value="true"/>
    <property name="rotationMult" type="float" value="1"/>
    <property name="squib" type="int" value="-1"/>
    <property name="squibSE" value=""/>
    <property name="static" type="bool" value="false"/>
   </properties>
  </object>
  <object id="460" class="prop" gid="625" x="937" y="685" width="40" height="43" rotation="132.927">
   <properties>
    <property name="foreground" type="bool" value="true"/>
    <property name="noDestroy" type="bool" value="true"/>
    <property name="rotationMult" type="float" value="1"/>
    <property name="squib" type="int" value="-1"/>
    <property name="squibSE" value=""/>
    <property name="static" type="bool" value="true"/>
   </properties>
  </object>
  <object id="462" class="prop" gid="629" x="930" y="584" width="26" height="21" rotation="103.981">
   <properties>
    <property name="foreground" type="bool" value="true"/>
    <property name="noDestroy" type="bool" value="true"/>
    <property name="rotationMult" type="float" value="1"/>
    <property name="squib" type="int" value="-1"/>
    <property name="squibSE" value=""/>
    <property name="static" type="bool" value="true"/>
   </properties>
  </object>
  <object id="463" class="prop" gid="630" x="922" y="533" width="27" height="19" rotation="108.325">
   <properties>
    <property name="foreground" type="bool" value="true"/>
    <property name="noDestroy" type="bool" value="true"/>
    <property name="rotationMult" type="float" value="1"/>
    <property name="squib" type="int" value="-1"/>
    <property name="squibSE" value=""/>
    <property name="static" type="bool" value="true"/>
   </properties>
  </object>
  <object id="464" class="prop" gid="630" x="926" y="472" width="27" height="19" rotation="69.8145">
   <properties>
    <property name="foreground" type="bool" value="true"/>
    <property name="noDestroy" type="bool" value="true"/>
    <property name="rotationMult" type="float" value="1"/>
    <property name="squib" type="int" value="-1"/>
    <property name="squibSE" value=""/>
    <property name="static" type="bool" value="true"/>
   </properties>
  </object>
  <object id="466" class="prop" gid="632" x="933" y="565" width="14" height="14" rotation="103.981">
   <properties>
    <property name="foreground" type="bool" value="true"/>
    <property name="noDestroy" type="bool" value="true"/>
    <property name="rotationMult" type="float" value="1"/>
    <property name="squib" type="int" value="-1"/>
    <property name="squibSE" value=""/>
    <property name="static" type="bool" value="true"/>
   </properties>
  </object>
  <object id="467" class="prop" gid="375" x="918" y="493" width="47" height="39" rotation="88.894">
   <properties>
    <property name="foreground" type="bool" value="true"/>
    <property name="noDestroy" type="bool" value="true"/>
    <property name="rotationMult" type="float" value="1"/>
    <property name="squib" type="int" value="-1"/>
    <property name="squibSE" value=""/>
    <property name="static" type="bool" value="true"/>
   </properties>
  </object>
  <object id="468" class="prop" gid="582" x="935.92" y="692.196" width="28" height="16" rotation="53.2121">
   <properties>
    <property name="foreground" type="bool" value="true"/>
    <property name="noDestroy" type="bool" value="true"/>
    <property name="rotationMult" type="float" value="1"/>
    <property name="squib" type="int" value="-1"/>
    <property name="squibSE" value=""/>
    <property name="static" type="bool" value="true"/>
   </properties>
  </object>
  <object id="469" class="prop" gid="583" x="930" y="693" width="24" height="15" rotation="20.1793">
   <properties>
    <property name="foreground" type="bool" value="true"/>
    <property name="noDestroy" type="bool" value="true"/>
    <property name="rotationMult" type="float" value="1"/>
    <property name="squib" type="int" value="-1"/>
    <property name="squibSE" value=""/>
    <property name="static" type="bool" value="true"/>
   </properties>
  </object>
  <object id="470" class="prop" gid="584" x="932.67" y="473.012" width="24" height="16" rotation="50.3304">
   <properties>
    <property name="foreground" type="bool" value="true"/>
    <property name="noDestroy" type="bool" value="true"/>
    <property name="rotationMult" type="float" value="1"/>
    <property name="squib" type="int" value="-1"/>
    <property name="squibSE" value=""/>
    <property name="static" type="bool" value="true"/>
   </properties>
  </object>
  <object id="471" class="prop" gid="485" x="935" y="684" width="13" height="26" rotation="34.3796">
   <properties>
    <property name="foreground" type="bool" value="true"/>
    <property name="noDestroy" type="bool" value="true"/>
    <property name="rotationMult" type="float" value="1"/>
    <property name="squib" type="int" value="-1"/>
    <property name="squibSE" value=""/>
    <property name="static" type="bool" value="false"/>
   </properties>
  </object>
  <object id="472" class="prop" gid="266" x="940" y="469" width="12" height="13" rotation="24.7751">
   <properties>
    <property name="foreground" type="bool" value="true"/>
    <property name="noDestroy" type="bool" value="true"/>
    <property name="rotationMult" type="float" value="1"/>
    <property name="squib" type="int" value="-1"/>
    <property name="squibSE" value=""/>
    <property name="static" type="bool" value="false"/>
   </properties>
  </object>
  <object id="473" class="prop" gid="149" x="937" y="638" width="17" height="28" rotation="349.784">
   <properties>
    <property name="foreground" type="bool" value="false"/>
    <property name="noDestroy" type="bool" value="true"/>
    <property name="rotationMult" type="float" value="1"/>
    <property name="squib" type="int" value="-1"/>
    <property name="squibSE" value=""/>
    <property name="static" type="bool" value="true"/>
   </properties>
  </object>
  <object id="474" class="prop" gid="148" x="946.094" y="576.14" width="21" height="37" rotation="331.419">
   <properties>
    <property name="foreground" type="bool" value="false"/>
    <property name="noDestroy" type="bool" value="true"/>
    <property name="rotationMult" type="float" value="1"/>
    <property name="squib" type="int" value="-1"/>
    <property name="squibSE" value=""/>
    <property name="static" type="bool" value="true"/>
   </properties>
  </object>
  <object id="476" class="prop" gid="152" x="951" y="796" width="19" height="25" rotation="315.259">
   <properties>
    <property name="foreground" type="bool" value="false"/>
    <property name="noDestroy" type="bool" value="true"/>
    <property name="rotationMult" type="float" value="1"/>
    <property name="squib" type="int" value="-1"/>
    <property name="squibSE" value=""/>
    <property name="static" type="bool" value="true"/>
   </properties>
  </object>
  <object id="477" class="prop" gid="629" x="935" y="742" width="26" height="21" rotation="107.121">
   <properties>
    <property name="foreground" type="bool" value="true"/>
    <property name="noDestroy" type="bool" value="true"/>
    <property name="rotationMult" type="float" value="1"/>
    <property name="squib" type="int" value="-1"/>
    <property name="squibSE" value=""/>
    <property name="static" type="bool" value="true"/>
   </properties>
  </object>
  <object id="478" class="prop" gid="377" x="938" y="406" width="40" height="43" rotation="136.459">
   <properties>
    <property name="foreground" type="bool" value="true"/>
    <property name="noDestroy" type="bool" value="true"/>
    <property name="rotationMult" type="float" value="1"/>
    <property name="squib" type="int" value="-1"/>
    <property name="squibSE" value=""/>
    <property name="static" type="bool" value="true"/>
   </properties>
  </object>
  <object id="479" class="prop" gid="484" x="934" y="414" width="13" height="27" rotation="17.714">
   <properties>
    <property name="foreground" type="bool" value="true"/>
    <property name="noDestroy" type="bool" value="true"/>
    <property name="rotationMult" type="float" value="1"/>
    <property name="squib" type="int" value="-1"/>
    <property name="squibSE" value=""/>
    <property name="static" type="bool" value="false"/>
   </properties>
  </object>
  <object id="481" class="prop" gid="483" x="928" y="416" width="12" height="29" rotation="348.024">
   <properties>
    <property name="foreground" type="bool" value="true"/>
    <property name="noDestroy" type="bool" value="true"/>
    <property name="rotationMult" type="float" value="1"/>
    <property name="squib" type="int" value="-1"/>
    <property name="squibSE" value=""/>
    <property name="static" type="bool" value="false"/>
   </properties>
  </object>
  <object id="482" class="prop" gid="584" x="926" y="424" width="24" height="16" rotation="354.411">
   <properties>
    <property name="foreground" type="bool" value="true"/>
    <property name="noDestroy" type="bool" value="true"/>
    <property name="rotationMult" type="float" value="1"/>
    <property name="squib" type="int" value="-1"/>
    <property name="squibSE" value=""/>
    <property name="static" type="bool" value="true"/>
   </properties>
  </object>
  <object id="483" class="prop" gid="377" x="1022" y="789" width="40" height="43" rotation="136.459">
   <properties>
    <property name="foreground" type="bool" value="true"/>
    <property name="noDestroy" type="bool" value="true"/>
    <property name="rotationMult" type="float" value="1"/>
    <property name="squib" type="int" value="-1"/>
    <property name="squibSE" value=""/>
    <property name="static" type="bool" value="true"/>
   </properties>
  </object>
  <object id="486" class="prop" gid="487" x="1007" y="802" width="20" height="27" rotation="352.55">
   <properties>
    <property name="foreground" type="bool" value="true"/>
    <property name="noDestroy" type="bool" value="true"/>
    <property name="rotationMult" type="float" value="1"/>
    <property name="squib" type="int" value="-1"/>
    <property name="squibSE" value=""/>
    <property name="static" type="bool" value="false"/>
   </properties>
  </object>
  <object id="487" class="prop" gid="584" x="1009" y="809" width="24" height="16" rotation="354.411">
   <properties>
    <property name="foreground" type="bool" value="true"/>
    <property name="noDestroy" type="bool" value="true"/>
    <property name="rotationMult" type="float" value="1"/>
    <property name="squib" type="int" value="-1"/>
    <property name="squibSE" value=""/>
    <property name="static" type="bool" value="true"/>
   </properties>
  </object>
  <object id="488" class="prop" gid="211" x="936" y="802" width="26" height="23" rotation="4.90594">
   <properties>
    <property name="foreground" type="bool" value="true"/>
    <property name="noDestroy" type="bool" value="true"/>
    <property name="rotationMult" type="float" value="1"/>
    <property name="squib" type="int" value="-1"/>
    <property name="squibSE" value=""/>
    <property name="static" type="bool" value="false"/>
   </properties>
  </object>
  <object id="489" class="prop" gid="210" x="943" y="804" width="35" height="20" rotation="4.98863">
   <properties>
    <property name="foreground" type="bool" value="true"/>
    <property name="noDestroy" type="bool" value="true"/>
    <property name="rotationMult" type="float" value="1"/>
    <property name="squib" type="int" value="-1"/>
    <property name="squibSE" value=""/>
    <property name="static" type="bool" value="false"/>
   </properties>
  </object>
  <object id="490" class="prop" gid="213" x="960" y="803" width="24" height="23" rotation="349.586">
   <properties>
    <property name="foreground" type="bool" value="true"/>
    <property name="noDestroy" type="bool" value="true"/>
    <property name="rotationMult" type="float" value="1"/>
    <property name="squib" type="int" value="-1"/>
    <property name="squibSE" value=""/>
    <property name="static" type="bool" value="false"/>
   </properties>
  </object>
  <object id="491" class="prop" gid="212" x="969" y="804" width="32" height="20" rotation="349.586">
   <properties>
    <property name="foreground" type="bool" value="true"/>
    <property name="noDestroy" type="bool" value="true"/>
    <property name="rotationMult" type="float" value="1"/>
    <property name="squib" type="int" value="-1"/>
    <property name="squibSE" value=""/>
    <property name="static" type="bool" value="false"/>
   </properties>
  </object>
  <object id="494" class="prop" gid="264" x="905" y="688" width="27" height="15" rotation="357.05">
   <properties>
    <property name="foreground" type="bool" value="true"/>
    <property name="noDestroy" type="bool" value="true"/>
    <property name="rotationMult" type="float" value="1"/>
    <property name="squib" type="int" value="-1"/>
    <property name="squibSE" value=""/>
    <property name="static" type="bool" value="false"/>
   </properties>
  </object>
  <object id="495" class="prop" gid="265" x="894" y="687" width="11" height="13" rotation="358.432">
   <properties>
    <property name="foreground" type="bool" value="true"/>
    <property name="noDestroy" type="bool" value="true"/>
    <property name="rotationMult" type="float" value="1"/>
    <property name="squib" type="int" value="-1"/>
    <property name="squibSE" value=""/>
    <property name="static" type="bool" value="false"/>
   </properties>
  </object>
  <object id="496" class="prop" gid="484" x="882" y="691" width="13" height="27" rotation="346.097">
   <properties>
    <property name="foreground" type="bool" value="true"/>
    <property name="noDestroy" type="bool" value="true"/>
    <property name="rotationMult" type="float" value="1"/>
    <property name="squib" type="int" value="-1"/>
    <property name="squibSE" value=""/>
    <property name="static" type="bool" value="false"/>
   </properties>
  </object>
  <object id="497" class="prop" gid="375" x="886" y="739" width="47" height="39" rotation="303.539">
   <properties>
    <property name="foreground" type="bool" value="true"/>
    <property name="noDestroy" type="bool" value="true"/>
    <property name="rotationMult" type="float" value="1"/>
    <property name="squib" type="int" value="-1"/>
    <property name="squibSE" value=""/>
    <property name="static" type="bool" value="true"/>
   </properties>
  </object>
  <object id="498" class="prop" gid="623" x="814" y="529" width="44" height="37" rotation="213.605">
   <properties>
    <property name="foreground" type="bool" value="true"/>
    <property name="noDestroy" type="bool" value="true"/>
    <property name="rotationMult" type="float" value="1"/>
    <property name="squib" type="int" value="-1"/>
    <property name="squibSE" value=""/>
    <property name="static" type="bool" value="true"/>
   </properties>
  </object>
  <object id="499" class="prop" gid="375" x="839" y="509" width="47" height="39" rotation="163.649">
   <properties>
    <property name="foreground" type="bool" value="true"/>
    <property name="noDestroy" type="bool" value="true"/>
    <property name="rotationMult" type="float" value="1"/>
    <property name="squib" type="int" value="-1"/>
    <property name="squibSE" value=""/>
    <property name="static" type="bool" value="true"/>
   </properties>
  </object>
  <object id="500" class="prop" gid="377" x="870" y="635" width="40" height="43" rotation="259.599">
   <properties>
    <property name="foreground" type="bool" value="true"/>
    <property name="noDestroy" type="bool" value="true"/>
    <property name="rotationMult" type="float" value="1"/>
    <property name="squib" type="int" value="-1"/>
    <property name="squibSE" value=""/>
    <property name="static" type="bool" value="true"/>
   </properties>
  </object>
  <object id="501" class="prop" gid="378" x="909" y="606" width="40" height="39" rotation="194.09">
   <properties>
    <property name="foreground" type="bool" value="true"/>
    <property name="noDestroy" type="bool" value="true"/>
    <property name="rotationMult" type="float" value="1"/>
    <property name="squib" type="int" value="-1"/>
    <property name="squibSE" value=""/>
    <property name="static" type="bool" value="true"/>
   </properties>
  </object>
  <object id="502" class="prop" gid="376" x="917" y="585" width="34" height="46" rotation="141.513">
   <properties>
    <property name="foreground" type="bool" value="true"/>
    <property name="noDestroy" type="bool" value="true"/>
    <property name="rotationMult" type="float" value="1"/>
    <property name="squib" type="int" value="-1"/>
    <property name="squibSE" value=""/>
    <property name="static" type="bool" value="true"/>
   </properties>
  </object>
  <object id="503" class="prop" gid="627" x="908" y="613" width="25" height="22" rotation="149.868">
   <properties>
    <property name="foreground" type="bool" value="true"/>
    <property name="noDestroy" type="bool" value="true"/>
    <property name="rotationMult" type="float" value="1"/>
    <property name="squib" type="int" value="-1"/>
    <property name="squibSE" value=""/>
    <property name="static" type="bool" value="true"/>
   </properties>
  </object>
  <object id="504" class="prop" gid="379" x="849" y="550" width="25" height="23" rotation="242.083">
   <properties>
    <property name="foreground" type="bool" value="true"/>
    <property name="noDestroy" type="bool" value="true"/>
    <property name="rotationMult" type="float" value="1"/>
    <property name="squib" type="int" value="-1"/>
    <property name="squibSE" value=""/>
    <property name="static" type="bool" value="true"/>
   </properties>
  </object>
  <object id="505" class="prop" gid="631" x="837" y="594" width="25" height="22" rotation="305.845">
   <properties>
    <property name="foreground" type="bool" value="true"/>
    <property name="noDestroy" type="bool" value="true"/>
    <property name="rotationMult" type="float" value="1"/>
    <property name="squib" type="int" value="-1"/>
    <property name="squibSE" value=""/>
    <property name="static" type="bool" value="true"/>
   </properties>
  </object>
  <object id="507" class="prop" gid="586" x="824" y="621" width="22" height="18" rotation="321.227">
   <properties>
    <property name="foreground" type="bool" value="true"/>
    <property name="noDestroy" type="bool" value="true"/>
    <property name="rotationMult" type="float" value="1"/>
    <property name="squib" type="int" value="-1"/>
    <property name="squibSE" value=""/>
    <property name="static" type="bool" value="true"/>
   </properties>
  </object>
  <object id="508" class="prop" gid="266" x="818" y="613" width="12" height="13" rotation="320.472">
   <properties>
    <property name="foreground" type="bool" value="true"/>
    <property name="noDestroy" type="bool" value="true"/>
    <property name="rotationMult" type="float" value="1"/>
    <property name="squib" type="int" value="-1"/>
    <property name="squibSE" value=""/>
    <property name="static" type="bool" value="false"/>
   </properties>
  </object>
  <object id="509" class="prop" gid="265" x="821" y="604" width="11" height="13" rotation="349.07">
   <properties>
    <property name="foreground" type="bool" value="true"/>
    <property name="noDestroy" type="bool" value="true"/>
    <property name="rotationMult" type="float" value="1"/>
    <property name="squib" type="int" value="-1"/>
    <property name="squibSE" value=""/>
    <property name="static" type="bool" value="false"/>
   </properties>
  </object>
 </objectgroup>
 <objectgroup color="#8aadff" id="9" name="puzzles">
  <object id="248" name="tome" class="switch" x="800" y="768">
   <properties>
    <property name="draw" type="bool" value="true"/>
    <property name="once" type="bool" value="true"/>
    <property name="skin" type="int" value="1"/>
    <property name="startActive" type="bool" value="true"/>
   </properties>
   <point/>
  </object>
 </objectgroup>
 <objectgroup id="3" name="general" visible="0">
  <object id="144" class="transition" x="688" y="1440" width="64" height="32">
   <properties>
    <property name="endTarget" value="trans_startTop"/>
    <property name="start" type="bool" value="false"/>
    <property name="targetLevel" type="int" value="3"/>
   </properties>
  </object>
  <object id="145" name="trans_start" class="transition" x="720" y="1296" width="32" height="64">
   <properties>
    <property name="endTarget" value=""/>
    <property name="start" type="bool" value="true"/>
    <property name="targetLevel" type="int" value="0"/>
   </properties>
  </object>
  <object id="239" name="trig_fallPlain1" class="trigger" x="2192" y="832" width="624" height="160">
   <properties>
    <property name="corpses" type="bool" value="false"/>
    <property name="npcs" type="bool" value="false"/>
    <property name="once" type="bool" value="true"/>
    <property name="player" type="bool" value="true"/>
    <property name="startActive" type="bool" value="true"/>
   </properties>
  </object>
  <object id="240" name="trig_fallPlain1" class="trigger" x="-257" y="1441" width="769" height="95">
   <properties>
    <property name="corpses" type="bool" value="false"/>
    <property name="npcs" type="bool" value="false"/>
    <property name="once" type="bool" value="true"/>
    <property name="player" type="bool" value="true"/>
    <property name="startActive" type="bool" value="true"/>
   </properties>
  </object>
  <object id="241" class="ladder" x="960" y="400" width="16" height="400">
   <properties>
    <property name="draw" type="bool" value="true"/>
    <property name="skin" type="int" value="0"/>
    <property name="startActive" type="bool" value="true"/>
   </properties>
  </object>
  <object id="242" class="ladder" x="856" y="672" width="16" height="336">
   <properties>
    <property name="draw" type="bool" value="true"/>
    <property name="skin" type="int" value="0"/>
    <property name="startActive" type="bool" value="true"/>
   </properties>
  </object>
  <object id="243" class="ladder" x="936" y="1200" width="16" height="160">
   <properties>
    <property name="draw" type="bool" value="true"/>
    <property name="skin" type="int" value="0"/>
    <property name="startActive" type="bool" value="true"/>
   </properties>
  </object>
  <object id="250" name="trig_khaled" class="trigger" x="432" y="1008" width="352" height="96">
   <properties>
    <property name="corpses" type="bool" value="false"/>
    <property name="npcs" type="bool" value="false"/>
    <property name="once" type="bool" value="true"/>
    <property name="player" type="bool" value="true"/>
    <property name="startActive" type="bool" value="true"/>
   </properties>
  </object>
  <object id="259" name="trig_spy" class="trigger" x="1008" y="736" width="32" height="64">
   <properties>
    <property name="corpses" type="bool" value="false"/>
    <property name="npcs" type="bool" value="false"/>
    <property name="once" type="bool" value="true"/>
    <property name="player" type="bool" value="true"/>
    <property name="startActive" type="bool" value="true"/>
   </properties>
  </object>
  <object id="260" name="trig_encounter" class="trigger" x="1248" y="432" width="32" height="416">
   <properties>
    <property name="corpses" type="bool" value="false"/>
    <property name="npcs" type="bool" value="false"/>
    <property name="once" type="bool" value="true"/>
    <property name="player" type="bool" value="true"/>
    <property name="startActive" type="bool" value="true"/>
   </properties>
  </object>
  <object id="261" class="sceneBrain" x="1376" y="736">
   <properties>
    <property name="acts" value="8"/>
    <property name="scene" type="int" value="8"/>
   </properties>
  </object>
  <object id="263" name="trig_gorjan" class="trigger" x="944" y="384" width="240" height="48">
   <properties>
    <property name="corpses" type="bool" value="false"/>
    <property name="npcs" type="bool" value="false"/>
    <property name="once" type="bool" value="false"/>
    <property name="player" type="bool" value="true"/>
    <property name="startActive" type="bool" value="true"/>
   </properties>
  </object>
  <object id="264" name="trig_gorjan" class="trigger" x="544" y="816" width="64" height="400">
   <properties>
    <property name="corpses" type="bool" value="false"/>
    <property name="npcs" type="bool" value="false"/>
    <property name="once" type="bool" value="false"/>
    <property name="player" type="bool" value="true"/>
    <property name="startActive" type="bool" value="true"/>
   </properties>
  </object>
  <object id="265" name="trig_gorjan" class="trigger" x="1152" y="1104" width="32" height="144">
   <properties>
    <property name="corpses" type="bool" value="false"/>
    <property name="npcs" type="bool" value="false"/>
    <property name="once" type="bool" value="false"/>
    <property name="player" type="bool" value="true"/>
    <property name="startActive" type="bool" value="true"/>
   </properties>
  </object>
  <object id="266" name="trig_gorjan" class="trigger" x="1872" y="400" width="80" height="192">
   <properties>
    <property name="corpses" type="bool" value="false"/>
    <property name="npcs" type="bool" value="false"/>
    <property name="once" type="bool" value="false"/>
    <property name="player" type="bool" value="true"/>
    <property name="startActive" type="bool" value="true"/>
   </properties>
  </object>
  <object id="297" class="collider" x="166" y="782" width="277" height="40">
   <properties>
    <property name="tags" value=""/>
   </properties>
  </object>
  <object id="298" class="collider" x="176" y="822" width="257" height="714">
   <properties>
    <property name="tags" value=""/>
   </properties>
  </object>
 </objectgroup>
 <objectgroup color="#00ff00" id="4" name="nodegraph">
  <object id="118" class="node" x="1584" y="1264">
   <point/>
  </object>
  <object id="119" class="node" x="1280" y="1248">
   <point/>
  </object>
  <object id="120" class="node" x="1072" y="1200">
   <point/>
  </object>
  <object id="121" class="node" x="768" y="1200">
   <point/>
  </object>
  <object id="122" class="node" x="656" y="992">
   <point/>
  </object>
  <object id="123" class="node" x="784" y="992">
   <point/>
  </object>
  <object id="124" class="node" x="864" y="992">
   <point/>
  </object>
  <object id="125" class="node" x="848" y="768">
   <point/>
  </object>
  <object id="126" class="node" x="720" y="768">
   <point/>
  </object>
  <object id="127" class="node" x="880" y="672">
   <point/>
  </object>
  <object id="128" class="node" x="952" y="640">
   <point/>
  </object>
  <object id="129" class="node" x="1040" y="752">
   <point/>
  </object>
  <object id="130" class="node" x="992" y="400">
   <point/>
  </object>
  <object id="131" class="node" x="864" y="400">
   <point/>
  </object>
  <object id="132" class="node" x="1264" y="336">
   <point/>
  </object>
  <object id="133" class="node" x="1360" y="304">
   <point/>
  </object>
  <object id="136" class="node" x="1584" y="320">
   <point/>
  </object>
  <object id="137" class="node" x="1952" y="304">
   <point/>
  </object>
  <object id="138" class="node" x="2032" y="384">
   <point/>
  </object>
  <object id="139" class="node" x="1216" y="832">
   <point/>
  </object>
  <object id="140" class="node" x="1664" y="832">
   <point/>
  </object>
  <object id="142" class="node" x="768" y="592">
   <point/>
  </object>
  <object id="262" class="node" x="976" y="784">
   <point/>
  </object>
 </objectgroup>
 <objectgroup color="#ffffff" id="12" name="regions"/>
</map>
