<?xml version="1.0" encoding="UTF-8"?>
<map version="1.9" tiledversion="1.9.1" orientation="orthogonal" renderorder="right-down" width="64" height="32" tilewidth="16" tileheight="16" infinite="1" nextlayerid="13" nextobjectid="166">
 <tileset firstgid="1" source="../til/devSet.tsx"/>
 <layer id="5" name="background" width="64" height="32" tintcolor="#433b35">
  <data encoding="csv">
   <chunk x="0" y="0" width="16" height="16">
0,0,0,0,0,0,0,0,0,0,0,0,0,0,0,0,
0,0,0,0,0,0,0,0,0,0,0,0,0,0,0,0,
0,0,0,0,0,0,0,0,0,71,71,71,71,0,0,0,
0,0,0,0,0,0,0,0,0,71,71,71,71,0,0,0,
0,0,0,0,0,0,0,0,0,71,71,71,71,0,0,0,
0,0,0,0,0,0,0,0,0,71,71,71,71,0,0,0,
0,0,0,0,0,0,0,0,0,71,71,71,71,0,0,0,
0,0,0,0,0,0,0,0,0,71,71,71,71,0,0,0,
0,0,0,0,0,0,0,0,0,71,71,71,71,0,0,0,
0,0,0,0,0,0,0,0,0,71,71,71,71,0,0,0,
0,0,0,0,0,0,0,0,0,71,71,71,71,0,0,0,
0,0,0,0,0,0,0,0,0,71,71,71,71,0,0,0,
0,0,0,0,0,0,0,0,0,71,71,71,71,0,0,0,
0,0,0,0,0,0,0,0,0,71,71,71,71,0,0,0,
0,0,0,0,0,0,0,0,0,71,71,71,71,0,0,0,
0,0,0,0,0,0,0,0,0,71,71,71,71,0,0,0
</chunk>
   <chunk x="32" y="0" width="16" height="16">
0,0,0,0,0,0,0,0,0,0,0,0,0,0,0,0,
0,0,0,0,0,0,0,0,0,0,0,0,0,0,0,0,
0,0,0,0,0,0,0,0,0,0,0,0,0,0,0,0,
0,0,0,0,0,0,0,0,0,0,0,0,0,0,0,0,
0,0,0,0,0,0,0,0,0,0,0,0,0,0,0,0,
0,0,0,0,0,0,0,0,0,0,0,0,0,0,0,0,
0,0,0,0,0,0,0,0,0,0,0,0,0,0,0,0,
0,0,0,0,0,0,0,0,0,0,0,0,0,0,0,0,
0,0,0,0,0,0,0,0,0,0,0,0,0,0,0,0,
0,0,0,0,0,0,0,0,0,0,0,0,0,0,0,0,
0,0,0,0,0,0,0,0,0,0,0,0,0,0,0,0,
0,0,0,0,0,0,0,0,0,0,0,0,0,0,0,0,
0,0,0,0,0,0,0,0,0,0,0,0,0,0,0,0,
0,0,0,0,0,0,0,0,0,0,0,0,0,0,0,0,
0,0,0,0,0,0,0,0,0,0,0,0,0,0,0,0,
0,0,0,0,0,0,0,0,71,71,71,71,71,71,71,71
</chunk>
   <chunk x="48" y="0" width="16" height="16">
0,0,0,0,0,0,0,0,0,0,0,0,0,0,0,0,
0,0,0,0,0,0,0,0,0,0,0,0,0,0,0,0,
0,0,0,0,0,0,0,0,0,0,0,0,0,0,71,71,
0,0,0,0,0,0,0,0,0,0,0,0,0,0,71,71,
0,0,0,0,0,0,0,0,0,0,0,0,0,0,71,71,
0,0,0,0,0,0,0,0,0,0,0,0,0,0,71,71,
0,0,0,0,0,0,0,0,0,0,0,0,0,0,71,71,
0,0,0,0,0,0,0,0,0,0,0,0,0,0,71,71,
0,0,0,0,0,0,0,0,0,0,0,0,0,0,71,71,
0,0,0,0,0,0,0,0,0,0,0,0,0,0,0,71,
0,0,0,0,0,0,0,0,0,0,0,0,0,0,0,71,
0,0,0,0,0,0,0,0,0,0,0,0,0,0,0,71,
0,0,0,0,0,0,0,0,0,0,0,0,0,0,0,71,
0,0,0,0,0,0,0,0,0,0,0,0,0,0,0,71,
0,0,0,0,0,0,0,0,0,0,0,0,0,0,0,71,
71,71,71,71,71,71,71,71,71,0,0,0,0,0,0,71
</chunk>
   <chunk x="64" y="0" width="16" height="16">
0,0,0,0,0,0,0,0,0,0,0,0,0,0,0,0,
0,0,0,0,0,0,0,0,0,0,0,0,0,0,0,0,
71,71,0,0,0,0,0,0,0,0,0,0,0,0,0,0,
71,71,0,0,0,0,0,0,0,0,0,0,0,0,0,0,
71,71,0,0,0,0,0,0,0,0,0,0,0,0,0,0,
71,71,0,0,0,0,0,0,0,0,0,0,0,0,0,0,
71,71,0,0,0,0,0,0,0,0,0,0,0,0,0,0,
71,71,0,0,0,0,0,0,0,0,0,0,0,0,0,0,
71,71,0,0,0,0,0,0,0,0,0,0,0,0,0,0,
71,0,0,0,0,0,0,0,0,0,0,0,0,0,0,0,
71,0,0,0,0,0,0,0,0,0,0,0,0,0,0,0,
71,0,0,0,0,0,0,0,0,0,0,0,0,0,0,0,
71,0,0,0,0,0,0,0,0,0,0,0,0,0,0,0,
71,0,0,0,0,0,0,0,0,0,0,0,0,0,0,0,
71,0,0,0,0,0,0,0,0,0,0,0,0,0,0,0,
71,0,0,0,0,0,0,0,0,0,0,0,0,0,0,0
</chunk>
   <chunk x="96" y="0" width="16" height="16">
0,0,0,0,0,0,0,0,0,0,0,0,0,0,0,0,
0,0,0,0,0,0,0,0,0,0,0,0,0,0,0,0,
0,0,0,0,0,0,0,0,0,0,0,0,0,0,0,0,
0,0,0,0,0,0,0,0,0,0,0,0,0,0,0,0,
0,0,0,0,0,0,0,0,0,0,0,0,0,0,0,0,
0,0,0,0,0,0,0,0,0,0,0,0,0,0,0,0,
0,0,0,0,0,0,0,0,0,0,0,0,0,0,0,0,
0,0,0,0,0,0,0,0,0,0,0,0,0,0,0,0,
0,0,0,0,0,0,0,0,0,0,0,0,0,0,0,0,
0,0,0,0,0,0,0,0,0,0,0,0,0,0,0,0,
0,0,0,0,0,0,0,0,0,0,0,0,0,0,0,0,
0,0,0,0,0,0,0,0,0,0,0,0,0,0,0,0,
0,0,0,0,0,0,0,0,0,0,0,0,0,0,0,0,
0,0,0,0,0,0,0,0,71,71,71,71,71,71,71,71,
0,0,0,0,0,0,0,0,71,71,71,71,71,71,71,71,
0,0,0,0,0,0,71,71,71,71,71,71,71,71,71,71
</chunk>
   <chunk x="112" y="0" width="16" height="16">
0,0,0,0,0,0,0,0,0,0,0,0,0,0,0,0,
0,0,0,0,0,0,0,0,0,0,0,0,0,0,0,0,
71,71,71,71,0,0,0,0,0,0,0,0,0,0,0,0,
71,71,71,71,0,0,0,0,0,0,0,0,0,0,0,0,
71,71,71,71,0,0,0,0,0,0,0,0,0,0,0,0,
71,71,71,71,0,0,0,0,0,0,0,0,0,0,0,0,
71,71,71,71,0,0,0,0,0,0,0,0,0,0,0,0,
71,71,71,71,0,0,0,0,0,0,0,0,0,0,0,0,
71,71,71,71,0,0,0,0,0,0,0,0,0,0,0,0,
71,71,71,71,0,0,0,0,0,0,0,0,0,0,0,0,
71,71,71,71,0,0,0,0,0,0,0,0,0,0,0,0,
71,71,71,71,0,0,0,0,0,0,0,0,0,0,0,0,
71,71,71,71,0,0,0,0,0,0,0,0,0,0,0,0,
71,71,71,71,0,0,0,0,0,0,0,0,0,0,0,0,
71,71,71,71,0,0,0,0,0,0,0,0,0,0,0,0,
71,71,71,71,0,0,0,0,0,0,0,0,0,0,0,0
</chunk>
   <chunk x="0" y="16" width="16" height="16">
0,0,0,0,0,0,0,0,0,71,71,71,71,0,0,0,
0,0,0,0,0,0,0,0,0,71,71,71,71,0,0,0,
0,0,0,0,0,0,0,0,0,71,71,71,71,0,0,0,
0,0,0,0,0,0,0,0,0,71,71,71,71,0,0,0,
0,0,0,0,0,0,0,0,0,71,71,71,71,0,0,0,
0,0,0,0,0,0,0,0,0,71,71,71,71,0,0,0,
0,0,0,0,0,0,0,0,0,71,71,71,71,0,0,0,
0,0,0,0,0,0,0,0,0,71,71,71,71,0,0,0,
0,0,0,0,0,0,0,0,0,71,71,71,71,0,0,0,
0,0,0,0,0,0,0,0,0,71,71,71,71,71,71,71,
0,0,0,0,0,0,0,71,71,71,71,71,71,71,71,71,
0,0,0,0,0,0,0,71,71,71,71,71,71,71,71,71,
0,0,0,0,0,0,0,71,71,71,71,71,71,71,71,71,
0,0,0,0,0,0,0,71,71,71,71,71,71,71,71,71,
0,0,0,0,0,0,0,71,71,71,71,71,71,71,71,71,
0,0,0,0,0,0,0,0,0,71,71,71,71,71,71,71
</chunk>
   <chunk x="16" y="16" width="16" height="16">
0,0,0,0,0,0,0,0,0,0,0,0,0,0,0,0,
0,0,0,0,0,0,0,0,0,0,0,0,0,0,0,0,
0,0,0,0,0,0,0,0,0,0,0,0,0,0,0,71,
0,0,0,0,0,0,0,0,0,0,0,0,0,0,0,71,
0,0,0,0,0,0,0,0,0,0,0,0,0,0,71,71,
0,0,0,0,0,0,0,0,0,0,0,0,0,0,71,71,
0,0,0,0,0,0,0,0,0,0,0,0,71,71,71,71,
0,0,0,0,0,0,0,71,71,71,71,71,71,71,71,71,
0,0,0,0,0,0,0,71,71,71,71,71,71,71,71,71,
71,0,0,0,0,0,71,71,71,71,71,71,71,71,71,71,
71,71,71,71,71,71,71,71,71,71,71,71,71,71,71,71,
71,71,71,71,71,71,71,71,71,71,71,71,71,71,71,71,
71,71,71,71,71,71,71,71,71,71,71,71,71,71,71,71,
71,71,71,71,71,71,71,71,71,71,71,71,71,71,71,71,
71,71,71,71,71,71,71,71,71,71,71,71,71,71,71,71,
71,71,71,71,71,71,71,71,71,71,71,71,71,71,71,71
</chunk>
   <chunk x="32" y="16" width="16" height="16">
0,0,0,0,0,71,71,71,71,71,71,71,71,71,71,71,
0,0,0,0,0,71,71,71,71,71,71,71,71,71,71,71,
71,71,71,71,71,71,71,71,71,71,71,71,71,71,71,71,
71,71,71,71,71,71,71,71,71,71,71,71,71,71,71,71,
71,71,71,71,71,71,71,71,71,71,71,71,71,71,71,71,
71,71,71,71,71,71,71,71,71,71,71,71,71,71,71,71,
71,71,71,71,71,71,71,71,71,71,71,71,71,71,71,71,
71,71,71,71,71,71,71,71,71,71,71,71,71,71,71,71,
71,71,71,71,71,71,71,71,71,71,71,71,71,71,71,71,
71,71,71,71,71,71,71,71,71,71,71,71,71,71,71,71,
71,71,71,71,71,71,71,71,71,71,71,71,71,71,71,71,
71,71,71,71,71,71,71,71,71,71,71,71,71,71,71,71,
71,71,71,71,71,71,71,71,71,71,71,71,71,71,71,71,
71,71,71,71,71,71,71,71,71,71,71,71,71,71,71,71,
71,71,71,71,71,71,71,71,71,71,71,71,71,71,71,71,
71,71,71,71,71,71,71,71,71,71,71,71,71,71,71,71
</chunk>
   <chunk x="48" y="16" width="16" height="16">
71,71,71,71,71,71,71,71,71,71,71,71,71,71,71,71,
71,71,71,71,71,71,71,71,71,71,71,71,71,71,71,71,
71,71,71,71,71,71,71,71,71,71,71,71,71,71,71,71,
71,71,71,71,71,71,71,71,71,71,71,71,71,71,71,71,
71,71,71,71,71,71,71,71,71,71,71,71,71,71,71,71,
71,71,71,71,71,71,71,71,71,71,71,71,71,71,71,71,
71,71,71,71,71,71,71,71,71,71,71,71,71,71,71,71,
71,71,71,71,71,71,71,71,71,71,71,71,71,71,71,71,
71,71,71,71,71,71,71,71,71,71,71,71,71,71,71,71,
71,71,71,71,71,71,71,71,71,71,71,71,71,71,71,71,
71,71,71,71,71,71,71,71,71,71,71,71,71,71,71,71,
71,71,71,71,71,71,71,71,71,71,71,71,71,71,71,71,
71,71,71,71,71,71,71,71,71,71,71,71,71,71,71,71,
71,71,71,71,71,71,71,71,71,71,71,71,71,71,71,71,
71,71,71,71,71,71,71,71,71,71,71,71,71,71,71,71,
71,71,71,71,71,71,71,71,71,71,71,71,71,71,71,71
</chunk>
   <chunk x="64" y="16" width="16" height="16">
71,71,71,71,71,71,71,71,71,0,0,0,0,0,0,0,
71,71,71,71,71,71,71,71,71,0,0,0,0,0,0,0,
71,71,71,71,71,71,71,71,71,0,0,0,0,0,0,0,
71,71,71,71,71,71,71,71,71,71,71,71,0,0,0,0,
71,71,71,71,71,71,71,71,71,71,71,71,0,0,0,0,
71,71,71,71,71,71,71,71,71,71,71,71,0,0,0,0,
71,71,71,71,71,71,71,71,71,71,71,71,71,71,71,0,
71,71,71,71,71,71,71,71,71,71,71,71,71,71,71,0,
71,71,71,71,71,71,71,71,71,71,71,71,71,71,71,0,
71,71,71,71,71,71,71,71,71,71,71,71,71,71,71,0,
71,71,71,71,71,71,71,71,71,71,71,71,71,71,71,0,
71,71,71,71,71,71,71,71,71,71,71,71,71,71,71,0,
71,71,71,71,71,71,71,71,71,71,71,71,71,71,71,0,
71,71,71,71,71,71,71,71,71,71,71,71,71,71,71,0,
71,71,71,71,71,71,71,71,71,71,71,71,71,71,71,0,
71,71,71,71,71,71,71,71,71,71,71,71,71,71,71,0
</chunk>
   <chunk x="80" y="16" width="16" height="16">
0,0,0,0,0,0,0,0,0,0,0,0,0,0,0,0,
0,0,0,0,0,0,0,0,0,0,71,71,71,71,71,71,
0,0,0,0,0,0,0,0,0,0,71,71,71,71,71,71,
0,0,0,0,0,0,0,0,0,0,71,71,71,71,71,71,
0,0,0,0,0,0,0,0,0,0,71,71,71,71,71,71,
0,0,0,0,0,0,0,0,0,0,71,71,71,71,71,71,
0,0,0,0,0,0,0,0,0,71,71,71,71,71,71,71,
0,0,0,0,0,0,0,0,0,71,71,71,71,71,71,71,
0,0,0,0,0,0,71,71,71,71,71,71,71,71,71,71,
0,0,0,0,0,0,71,71,71,71,71,71,71,71,71,71,
0,0,0,0,0,0,71,71,71,71,71,71,71,71,71,71,
0,0,0,0,0,0,71,71,71,71,71,71,71,71,71,71,
0,0,0,0,0,0,71,71,71,71,71,71,71,71,71,71,
0,0,0,0,0,0,71,71,71,71,71,71,71,71,71,71,
0,0,0,0,0,0,71,71,71,71,71,71,71,71,71,71,
0,0,0,0,0,0,71,71,71,71,71,71,71,71,71,71
</chunk>
   <chunk x="96" y="16" width="16" height="16">
0,0,0,0,0,0,71,71,71,71,71,71,71,71,71,71,
0,0,0,0,0,0,71,71,71,71,71,71,71,71,71,71,
71,71,71,71,71,71,71,71,71,71,71,71,71,71,71,71,
71,71,71,71,71,71,71,71,71,71,71,71,71,71,71,71,
71,71,71,71,71,71,71,71,71,71,71,71,71,71,71,71,
71,71,71,71,71,71,71,71,71,71,71,71,71,71,71,71,
71,71,71,71,71,71,71,71,71,71,71,71,71,71,71,71,
71,71,71,71,71,71,71,71,71,71,71,71,71,71,71,71,
71,71,71,71,71,71,71,71,71,71,71,71,71,71,0,0,
71,71,71,71,71,71,71,71,71,71,71,71,71,71,0,0,
71,71,71,71,71,71,71,71,71,71,71,71,71,71,0,0,
71,71,71,71,71,71,71,71,71,71,71,0,0,0,0,0,
71,71,71,71,71,71,71,71,0,0,0,0,0,0,0,0,
71,71,71,71,71,71,71,71,0,0,0,0,0,0,0,0,
71,71,71,71,71,0,0,0,0,0,0,0,0,0,0,0,
71,71,71,71,71,0,0,0,0,0,0,0,71,71,71,71
</chunk>
   <chunk x="112" y="16" width="16" height="16">
71,71,71,71,0,0,0,0,0,0,0,0,0,0,0,0,
71,71,71,71,0,0,0,0,0,0,0,0,0,0,0,0,
71,71,71,71,0,0,0,0,0,0,0,0,0,0,0,0,
71,71,0,0,0,0,0,0,0,0,0,0,0,0,0,0,
71,71,0,0,0,0,0,0,0,0,0,0,0,0,0,0,
71,71,0,0,0,0,0,0,0,0,0,0,0,0,0,0,
0,0,0,0,0,0,0,0,0,0,0,0,0,0,0,0,
0,0,0,0,0,0,0,0,0,0,0,0,0,0,0,0,
0,0,0,0,0,0,0,0,0,0,0,0,0,0,0,0,
0,0,0,0,0,0,0,0,0,0,0,0,0,0,0,0,
0,0,0,0,0,0,0,0,0,0,0,0,0,0,0,0,
0,0,0,0,0,0,0,0,0,0,0,0,0,0,0,0,
0,0,0,0,0,0,0,0,0,0,0,0,0,0,0,0,
0,0,0,0,0,0,0,0,0,0,0,0,0,0,0,0,
0,0,0,0,0,0,0,0,0,0,0,0,0,0,0,0,
71,0,0,0,0,0,0,0,0,0,0,0,0,0,0,0
</chunk>
   <chunk x="0" y="32" width="16" height="16">
0,0,0,0,0,0,0,0,0,0,0,0,71,71,71,71,
0,0,0,0,0,0,0,0,0,0,0,0,0,0,0,0,
0,0,0,0,0,0,0,0,0,0,0,0,0,0,0,0,
0,0,0,0,0,0,0,0,0,0,0,0,0,0,0,0,
0,0,0,0,0,0,0,0,0,0,0,0,0,0,0,0,
0,0,0,0,0,0,0,0,0,0,0,0,0,0,0,0,
0,0,0,0,0,0,0,0,0,0,0,0,0,0,0,0,
0,0,0,0,0,0,0,0,0,0,0,0,0,0,0,0,
0,0,0,0,0,0,0,0,0,0,0,0,0,0,0,0,
0,0,0,0,0,0,0,0,0,0,0,0,0,0,0,0,
0,0,0,0,0,0,0,0,0,0,0,0,0,0,0,0,
0,0,0,0,0,0,0,0,0,0,0,0,0,0,0,0,
0,0,0,0,0,0,0,0,0,0,0,0,0,0,0,0,
0,0,0,0,0,0,0,0,0,0,0,0,0,0,0,0,
0,0,0,0,0,0,0,0,0,0,0,0,0,0,0,0,
0,0,0,0,0,0,0,0,0,0,0,0,0,0,0,0
</chunk>
   <chunk x="16" y="32" width="16" height="16">
71,71,71,71,71,71,71,71,71,71,71,71,71,71,71,71,
0,0,71,71,71,71,71,71,71,71,71,71,71,71,71,71,
0,0,71,71,71,71,71,71,71,71,71,71,71,71,71,71,
0,0,0,0,0,0,0,71,71,71,71,71,71,71,71,71,
0,0,0,0,0,0,0,71,71,71,71,71,71,71,71,71,
0,0,0,0,0,0,0,71,71,71,71,71,71,71,71,71,
0,0,0,0,0,0,0,71,71,71,71,71,71,71,71,71,
0,0,0,0,0,0,0,0,0,0,0,71,71,71,71,71,
0,0,0,0,0,0,0,0,0,0,0,0,0,0,0,0,
0,0,0,0,0,0,0,0,0,0,0,0,0,0,0,0,
0,0,0,0,0,0,0,0,0,0,0,0,0,0,0,0,
0,0,0,0,0,0,0,0,0,0,0,0,0,0,0,0,
0,0,0,0,0,0,0,0,0,0,0,0,0,0,0,0,
0,0,0,0,0,0,0,0,0,0,0,0,0,0,0,0,
0,0,0,0,0,0,0,0,0,0,0,0,0,0,0,0,
0,0,0,0,0,0,0,0,0,0,0,0,0,0,0,0
</chunk>
   <chunk x="32" y="32" width="16" height="16">
71,71,71,71,71,71,71,71,71,71,71,71,71,71,71,71,
71,71,71,71,71,71,71,71,71,71,71,71,71,71,71,71,
71,71,71,71,71,71,71,71,71,71,71,71,71,71,71,71,
71,71,71,71,71,71,71,71,71,71,71,71,71,71,71,71,
71,71,71,71,71,71,71,71,71,71,71,71,71,71,71,71,
71,71,71,71,71,71,71,71,71,71,71,71,71,71,71,71,
71,71,71,71,71,71,71,71,71,71,71,71,71,71,71,71,
71,71,71,71,71,71,71,71,71,71,71,71,71,71,71,71,
71,71,71,71,71,71,71,71,71,71,71,71,71,71,71,71,
0,0,0,0,0,0,0,0,0,0,0,0,0,0,0,0,
0,0,0,0,0,0,0,0,0,0,0,0,0,0,0,0,
0,0,0,0,0,0,0,0,0,0,0,0,0,0,0,0,
0,0,0,0,0,0,0,0,0,0,0,0,0,0,0,0,
0,0,0,0,0,0,0,0,0,0,0,0,0,0,0,0,
0,0,0,0,0,0,0,0,0,0,0,0,0,0,0,0,
0,0,0,0,0,0,0,0,0,0,0,0,0,0,0,0
</chunk>
   <chunk x="48" y="32" width="16" height="16">
71,71,71,71,71,71,71,71,71,71,71,71,71,71,71,71,
71,71,71,71,71,71,71,71,71,71,71,71,71,71,71,71,
71,71,71,71,71,71,71,71,71,71,71,71,71,71,71,71,
71,71,71,71,71,71,71,71,71,71,71,71,71,71,71,71,
71,71,71,71,71,71,71,71,71,71,71,71,71,71,71,71,
71,71,71,71,71,71,71,71,71,71,71,71,71,71,71,71,
71,71,71,71,71,71,71,71,71,71,71,71,71,71,71,71,
71,71,71,71,71,71,71,71,71,71,71,71,71,71,71,71,
71,71,71,71,71,71,71,71,71,71,71,71,71,71,71,71,
0,0,0,0,0,0,0,0,0,0,0,0,0,0,0,0,
0,0,0,0,0,0,0,0,0,0,0,0,0,0,0,0,
0,0,0,0,0,0,0,0,0,0,0,0,0,0,0,0,
0,0,0,0,0,0,0,0,0,0,0,0,0,0,0,0,
0,0,0,0,0,0,0,0,0,0,0,0,0,0,0,0,
0,0,0,0,0,0,0,0,0,0,0,0,0,0,0,0,
0,0,0,0,0,0,0,0,0,0,0,0,0,0,0,0
</chunk>
   <chunk x="64" y="32" width="16" height="16">
71,71,71,71,71,71,71,71,71,71,71,71,71,71,71,0,
71,71,71,71,71,71,71,71,71,71,71,71,71,71,0,0,
71,71,71,71,71,71,71,71,71,71,71,71,71,71,0,0,
71,71,71,71,71,71,71,71,71,71,71,71,71,71,0,0,
71,71,71,71,71,71,71,71,71,71,71,71,71,71,0,0,
71,71,71,71,71,71,71,71,71,71,71,71,71,71,0,0,
71,71,71,71,71,71,71,71,71,71,71,71,71,71,0,0,
71,71,71,71,71,71,71,71,71,71,71,71,71,71,0,0,
71,71,0,0,0,0,0,0,0,0,0,0,0,0,0,0,
0,0,0,0,0,0,0,0,0,0,0,0,0,0,0,0,
0,0,0,0,0,0,0,0,0,0,0,0,0,0,0,0,
0,0,0,0,0,0,0,0,0,0,0,0,0,0,0,0,
0,0,0,0,0,0,0,0,0,0,0,0,0,0,0,0,
0,0,0,0,0,0,0,0,0,0,0,0,0,0,0,0,
0,0,0,0,0,0,0,0,0,0,0,0,0,0,0,0,
0,0,0,0,0,0,0,0,0,0,0,0,0,0,0,0
</chunk>
   <chunk x="80" y="32" width="16" height="16">
0,0,0,0,0,0,71,71,71,71,71,71,71,71,71,71,
0,0,0,0,0,0,71,71,71,71,71,71,71,71,71,71,
0,0,0,0,0,0,71,71,71,71,71,71,71,71,71,71,
0,0,0,0,0,71,71,71,71,71,71,71,71,71,71,71,
0,0,0,0,0,71,71,71,71,71,71,71,71,71,71,71,
0,0,0,0,71,71,71,71,71,71,71,71,71,71,71,71,
0,0,0,0,71,71,71,71,71,71,71,71,71,71,71,71,
0,0,0,0,71,71,71,71,71,71,71,71,71,71,71,71,
0,0,0,0,71,71,71,71,71,71,71,71,71,71,71,71,
0,0,0,0,71,71,71,71,71,71,71,71,71,71,71,71,
0,0,0,0,71,71,71,71,71,71,71,71,71,71,71,71,
0,0,0,0,71,71,71,71,71,71,71,71,71,71,71,71,
0,0,0,0,71,71,71,71,71,71,71,71,71,71,71,71,
0,0,0,0,71,71,71,71,71,71,71,71,71,71,71,71,
0,0,0,0,71,71,71,71,71,71,71,71,71,71,71,71,
0,0,0,0,0,0,0,71,71,71,71,71,71,71,71,71
</chunk>
   <chunk x="96" y="32" width="16" height="16">
71,71,71,71,71,71,71,71,71,0,0,0,71,71,71,71,
71,71,71,71,71,71,71,71,71,71,71,71,71,71,71,71,
71,71,71,71,71,71,71,71,71,71,71,71,71,71,71,71,
71,71,71,71,71,71,71,71,71,71,71,71,71,71,71,71,
71,71,71,71,71,71,71,71,71,71,71,71,71,71,71,71,
71,71,71,71,71,71,71,71,71,71,71,71,71,71,71,71,
71,71,71,71,71,71,71,71,71,71,71,71,71,71,71,71,
71,71,71,71,71,71,71,71,71,71,71,71,0,0,0,0,
71,71,71,71,71,71,71,71,71,71,71,71,0,0,0,0,
71,71,71,71,71,71,71,71,71,71,71,71,0,0,0,0,
71,71,71,71,71,71,71,71,71,71,0,0,0,0,0,0,
71,71,71,71,71,71,71,71,71,71,71,71,71,71,71,0,
71,71,71,71,71,71,71,71,71,71,71,71,71,71,71,71,
71,71,71,71,71,71,71,71,71,71,71,71,71,71,71,71,
71,71,71,71,71,71,71,71,71,71,71,71,71,71,71,71,
71,71,71,71,71,71,71,71,71,71,71,71,71,71,71,71
</chunk>
   <chunk x="112" y="32" width="16" height="16">
71,71,71,0,0,0,0,0,0,0,0,0,0,0,0,0,
71,71,71,0,0,0,0,0,0,0,0,0,0,0,0,0,
71,71,71,0,0,0,0,0,0,0,0,0,0,0,0,0,
71,71,71,0,0,0,0,0,0,0,0,0,0,0,0,0,
71,71,71,0,0,0,0,0,0,0,0,0,0,0,0,0,
71,71,71,0,0,0,0,0,0,0,0,0,0,0,0,0,
71,71,71,0,0,0,0,0,0,0,0,0,0,0,0,0,
0,0,0,0,0,0,0,0,0,0,0,0,0,0,0,0,
0,0,0,0,0,0,0,0,0,0,0,0,0,0,0,0,
0,0,0,0,0,0,0,0,0,0,0,0,0,0,0,0,
0,0,0,0,0,0,0,0,0,0,0,0,0,0,0,0,
0,0,0,0,0,0,0,0,0,0,0,0,0,0,0,0,
0,0,0,0,0,0,0,0,0,0,0,0,0,0,0,0,
0,0,0,0,0,0,0,0,0,0,0,0,0,0,0,0,
0,0,0,0,0,0,0,0,0,0,0,0,0,0,0,0,
71,71,0,0,0,0,0,0,0,0,0,0,0,0,0,0
</chunk>
   <chunk x="80" y="48" width="16" height="16">
0,0,0,0,0,0,0,0,0,0,0,0,0,71,71,71,
0,0,0,0,0,0,0,0,0,0,0,0,0,0,0,0,
0,0,0,0,0,0,0,0,0,0,0,0,0,0,0,0,
0,0,0,0,0,0,0,0,0,0,0,0,0,0,0,0,
0,0,0,0,0,0,0,0,0,0,0,0,0,0,0,0,
0,0,0,0,0,0,0,0,0,0,0,0,0,0,0,0,
0,0,0,0,0,0,0,0,0,0,0,0,0,0,0,0,
0,0,0,0,0,0,0,0,0,0,0,0,0,0,0,0,
0,0,0,0,0,0,0,0,0,0,0,0,0,0,0,0,
0,0,0,0,0,0,0,0,0,0,0,0,0,0,0,0,
0,0,0,0,0,0,0,0,0,0,0,0,0,0,0,0,
0,0,0,0,0,0,0,0,0,0,0,0,0,0,0,0,
0,0,0,0,0,0,0,0,0,0,0,0,0,0,0,0,
0,0,0,0,0,0,0,0,0,0,0,0,0,0,0,0,
0,0,0,0,0,0,0,0,0,0,0,0,0,0,0,0,
0,0,0,0,0,0,0,0,0,0,0,0,0,0,0,0
</chunk>
   <chunk x="96" y="48" width="16" height="16">
71,71,71,71,71,71,71,71,71,71,71,71,71,71,71,71,
0,0,0,0,0,0,71,71,71,71,71,71,71,71,71,71,
0,0,0,0,0,0,71,71,71,71,71,71,71,71,71,71,
0,0,0,0,0,0,0,0,0,0,0,0,0,71,71,71,
0,0,0,0,0,0,0,0,0,0,0,0,0,71,71,71,
0,0,0,0,0,0,0,0,0,0,0,0,0,71,71,71,
0,0,0,0,0,0,0,0,0,0,0,0,0,71,71,71,
0,0,0,0,0,0,0,0,0,0,0,0,0,71,71,71,
0,0,0,0,0,0,0,0,0,0,0,0,0,71,71,71,
0,0,0,0,0,0,0,0,0,0,0,0,0,71,71,71,
0,0,0,0,0,0,0,0,0,0,0,0,0,71,71,71,
0,0,0,0,0,0,0,0,0,0,0,0,0,71,71,71,
0,0,0,0,0,0,0,0,0,0,0,0,0,71,71,71,
0,0,0,0,0,0,0,0,0,0,0,0,0,71,71,71,
0,0,0,0,0,0,0,0,0,0,0,0,0,71,71,71,
0,0,0,0,0,0,0,0,0,0,0,0,0,0,0,0
</chunk>
   <chunk x="112" y="48" width="16" height="16">
71,71,0,0,0,0,0,0,0,0,0,0,0,0,0,0,
71,71,0,0,0,0,0,0,0,0,0,0,0,0,0,0,
71,71,0,0,0,0,0,0,0,0,0,0,0,0,0,0,
71,71,0,0,0,0,0,0,0,0,0,0,0,0,0,0,
71,71,0,0,0,0,0,0,0,0,0,0,0,0,0,0,
71,71,0,0,0,0,0,0,0,0,0,0,0,0,0,0,
71,71,0,0,0,0,0,0,0,0,0,0,0,0,0,0,
71,71,0,0,0,0,0,0,0,0,0,0,0,0,0,0,
71,71,0,0,0,0,0,0,0,0,0,0,0,0,0,0,
71,71,0,0,0,0,0,0,0,0,0,0,0,0,0,0,
71,71,0,0,0,0,0,0,0,0,0,0,0,0,0,0,
71,71,0,0,0,0,0,0,0,0,0,0,0,0,0,0,
71,71,0,0,0,0,0,0,0,0,0,0,0,0,0,0,
71,71,0,0,0,0,0,0,0,0,0,0,0,0,0,0,
71,71,0,0,0,0,0,0,0,0,0,0,0,0,0,0,
0,0,0,0,0,0,0,0,0,0,0,0,0,0,0,0
</chunk>
  </data>
 </layer>
 <layer id="1" name="ground" width="64" height="32">
  <data encoding="csv">
   <chunk x="0" y="0" width="16" height="16">
47,0,0,0,0,0,0,0,0,0,0,0,0,0,0,0,
0,0,0,0,0,0,0,0,0,0,0,0,0,0,0,0,
0,0,0,0,0,0,0,0,0,0,0,0,0,0,0,0,
0,0,0,0,0,0,0,0,0,0,0,0,0,0,0,0,
0,0,0,0,0,0,0,0,0,0,0,0,0,0,0,0,
0,0,0,0,0,0,0,0,0,0,0,0,0,0,0,0,
0,0,0,0,0,0,0,0,0,0,0,0,0,0,0,0,
0,0,0,0,0,0,0,0,0,0,0,0,0,0,0,0,
0,0,0,0,0,0,0,0,0,0,0,0,0,0,0,0,
0,0,0,0,0,0,0,0,0,0,0,0,0,0,0,0,
0,0,0,0,0,0,0,0,0,0,0,0,0,0,0,0,
0,0,0,0,0,0,0,0,0,0,0,0,0,0,0,0,
0,0,0,0,0,0,0,0,0,0,0,0,0,0,0,0,
0,0,0,0,0,0,0,0,0,0,0,0,0,0,0,0,
0,0,0,0,0,0,0,0,0,0,0,0,0,0,0,0,
0,0,0,0,0,0,0,0,0,0,0,0,0,0,0,0
</chunk>
  </data>
 </layer>
 <layer id="2" name="collision" width="64" height="32">
  <data encoding="csv">
   <chunk x="0" y="0" width="16" height="16">
71,71,71,71,71,71,71,71,71,71,71,71,71,71,71,71,
71,71,71,71,71,71,71,71,71,71,71,71,71,71,71,71,
71,71,71,71,71,71,71,71,71,59,80,80,60,71,71,71,
71,71,71,71,71,71,71,71,71,72,0,0,70,71,71,71,
71,71,71,71,71,71,71,71,71,72,0,0,70,71,71,71,
71,71,71,71,71,71,71,71,71,72,0,0,70,71,71,71,
71,71,71,71,71,71,71,71,71,72,0,0,70,71,71,71,
71,71,71,71,71,71,71,71,71,72,0,0,70,71,71,71,
71,71,71,71,71,71,71,71,71,72,0,0,70,71,71,71,
71,71,71,71,71,71,71,71,71,72,0,0,70,71,71,71,
71,71,71,71,71,71,71,71,71,72,0,0,70,71,71,71,
71,71,71,71,71,71,71,71,71,72,0,0,70,71,71,71,
71,71,71,71,71,71,71,71,71,72,0,0,70,71,71,71,
71,71,71,71,71,71,71,71,71,72,0,0,70,71,71,71,
71,71,71,71,71,71,71,71,71,72,0,0,70,71,71,71,
71,71,71,71,71,71,71,71,71,72,0,0,70,71,71,71
</chunk>
   <chunk x="16" y="0" width="16" height="16">
71,71,71,71,71,71,71,71,71,71,71,71,71,71,71,71,
71,71,71,71,71,71,71,71,71,71,71,71,71,71,71,71,
71,71,71,71,71,71,71,71,71,71,71,71,71,71,71,71,
71,71,71,71,71,71,71,71,71,71,71,71,71,71,71,71,
71,71,71,71,71,71,71,71,71,71,71,71,71,71,71,71,
71,71,71,71,71,71,71,71,71,71,71,71,71,71,71,71,
71,71,71,71,71,71,71,71,71,71,71,71,71,71,71,71,
71,71,71,71,71,71,71,71,71,71,71,71,71,71,71,71,
71,71,71,71,71,71,71,71,71,71,71,71,71,71,71,71,
71,71,71,71,71,71,71,71,71,71,71,71,71,71,71,71,
71,71,71,71,71,71,71,71,71,71,71,71,71,71,71,71,
71,71,71,71,71,71,71,71,71,71,71,71,71,71,71,71,
71,71,71,71,71,71,71,71,71,71,71,71,71,71,71,71,
71,71,71,71,71,71,71,71,71,71,71,71,71,71,71,71,
71,71,71,71,71,71,71,71,71,71,71,71,71,71,71,71,
71,71,71,71,71,71,71,71,71,71,71,71,71,71,71,71
</chunk>
   <chunk x="32" y="0" width="16" height="16">
71,71,71,71,71,71,71,71,71,71,71,71,71,71,71,71,
71,71,71,71,71,71,71,71,71,71,71,71,71,71,71,71,
71,71,71,71,71,71,71,71,71,71,71,71,71,71,71,71,
71,71,71,71,71,71,71,71,71,71,71,71,71,71,71,71,
71,71,71,71,71,71,71,71,71,71,71,71,71,71,71,71,
71,71,71,71,71,71,71,71,71,71,71,71,71,71,71,71,
71,71,71,71,71,71,71,71,71,71,71,71,71,71,71,71,
71,71,71,71,71,71,71,71,71,71,71,71,71,71,71,71,
71,71,71,71,71,71,71,71,71,71,71,71,71,71,71,71,
71,71,71,71,71,71,71,71,71,71,71,71,71,71,71,71,
71,71,71,71,71,71,71,71,71,71,71,71,71,71,71,71,
71,71,71,71,71,71,71,71,71,71,71,71,71,71,71,71,
71,71,71,71,71,71,71,71,71,71,71,71,71,71,71,71,
71,71,71,71,71,71,71,71,71,71,71,71,71,71,71,71,
71,71,71,71,71,71,71,71,71,71,71,71,71,71,71,71,
71,71,71,71,71,71,71,71,59,80,80,80,80,80,80,80
</chunk>
   <chunk x="48" y="0" width="16" height="16">
71,71,71,71,71,71,71,71,71,71,71,71,71,71,71,71,
71,71,71,71,71,71,71,71,71,71,71,71,71,71,71,71,
71,71,71,71,71,71,71,71,71,71,71,71,71,71,59,80,
71,71,71,71,71,71,71,71,71,71,71,71,71,71,72,0,
71,71,71,71,71,71,71,71,71,71,71,71,71,71,72,0,
71,71,71,71,71,71,71,71,71,71,71,71,71,71,72,0,
71,71,71,71,71,71,71,71,71,71,71,71,71,71,72,0,
71,71,71,71,71,71,71,71,71,71,71,71,71,71,72,0,
71,71,71,71,71,71,71,71,71,71,71,71,71,71,72,0,
71,71,71,71,71,71,71,71,71,71,71,71,71,71,72,0,
71,71,71,71,71,71,71,71,71,71,71,71,71,71,72,0,
71,71,71,71,71,71,71,71,71,71,71,71,71,71,72,0,
71,71,71,71,71,71,71,71,71,71,71,71,71,71,72,0,
71,71,71,71,71,71,71,71,71,71,71,71,71,71,72,0,
71,71,71,71,71,71,71,71,71,71,71,71,71,71,72,0,
80,80,80,80,80,80,80,80,60,71,71,71,71,71,72,0
</chunk>
   <chunk x="64" y="0" width="16" height="16">
71,71,71,71,71,71,71,71,71,71,71,71,71,71,71,71,
71,71,71,71,71,71,71,71,71,71,71,71,71,71,71,71,
80,60,71,71,71,71,71,71,71,71,71,71,71,71,71,71,
0,70,71,71,71,71,71,71,71,71,71,71,71,71,71,71,
0,70,71,71,71,71,71,71,71,71,71,71,71,71,71,71,
0,70,71,71,71,71,71,71,71,71,71,71,71,71,71,71,
0,70,71,71,71,71,71,71,71,71,71,71,71,71,71,71,
0,70,71,71,71,71,71,71,71,71,71,71,71,71,71,71,
0,70,71,71,71,71,71,71,71,71,71,71,71,71,71,71,
0,70,71,71,71,71,71,71,71,71,71,71,71,71,71,71,
0,70,71,71,71,71,71,71,71,71,71,71,71,71,71,71,
0,70,71,71,71,71,71,71,71,71,71,71,71,71,71,71,
0,70,71,71,71,71,71,71,71,71,71,71,71,71,71,71,
0,70,71,71,71,71,71,71,71,71,71,71,71,71,71,71,
0,70,71,71,71,71,71,71,71,71,71,71,71,71,71,71,
0,70,71,71,71,71,71,71,71,71,71,71,71,71,71,71
</chunk>
   <chunk x="80" y="0" width="16" height="16">
71,71,71,71,71,71,71,71,71,71,71,71,71,71,71,71,
71,71,71,71,71,71,71,71,71,71,71,71,71,71,71,71,
71,71,71,71,71,71,71,71,71,71,71,71,71,71,71,71,
71,71,71,71,71,71,71,71,71,71,71,71,71,71,71,71,
71,71,71,71,71,71,71,71,71,71,71,71,71,71,71,71,
71,71,71,71,71,71,71,71,71,71,71,71,71,71,71,71,
71,71,71,71,71,71,71,71,71,71,71,71,71,71,71,71,
71,71,71,71,71,71,71,71,71,71,71,71,71,71,71,71,
71,71,71,71,71,71,71,71,71,71,71,71,71,71,71,71,
71,71,71,71,71,71,71,71,71,71,71,71,71,71,71,71,
71,71,71,71,71,71,71,71,71,71,71,71,71,71,71,71,
71,71,71,71,71,71,71,71,71,71,71,71,71,71,71,71,
71,71,71,71,71,71,71,71,71,71,71,71,71,71,71,71,
71,71,71,71,71,71,71,71,71,71,71,71,71,71,71,71,
71,71,71,71,71,71,71,71,71,71,71,71,71,71,71,71,
71,71,71,71,71,71,71,71,71,71,71,71,71,71,71,71
</chunk>
   <chunk x="96" y="0" width="16" height="16">
71,71,71,71,71,71,71,71,71,71,71,71,71,71,71,71,
71,71,71,71,71,71,71,71,71,71,71,71,71,71,71,71,
71,71,71,71,71,71,71,71,71,71,71,71,71,71,71,71,
71,71,71,71,71,71,71,71,71,71,71,71,71,71,71,71,
71,71,71,71,71,71,71,71,71,71,71,71,71,71,71,71,
71,71,71,71,71,71,71,71,71,71,71,71,71,71,71,71,
71,71,71,71,71,71,71,71,71,71,71,71,71,71,71,71,
71,71,71,71,71,71,71,71,71,71,71,71,71,71,71,71,
71,71,71,71,71,71,71,71,71,71,71,71,71,71,71,71,
71,71,71,71,71,71,71,71,71,71,71,71,71,71,71,71,
71,71,71,71,71,71,71,71,71,71,71,71,71,71,71,71,
71,71,71,71,71,71,71,71,71,71,71,71,71,71,71,71,
71,71,71,71,71,71,71,71,71,71,71,71,71,71,71,71,
71,71,71,71,71,71,71,71,71,71,71,59,80,80,80,80,
71,71,71,71,71,71,71,71,71,59,80,18,0,0,0,0,
71,71,71,71,71,71,71,71,71,72,0,0,0,0,0,0
</chunk>
   <chunk x="112" y="0" width="16" height="16">
71,71,71,71,71,71,71,71,71,71,71,71,71,71,71,71,
71,71,71,71,71,71,71,71,71,71,71,71,71,71,71,71,
59,80,80,60,71,71,71,71,71,71,71,71,71,71,71,71,
72,0,0,70,71,71,71,71,71,71,71,71,71,71,71,71,
72,0,0,70,71,71,71,71,71,71,71,71,71,71,71,71,
72,0,0,70,71,71,71,71,71,71,71,71,71,71,71,71,
72,0,0,70,71,71,71,71,71,71,71,71,71,71,71,71,
72,0,0,70,71,71,71,71,71,71,71,71,71,71,71,71,
72,0,0,70,71,71,71,71,71,71,71,71,71,71,71,71,
72,0,0,70,71,71,71,71,71,71,71,71,71,71,71,71,
72,0,0,70,71,71,71,71,71,71,71,71,71,71,71,71,
72,0,0,70,71,71,71,71,71,71,71,71,71,71,71,71,
72,0,0,70,71,71,71,71,71,71,71,71,71,71,71,71,
81,0,0,70,71,71,71,71,71,71,71,71,71,71,71,71,
0,0,0,70,71,71,71,71,71,71,71,71,71,71,71,71,
0,0,0,79,60,71,71,71,71,71,71,71,71,71,71,71
</chunk>
   <chunk x="0" y="16" width="16" height="16">
71,71,71,71,71,71,71,71,71,72,0,0,70,71,71,71,
71,71,71,71,71,71,71,71,71,72,0,0,70,71,71,71,
71,71,71,71,71,71,71,71,71,72,0,0,70,71,71,71,
71,71,71,71,71,71,71,71,71,72,0,0,70,71,71,71,
71,71,71,71,71,71,71,71,71,72,0,0,70,71,71,71,
71,71,71,71,71,71,71,71,71,72,0,0,70,71,71,71,
71,71,71,71,71,71,71,71,71,72,0,0,70,71,71,71,
71,71,71,71,71,71,71,71,71,72,0,0,70,71,71,71,
71,71,71,71,71,71,71,71,71,72,0,0,70,71,71,71,
71,71,71,71,71,71,71,71,71,72,0,0,79,80,80,60,
71,71,71,71,71,71,71,59,80,18,0,0,0,0,0,27,
71,71,71,71,71,71,71,72,0,0,0,0,0,0,0,0,
71,71,71,71,71,71,71,72,0,0,0,0,0,0,0,0,
71,71,71,71,71,71,71,72,0,0,0,0,0,0,0,0,
71,71,71,71,71,71,71,68,11,0,0,0,0,0,0,0,
71,71,71,71,71,71,71,71,68,62,62,62,62,14,15,0
</chunk>
   <chunk x="16" y="16" width="16" height="16">
71,71,71,71,71,71,71,71,71,71,71,71,71,71,71,71,
71,71,71,71,71,71,71,71,71,71,71,71,71,71,71,71,
71,71,71,71,71,71,71,71,71,71,71,71,71,71,71,71,
71,71,71,71,71,71,71,71,71,71,71,71,71,71,71,59,
71,71,71,71,71,71,71,71,71,71,71,71,71,71,59,18,
71,71,71,71,71,71,71,71,71,71,71,71,71,59,18,0,
71,71,71,71,71,71,71,71,71,71,71,59,80,18,0,0,
71,71,71,71,71,71,71,71,71,59,80,18,0,0,0,0,
71,71,71,71,71,71,59,80,80,18,0,0,0,0,0,0,
71,71,71,71,71,59,18,0,0,0,0,0,0,0,0,0,
80,80,80,60,71,72,0,0,0,0,0,0,0,0,0,0,
0,0,0,27,80,18,0,0,0,0,0,0,0,0,0,0,
0,0,0,0,0,0,0,0,0,0,0,0,0,0,0,0,
0,0,0,0,0,0,0,0,0,0,0,0,0,0,0,0,
0,0,0,0,0,0,0,0,0,0,0,0,0,0,0,0,
0,0,0,0,0,0,0,0,0,0,0,0,0,0,0,0
</chunk>
   <chunk x="32" y="16" width="16" height="16">
71,71,71,71,71,59,80,80,18,0,0,0,0,0,0,0,
71,71,71,59,80,18,0,0,0,0,0,0,0,0,0,0,
71,59,80,18,0,0,0,0,0,0,0,0,0,0,0,0,
80,18,0,0,0,0,0,0,0,0,0,0,0,0,0,0,
0,0,0,0,0,0,0,0,0,0,0,0,0,0,0,0,
0,0,0,0,0,0,0,0,0,0,0,0,0,0,0,0,
0,0,0,0,0,0,0,0,0,0,0,0,0,0,0,0,
0,0,0,0,0,0,0,0,0,0,0,0,0,0,0,0,
0,0,0,0,0,0,0,0,0,0,0,0,0,0,0,0,
0,0,0,0,25,25,25,25,25,25,25,0,0,0,0,0,
0,0,0,0,0,0,0,0,0,0,0,0,0,0,0,0,
0,0,0,0,0,0,0,0,0,0,0,0,0,0,0,0,
0,0,0,0,0,0,0,0,0,0,0,0,0,0,0,0,
0,0,0,0,0,0,0,0,0,0,0,0,0,0,0,0,
0,0,0,0,0,0,0,0,0,0,0,0,0,0,0,0,
0,0,0,0,0,0,0,0,0,0,0,0,0,0,0,0
</chunk>
   <chunk x="48" y="16" width="16" height="16">
0,0,0,0,0,0,0,0,27,80,80,80,80,80,81,0,
0,0,0,0,0,0,0,0,0,0,0,0,0,0,0,0,
0,0,0,0,0,0,0,0,0,0,0,0,0,0,0,0,
0,0,0,0,0,0,0,0,0,0,0,0,0,0,0,0,
0,0,0,0,0,0,0,0,0,0,0,0,0,0,0,0,
0,0,0,0,0,0,0,0,0,0,0,0,0,0,0,0,
0,0,0,0,0,0,0,0,0,0,0,0,0,0,0,0,
0,0,0,0,0,0,0,0,0,0,0,0,0,0,0,0,
0,0,0,0,0,0,0,0,0,0,0,0,0,0,0,0,
0,0,0,0,0,0,0,0,0,0,0,0,0,25,25,25,
0,0,0,0,0,0,0,0,0,0,0,0,0,0,0,0,
0,0,0,0,0,0,0,0,0,0,0,0,0,0,0,0,
0,0,0,0,0,0,0,0,0,0,0,0,0,0,0,0,
0,0,0,0,0,0,0,0,0,0,0,0,0,0,0,0,
0,0,0,0,0,0,0,0,0,0,0,0,0,0,0,0,
0,0,0,0,0,0,0,0,0,0,0,0,0,0,0,0
</chunk>
   <chunk x="64" y="16" width="16" height="16">
0,79,80,80,60,71,71,71,71,71,71,71,71,71,71,71,
0,0,0,0,27,80,60,71,71,71,71,71,71,71,71,71,
0,0,0,0,0,0,27,80,60,71,71,71,71,71,71,71,
0,0,0,0,0,0,0,0,27,60,71,71,71,71,71,71,
0,0,0,0,0,0,0,0,0,27,60,71,71,71,71,71,
0,0,0,0,0,0,0,0,0,0,27,60,71,71,71,71,
0,0,0,0,0,0,0,0,0,0,0,27,60,71,71,71,
0,0,0,0,0,0,0,0,0,0,0,0,70,71,71,71,
0,0,0,0,0,0,0,0,0,0,0,0,27,60,71,71,
25,25,25,25,0,0,0,0,0,0,0,0,0,27,60,71,
0,0,0,0,0,0,0,0,0,0,0,0,0,0,70,71,
0,0,0,0,0,0,0,0,0,0,0,0,0,0,70,71,
0,0,0,0,0,0,0,0,0,0,0,0,0,0,70,71,
0,0,0,0,0,0,0,0,0,0,0,0,0,0,70,71,
0,0,0,0,0,0,0,0,0,0,0,0,0,0,70,71,
0,0,0,0,0,0,0,0,0,0,0,0,0,10,69,71
</chunk>
   <chunk x="80" y="16" width="16" height="16">
71,71,71,71,71,71,71,71,71,71,71,71,71,71,71,71,
71,71,71,71,71,71,71,71,71,71,71,71,71,71,71,71,
71,71,71,71,71,71,71,71,71,71,71,71,71,71,71,71,
71,71,71,71,71,71,71,71,71,71,71,71,71,59,80,80,
71,71,71,71,71,71,71,71,71,71,71,71,59,18,0,0,
71,71,71,71,71,71,71,71,71,71,71,59,18,0,0,0,
71,71,71,71,71,71,71,71,71,59,80,18,0,0,0,0,
71,71,71,71,71,71,59,80,80,18,0,0,0,0,0,0,
71,71,71,71,71,71,72,0,0,0,0,0,0,0,0,0,
71,71,71,71,71,71,72,0,0,0,0,0,0,0,0,0,
71,71,71,71,71,71,72,0,0,0,0,0,0,0,0,0,
71,71,71,71,71,59,18,0,0,0,0,0,0,0,0,0,
71,71,71,71,71,72,0,0,0,0,0,0,0,0,0,0,
71,71,71,71,71,68,11,0,0,0,0,0,0,0,0,0,
71,71,71,71,71,71,72,0,0,0,0,0,0,0,0,0,
71,71,71,71,71,71,72,0,0,0,0,0,0,0,0,0
</chunk>
   <chunk x="96" y="16" width="16" height="16">
71,71,71,71,71,71,71,59,80,18,0,0,0,0,0,0,
71,71,71,71,71,71,59,18,0,0,0,0,0,0,0,0,
71,71,71,71,59,80,18,0,0,0,0,0,0,0,0,0,
80,80,80,80,18,0,0,0,0,0,0,0,0,0,0,0,
0,0,0,0,0,0,0,0,0,0,0,0,0,0,0,0,
0,0,0,0,0,0,0,0,0,0,0,0,0,0,0,10,
0,0,0,0,0,0,0,0,0,0,0,0,0,12,13,69,
0,0,0,0,0,0,0,0,0,0,0,0,10,69,71,71,
0,0,0,0,0,0,0,0,0,0,0,0,70,71,71,71,
0,0,0,0,0,0,0,0,0,0,0,0,70,71,71,71,
0,0,0,0,0,0,0,0,0,0,10,62,69,71,71,71,
0,0,0,0,0,0,0,0,12,13,69,71,71,71,71,71,
0,0,0,0,0,0,12,13,69,71,71,71,71,71,71,71,
0,0,0,0,61,62,69,71,71,71,71,71,71,71,71,71,
0,0,0,0,70,71,71,71,71,71,71,71,71,71,71,71,
0,0,0,0,27,60,71,71,71,71,71,71,59,80,80,60
</chunk>
   <chunk x="112" y="16" width="16" height="16">
0,0,0,0,70,71,71,71,71,71,71,71,71,71,71,71,
0,0,0,10,69,71,71,71,71,71,71,71,71,71,71,71,
0,0,0,70,71,71,71,71,71,71,71,71,71,71,71,71,
61,62,62,69,71,71,71,71,71,71,71,71,71,71,71,71,
70,71,71,71,71,71,71,71,71,71,71,71,71,71,71,71,
69,71,71,71,71,71,71,71,71,71,71,71,71,71,71,71,
71,71,71,71,71,71,71,71,71,71,71,71,71,71,71,71,
71,71,71,71,71,71,71,71,71,71,71,71,71,71,71,71,
71,71,71,71,71,71,71,71,71,71,71,71,71,71,71,71,
71,71,71,71,71,71,71,71,71,71,71,71,71,71,71,71,
71,71,71,71,71,71,71,71,71,71,71,71,71,71,71,71,
71,71,71,71,71,71,71,71,71,71,71,71,71,71,71,71,
71,71,71,71,71,71,71,71,71,71,71,71,71,71,71,71,
71,71,71,71,71,71,71,71,71,71,71,71,71,71,71,71,
71,71,71,71,71,71,71,71,71,71,71,71,71,71,71,71,
71,71,71,71,71,71,71,71,71,71,71,71,71,71,71,71
</chunk>
   <chunk x="0" y="32" width="16" height="16">
71,71,71,71,71,71,71,71,71,71,71,71,71,71,68,62,
71,71,71,71,71,71,71,71,71,71,71,71,71,71,71,71,
71,71,71,71,71,71,71,71,71,71,71,71,71,71,71,71,
71,71,71,71,71,71,71,71,71,71,71,71,71,71,71,71,
71,71,71,71,71,71,71,71,71,71,71,71,71,71,71,71,
71,71,71,71,71,71,71,71,71,71,71,71,71,71,71,71,
71,71,71,71,71,71,71,71,71,71,71,71,71,71,71,71,
71,71,71,71,71,71,71,71,71,71,71,71,71,71,71,71,
71,71,71,71,71,71,71,71,71,71,71,71,71,71,71,71,
71,71,71,71,71,71,71,71,71,71,71,71,71,71,71,71,
71,71,71,71,71,71,71,71,71,71,71,71,71,71,71,71,
71,71,71,71,71,71,71,71,71,71,71,71,71,71,71,71,
71,71,71,71,71,71,71,71,71,71,71,71,71,71,71,71,
71,71,71,71,71,71,71,71,71,71,71,71,71,71,71,71,
71,71,71,71,71,71,71,71,71,71,71,71,71,71,71,71,
71,71,71,71,71,71,71,71,71,71,71,71,71,71,71,71
</chunk>
   <chunk x="16" y="32" width="16" height="16">
62,14,15,0,0,0,0,0,0,0,0,0,0,0,0,25,
71,71,68,62,62,14,15,0,0,0,0,0,0,0,0,0,
71,71,71,71,71,71,68,11,0,0,0,0,0,0,0,0,
71,71,71,71,71,71,71,68,11,0,0,0,0,0,0,0,
71,71,71,71,71,71,71,71,68,11,0,0,0,0,0,0,
71,71,71,71,71,71,71,71,71,68,11,0,0,0,0,0,
71,71,71,71,71,71,71,71,71,71,68,62,14,15,0,0,
71,71,71,71,71,71,71,71,71,71,71,71,71,68,62,14,
71,71,71,71,71,71,71,71,71,71,71,71,71,71,71,71,
71,71,71,71,71,71,71,71,71,71,71,71,71,71,71,71,
71,71,71,71,71,71,71,71,71,71,71,71,71,71,71,71,
71,71,71,71,71,71,71,71,71,71,71,71,71,71,71,71,
71,71,71,71,71,71,71,71,71,71,71,71,71,71,71,71,
71,71,71,71,71,71,71,71,71,71,71,71,71,71,71,71,
71,71,71,71,71,71,71,71,71,71,71,71,71,71,71,71,
71,71,71,71,71,71,71,71,71,71,71,71,71,71,71,71
</chunk>
   <chunk x="32" y="32" width="16" height="16">
25,25,25,25,0,0,0,0,0,0,0,0,0,0,0,0,
0,0,0,0,0,0,0,0,0,0,0,0,0,0,0,0,
0,0,0,0,0,0,0,0,0,0,0,0,0,0,0,0,
0,0,0,0,0,0,0,0,0,0,0,0,0,0,0,0,
0,0,0,0,0,0,0,0,0,0,0,0,0,0,0,0,
0,0,0,0,0,0,0,0,0,0,0,0,0,0,0,0,
0,0,0,0,0,0,0,0,0,0,0,0,0,0,0,0,
15,0,0,0,0,0,0,0,0,0,0,0,0,0,0,0,
68,62,62,62,62,62,62,62,62,62,62,62,62,62,62,62,
71,71,71,71,71,71,71,71,71,71,71,71,71,71,71,71,
71,71,71,71,71,71,71,71,71,71,71,71,71,71,71,71,
71,71,71,71,71,71,71,71,71,71,71,71,71,71,71,71,
71,71,71,71,71,71,71,71,71,71,71,71,71,71,71,71,
71,71,71,71,71,71,71,71,71,71,71,71,71,71,71,71,
71,71,71,71,71,71,71,71,71,71,71,71,71,71,71,71,
71,71,71,71,71,71,71,71,71,71,71,71,71,71,71,71
</chunk>
   <chunk x="48" y="32" width="16" height="16">
0,0,0,0,0,0,0,0,0,0,0,0,0,0,0,0,
0,0,0,0,0,0,0,0,0,0,0,0,0,0,0,0,
0,0,0,0,0,0,0,0,0,0,0,0,0,0,0,0,
0,0,0,0,0,0,0,0,0,0,0,0,0,0,0,0,
0,0,0,0,0,0,0,0,0,0,0,0,0,0,0,0,
0,0,0,0,0,0,0,0,0,0,0,0,0,0,0,0,
0,0,0,0,0,0,0,0,0,0,0,0,0,0,0,0,
0,0,0,0,0,0,0,0,0,0,0,0,0,0,0,0,
62,62,62,62,62,62,62,62,62,62,62,62,62,62,62,62,
71,71,71,71,71,71,71,71,71,71,71,71,71,71,71,71,
71,71,71,71,71,71,71,71,71,71,71,71,71,71,71,71,
71,71,71,71,71,71,71,71,71,71,71,71,71,71,71,71,
71,71,71,71,71,71,71,71,71,71,71,71,71,71,71,71,
71,71,71,71,71,71,71,71,71,71,71,71,71,71,71,71,
71,71,71,71,71,71,71,71,71,71,71,71,71,71,71,71,
71,71,71,71,71,71,71,71,71,71,71,71,71,71,71,71
</chunk>
   <chunk x="64" y="32" width="16" height="16">
0,0,0,0,25,25,25,25,25,0,0,0,10,69,71,71,
0,0,0,0,0,0,0,0,0,0,0,0,70,71,71,71,
0,0,0,0,0,0,0,0,0,0,0,0,70,71,71,71,
0,0,0,0,0,0,0,0,0,0,0,0,70,71,71,71,
0,0,0,0,0,0,0,0,0,0,0,0,70,71,71,71,
0,0,0,0,0,0,0,0,0,0,0,0,70,71,71,71,
0,0,0,0,0,0,0,0,0,12,13,62,69,71,71,71,
0,12,13,62,62,62,62,62,62,69,71,71,71,71,71,71,
62,69,71,71,71,71,71,71,71,71,71,71,71,71,71,71,
71,71,71,71,71,71,71,71,71,71,71,71,71,71,71,71,
71,71,71,71,71,71,71,71,71,71,71,71,71,71,71,71,
71,71,71,71,71,71,71,71,71,71,71,71,71,71,71,71,
71,71,71,71,71,71,71,71,71,71,71,71,71,71,71,71,
71,71,71,71,71,71,71,71,71,71,71,71,71,71,71,71,
71,71,71,71,71,71,71,71,71,71,71,71,71,71,71,71,
71,71,71,71,71,71,71,71,71,71,71,71,71,71,71,71
</chunk>
   <chunk x="80" y="32" width="16" height="16">
71,71,71,71,71,71,72,0,0,0,0,0,0,0,0,0,
71,71,71,71,71,71,72,0,0,0,0,0,0,0,0,0,
71,71,71,71,71,59,18,0,0,0,0,0,0,0,0,0,
71,71,71,71,71,72,0,0,0,0,0,12,13,62,62,62,
71,71,71,71,59,18,0,0,0,0,10,69,71,71,71,71,
71,71,71,59,18,0,0,0,0,10,69,71,71,71,71,71,
71,71,71,72,0,0,0,0,61,69,71,71,71,71,71,71,
71,71,71,72,0,0,0,0,70,71,71,71,71,71,71,71,
71,71,71,72,0,0,0,0,70,71,71,71,71,71,71,71,
71,71,71,72,0,0,0,0,27,80,80,80,80,80,80,80,
71,71,71,72,0,0,0,0,0,0,0,0,0,0,0,0,
71,71,71,72,0,0,0,0,0,0,0,0,0,0,0,0,
71,71,71,72,0,0,0,0,0,0,0,0,0,0,0,0,
71,71,71,68,11,0,0,0,0,0,0,0,0,0,0,0,
71,71,71,71,72,0,0,0,0,0,0,0,0,0,0,0,
71,71,71,71,68,62,62,62,62,62,62,62,14,15,0,0
</chunk>
   <chunk x="96" y="32" width="16" height="16">
0,0,0,0,0,27,60,71,71,71,59,80,18,0,0,27,
0,0,0,0,0,0,27,80,80,80,18,0,0,0,0,0,
0,0,0,0,0,0,0,0,0,0,0,0,0,0,0,0,
14,15,0,0,0,0,0,0,0,0,0,0,0,0,0,0,
71,68,14,15,0,0,0,0,0,0,0,0,0,0,0,0,
71,71,71,68,11,0,0,0,0,0,0,0,0,0,0,0,
71,71,71,71,68,63,0,0,0,0,0,0,0,0,0,0,
71,71,71,71,71,72,0,0,0,0,61,62,62,62,62,62,
71,71,71,71,59,18,0,0,0,0,70,71,71,71,71,71,
80,80,80,80,18,0,0,0,0,0,70,71,71,71,71,71,
0,0,0,0,0,0,0,0,0,0,79,60,71,71,71,71,
0,0,0,0,0,0,0,0,0,0,0,27,80,80,60,71,
0,0,0,0,0,0,0,0,0,0,0,0,0,0,70,71,
0,0,0,0,0,0,0,0,0,0,0,0,0,0,27,80,
0,0,0,0,0,0,0,0,0,0,0,0,0,0,0,0,
0,0,0,0,0,0,0,0,0,0,0,0,0,0,0,0
</chunk>
   <chunk x="112" y="32" width="16" height="16">
80,80,60,71,71,71,71,71,71,71,71,71,71,71,71,71,
0,0,70,71,71,71,71,71,71,71,71,71,71,71,71,71,
0,0,70,71,71,71,71,71,71,71,71,71,71,71,71,71,
0,0,70,71,71,71,71,71,71,71,71,71,71,71,71,71,
0,0,70,71,71,71,71,71,71,71,71,71,71,71,71,71,
0,10,69,71,71,71,71,71,71,71,71,71,71,71,71,71,
0,70,71,71,71,71,71,71,71,71,71,71,71,71,71,71,
62,69,71,71,71,71,71,71,71,71,71,71,71,71,71,71,
71,71,71,71,71,71,71,71,71,71,71,71,71,71,71,71,
71,71,71,71,71,71,71,71,71,71,71,71,71,71,71,71,
71,71,71,71,71,71,71,71,71,71,71,71,71,71,71,71,
71,71,71,71,71,71,71,71,71,71,71,71,71,71,71,71,
71,71,71,71,71,71,71,71,71,71,71,71,71,71,71,71,
60,71,71,71,71,71,71,71,71,71,71,71,71,71,71,71,
70,71,71,71,71,71,71,71,71,71,71,71,71,71,71,71,
70,71,71,71,71,71,71,71,71,71,71,71,71,71,71,71
</chunk>
   <chunk x="0" y="48" width="16" height="16">
71,71,71,71,71,71,71,71,71,71,71,71,71,71,71,71,
71,71,71,71,71,71,71,71,71,71,71,71,71,71,71,71,
71,71,71,71,71,71,71,71,71,71,71,71,71,71,71,71,
71,71,71,71,71,71,71,71,71,71,71,71,71,71,71,71,
71,71,71,71,71,71,71,71,71,71,71,71,71,71,71,71,
71,71,71,71,71,71,71,71,71,71,71,71,71,71,71,71,
71,71,71,71,71,71,71,71,71,71,71,71,71,71,71,71,
71,71,71,71,71,71,71,71,71,71,71,71,71,71,71,71,
71,71,71,71,71,71,71,71,71,71,71,71,71,71,71,71,
71,71,71,71,71,71,71,71,71,71,71,71,71,71,71,71,
71,71,71,71,71,71,71,71,71,71,71,71,71,71,71,71,
71,71,71,71,71,71,71,71,71,71,71,71,71,71,71,71,
71,71,71,71,71,71,71,71,71,71,71,71,71,71,71,71,
71,71,71,71,71,71,71,71,71,71,71,71,71,71,71,71,
71,71,71,71,71,71,71,71,71,71,71,71,71,71,71,71,
71,71,71,71,71,71,71,71,71,71,71,71,71,71,71,71
</chunk>
   <chunk x="16" y="48" width="16" height="16">
71,71,71,71,71,71,71,71,71,71,71,71,71,71,71,71,
71,71,71,71,71,71,71,71,71,71,71,71,71,71,71,71,
71,71,71,71,71,71,71,71,71,71,71,71,71,71,71,71,
71,71,71,71,71,71,71,71,71,71,71,71,71,71,71,71,
71,71,71,71,71,71,71,71,71,71,71,71,71,71,71,71,
71,71,71,71,71,71,71,71,71,71,71,71,71,71,71,71,
71,71,71,71,71,71,71,71,71,71,71,71,71,71,71,71,
71,71,71,71,71,71,71,71,71,71,71,71,71,71,71,71,
71,71,71,71,71,71,71,71,71,71,71,71,71,71,71,71,
71,71,71,71,71,71,71,71,71,71,71,71,71,71,71,71,
71,71,71,71,71,71,71,71,71,71,71,71,71,71,71,71,
71,71,71,71,71,71,71,71,71,71,71,71,71,71,71,71,
71,71,71,71,71,71,71,71,71,71,71,71,71,71,71,71,
71,71,71,71,71,71,71,71,71,71,71,71,71,71,71,71,
71,71,71,71,71,71,71,71,71,71,71,71,71,71,71,71,
71,71,71,71,71,71,71,71,71,71,71,71,71,71,71,71
</chunk>
   <chunk x="32" y="48" width="16" height="16">
71,71,71,71,71,71,71,71,71,71,71,71,71,71,71,71,
71,71,71,71,71,71,71,71,71,71,71,71,71,71,71,71,
71,71,71,71,71,71,71,71,71,71,71,71,71,71,71,71,
71,71,71,71,71,71,71,71,71,71,71,71,71,71,71,71,
71,71,71,71,71,71,71,71,71,71,71,71,71,71,71,71,
71,71,71,71,71,71,71,71,71,71,71,71,71,71,71,71,
71,71,71,71,71,71,71,71,71,71,71,71,71,71,71,71,
71,71,71,71,71,71,71,71,71,71,71,71,71,71,71,71,
71,71,71,71,71,71,71,71,71,71,71,71,71,71,71,71,
71,71,71,71,71,71,71,71,71,71,71,71,71,71,71,71,
71,71,71,71,71,71,71,71,71,71,71,71,71,71,71,71,
71,71,71,71,71,71,71,71,71,71,71,71,71,71,71,71,
71,71,71,71,71,71,71,71,71,71,71,71,71,71,71,71,
71,71,71,71,71,71,71,71,71,71,71,71,71,71,71,71,
71,71,71,71,71,71,71,71,71,71,71,71,71,71,71,71,
71,71,71,71,71,71,71,71,71,71,71,71,71,71,71,71
</chunk>
   <chunk x="48" y="48" width="16" height="16">
71,71,71,71,71,71,71,71,71,71,71,71,71,71,71,71,
71,71,71,71,71,71,71,71,71,71,71,71,71,71,71,71,
71,71,71,71,71,71,71,71,71,71,71,71,71,71,71,71,
71,71,71,71,71,71,71,71,71,71,71,71,71,71,71,71,
71,71,71,71,71,71,71,71,71,71,71,71,71,71,71,71,
71,71,71,71,71,71,71,71,71,71,71,71,71,71,71,71,
71,71,71,71,71,71,71,71,71,71,71,71,71,71,71,71,
71,71,71,71,71,71,71,71,71,71,71,71,71,71,71,71,
71,71,71,71,71,71,71,71,71,71,71,71,71,71,71,71,
71,71,71,71,71,71,71,71,71,71,71,71,71,71,71,71,
71,71,71,71,71,71,71,71,71,71,71,71,71,71,71,71,
71,71,71,71,71,71,71,71,71,71,71,71,71,71,71,71,
71,71,71,71,71,71,71,71,71,71,71,71,71,71,71,71,
71,71,71,71,71,71,71,71,71,71,71,71,71,71,71,71,
71,71,71,71,71,71,71,71,71,71,71,71,71,71,71,71,
71,71,71,71,71,71,71,71,71,71,71,71,71,71,71,71
</chunk>
   <chunk x="64" y="48" width="16" height="16">
71,71,71,71,71,71,71,71,71,71,71,71,71,71,71,71,
71,71,71,71,71,71,71,71,71,71,71,71,71,71,71,71,
71,71,71,71,71,71,71,71,71,71,71,71,71,71,71,71,
71,71,71,71,71,71,71,71,71,71,71,71,71,71,71,71,
71,71,71,71,71,71,71,71,71,71,71,71,71,71,71,71,
71,71,71,71,71,71,71,71,71,71,71,71,71,71,71,71,
71,71,71,71,71,71,71,71,71,71,71,71,71,71,71,71,
71,71,71,71,71,71,71,71,71,71,71,71,71,71,71,71,
71,71,71,71,71,71,71,71,71,71,71,71,71,71,71,71,
71,71,71,71,71,71,71,71,71,71,71,71,71,71,71,71,
71,71,71,71,71,71,71,71,71,71,71,71,71,71,71,71,
71,71,71,71,71,71,71,71,71,71,71,71,71,71,71,71,
71,71,71,71,71,71,71,71,71,71,71,71,71,71,71,71,
71,71,71,71,71,71,71,71,71,71,71,71,71,71,71,71,
71,71,71,71,71,71,71,71,71,71,71,71,71,71,71,71,
71,71,71,71,71,71,71,71,71,71,71,71,71,71,71,71
</chunk>
   <chunk x="80" y="48" width="16" height="16">
71,71,71,71,71,71,71,71,71,71,71,71,71,68,62,62,
71,71,71,71,71,71,71,71,71,71,71,71,71,71,71,71,
71,71,71,71,71,71,71,71,71,71,71,71,71,71,71,71,
71,71,71,71,71,71,71,71,71,71,71,71,71,71,71,71,
71,71,71,71,71,71,71,71,71,71,71,71,71,71,71,71,
71,71,71,71,71,71,71,71,71,71,71,71,71,71,71,71,
71,71,71,71,71,71,71,71,71,71,71,71,71,71,71,71,
71,71,71,71,71,71,71,71,71,71,71,71,71,71,71,71,
71,71,71,71,71,71,71,71,71,71,71,71,71,71,71,71,
71,71,71,71,71,71,71,71,71,71,71,71,71,71,71,71,
71,71,71,71,71,71,71,71,71,71,71,71,71,71,71,71,
71,71,71,71,71,71,71,71,71,71,71,71,71,71,71,71,
71,71,71,71,71,71,71,71,71,71,71,71,71,71,71,71,
71,71,71,71,71,71,71,71,71,71,71,71,71,71,71,71,
71,71,71,71,71,71,71,71,71,71,71,71,71,71,71,71,
71,71,71,71,71,71,71,71,71,71,71,71,71,71,71,71
</chunk>
   <chunk x="96" y="48" width="16" height="16">
62,62,62,62,14,15,0,0,0,0,0,0,0,0,0,0,
71,71,71,71,71,68,14,15,0,0,0,0,0,0,0,0,
71,71,71,71,71,71,71,68,14,15,0,0,0,0,0,0,
71,71,71,71,71,71,71,71,71,68,62,62,62,63,0,0,
71,71,71,71,71,71,71,71,71,71,71,71,71,72,0,0,
71,71,71,71,71,71,71,71,71,71,71,71,71,72,0,0,
71,71,71,71,71,71,71,71,71,71,71,71,71,72,0,0,
71,71,71,71,71,71,71,71,71,71,71,71,71,72,0,0,
71,71,71,71,71,71,71,71,71,71,71,71,71,72,0,0,
71,71,71,71,71,71,71,71,71,71,71,71,71,72,0,0,
71,71,71,71,71,71,71,71,71,71,71,71,71,72,0,0,
71,71,71,71,71,71,71,71,71,71,71,71,71,72,0,0,
71,71,71,71,71,71,71,71,71,71,71,71,71,72,0,0,
71,71,71,71,71,71,71,71,71,71,71,71,71,72,0,0,
71,71,71,71,71,71,71,71,71,71,71,71,71,68,62,62,
71,71,71,71,71,71,71,71,71,71,71,71,71,71,71,71
</chunk>
   <chunk x="112" y="48" width="16" height="16">
27,60,71,71,71,71,71,71,71,71,71,71,71,71,71,71,
0,70,71,71,71,71,71,71,71,71,71,71,71,71,71,71,
0,70,71,71,71,71,71,71,71,71,71,71,71,71,71,71,
0,70,71,71,71,71,71,71,71,71,71,71,71,71,71,71,
0,70,71,71,71,71,71,71,71,71,71,71,71,71,71,71,
0,70,71,71,71,71,71,71,71,71,71,71,71,71,71,71,
0,70,71,71,71,71,71,71,71,71,71,71,71,71,71,71,
0,70,71,71,71,71,71,71,71,71,71,71,71,71,71,71,
0,70,71,71,71,71,71,71,71,71,71,71,71,71,71,71,
0,70,71,71,71,71,71,71,71,71,71,71,71,71,71,71,
0,70,71,71,71,71,71,71,71,71,71,71,71,71,71,71,
0,70,71,71,71,71,71,71,71,71,71,71,71,71,71,71,
0,70,71,71,71,71,71,71,71,71,71,71,71,71,71,71,
0,70,71,71,71,71,71,71,71,71,71,71,71,71,71,71,
62,69,71,71,71,71,71,71,71,71,71,71,71,71,71,71,
71,71,71,71,71,71,71,71,71,71,71,71,71,71,71,71
</chunk>
  </data>
 </layer>
 <objectgroup color="#ff8284" id="7" name="npcs">
  <object id="132" class="npc" x="768" y="512">
   <properties>
    <property name="id" type="int" value="18"/>
    <property name="noticeDist" type="int" value="300"/>
    <property name="perma" type="bool" value="true"/>
    <property name="phantom" type="int" value="0"/>
    <property name="wanderDist" type="int" value="0"/>
   </properties>
   <point/>
  </object>
 </objectgroup>
 <objectgroup color="#fffa61" id="8" name="lights">
  <object id="138" class="light" x="720" y="320">
   <properties>
    <property name="angle" type="float" value="270"/>
    <property name="brightness" type="float" value="2"/>
    <property name="color" type="color" value="#ffffa962"/>
    <property name="dirRadius" type="float" value="80"/>
    <property name="directional" type="bool" value="false"/>
    <property name="falloff" type="float" value="2"/>
    <property name="radius" type="float" value="0.8"/>
    <property name="shadows" type="bool" value="false"/>
    <property name="startActive" type="bool" value="true"/>
   </properties>
   <point/>
  </object>
  <object id="139" class="light" x="451" y="447">
   <properties>
    <property name="angle" type="float" value="270"/>
    <property name="brightness" type="float" value="1.5"/>
    <property name="color" type="color" value="#ffffc87b"/>
    <property name="dirRadius" type="float" value="80"/>
    <property name="directional" type="bool" value="false"/>
    <property name="falloff" type="float" value="2"/>
    <property name="radius" type="float" value="1.5"/>
    <property name="shadows" type="bool" value="false"/>
    <property name="startActive" type="bool" value="true"/>
   </properties>
   <point/>
  </object>
  <object id="140" class="light" x="1107" y="386">
   <properties>
    <property name="angle" type="float" value="270"/>
    <property name="brightness" type="float" value="2"/>
    <property name="color" type="color" value="#ffffd46f"/>
    <property name="dirRadius" type="float" value="80"/>
    <property name="directional" type="bool" value="false"/>
    <property name="falloff" type="float" value="2"/>
    <property name="radius" type="float" value="0.8"/>
    <property name="shadows" type="bool" value="false"/>
    <property name="startActive" type="bool" value="true"/>
   </properties>
   <point/>
  </object>
  <object id="141" class="light" x="819" y="471">
   <properties>
    <property name="angle" type="float" value="270"/>
    <property name="brightness" type="float" value="2"/>
    <property name="color" type="color" value="#ffffd15d"/>
    <property name="dirRadius" type="float" value="80"/>
    <property name="directional" type="bool" value="false"/>
    <property name="falloff" type="float" value="2"/>
    <property name="radius" type="float" value="5"/>
    <property name="shadows" type="bool" value="false"/>
    <property name="startActive" type="bool" value="true"/>
   </properties>
   <point/>
  </object>
  <object id="142" class="light" x="820" y="526">
   <properties>
    <property name="angle" type="float" value="270"/>
    <property name="brightness" type="float" value="2"/>
    <property name="color" type="color" value="#ffffd15d"/>
    <property name="dirRadius" type="float" value="80"/>
    <property name="directional" type="bool" value="false"/>
    <property name="falloff" type="float" value="2"/>
    <property name="radius" type="float" value="5"/>
    <property name="shadows" type="bool" value="false"/>
    <property name="startActive" type="bool" value="true"/>
   </properties>
   <point/>
  </object>
  <object id="143" class="light" x="803" y="573">
   <properties>
    <property name="angle" type="float" value="270"/>
    <property name="brightness" type="float" value="2.4"/>
    <property name="color" type="color" value="#ffffd15d"/>
    <property name="dirRadius" type="float" value="80"/>
    <property name="directional" type="bool" value="false"/>
    <property name="falloff" type="float" value="2"/>
    <property name="radius" type="float" value="3"/>
    <property name="shadows" type="bool" value="false"/>
    <property name="startActive" type="bool" value="true"/>
   </properties>
   <point/>
  </object>
  <object id="144" class="light" x="910" y="486">
   <properties>
    <property name="angle" type="float" value="270"/>
    <property name="brightness" type="float" value="2"/>
    <property name="color" type="color" value="#ffffd15d"/>
    <property name="dirRadius" type="float" value="80"/>
    <property name="directional" type="bool" value="false"/>
    <property name="falloff" type="float" value="2"/>
    <property name="radius" type="float" value="5"/>
    <property name="shadows" type="bool" value="false"/>
    <property name="startActive" type="bool" value="true"/>
   </properties>
   <point/>
  </object>
  <object id="145" class="light" x="896" y="539">
   <properties>
    <property name="angle" type="float" value="270"/>
    <property name="brightness" type="float" value="2"/>
    <property name="color" type="color" value="#ffffd15d"/>
    <property name="dirRadius" type="float" value="80"/>
    <property name="directional" type="bool" value="false"/>
    <property name="falloff" type="float" value="2"/>
    <property name="radius" type="float" value="5"/>
    <property name="shadows" type="bool" value="false"/>
    <property name="startActive" type="bool" value="true"/>
   </properties>
   <point/>
  </object>
  <object id="146" class="light" x="908" y="592">
   <properties>
    <property name="angle" type="float" value="270"/>
    <property name="brightness" type="float" value="2.4"/>
    <property name="color" type="color" value="#ffffd15d"/>
    <property name="dirRadius" type="float" value="80"/>
    <property name="directional" type="bool" value="false"/>
    <property name="falloff" type="float" value="2"/>
    <property name="radius" type="float" value="3"/>
    <property name="shadows" type="bool" value="false"/>
    <property name="startActive" type="bool" value="true"/>
   </properties>
   <point/>
  </object>
  <object id="147" class="light" x="251" y="457">
   <properties>
    <property name="angle" type="float" value="270"/>
    <property name="brightness" type="float" value="1"/>
    <property name="color" type="color" value="#ffffb46a"/>
    <property name="dirRadius" type="float" value="80"/>
    <property name="directional" type="bool" value="false"/>
    <property name="falloff" type="float" value="2"/>
    <property name="radius" type="float" value="3"/>
    <property name="shadows" type="bool" value="false"/>
    <property name="startActive" type="bool" value="true"/>
   </properties>
   <point/>
  </object>
  <object id="148" class="light" x="625" y="595">
   <properties>
    <property name="angle" type="float" value="270"/>
    <property name="brightness" type="float" value="1"/>
    <property name="color" type="color" value="#ffff9c63"/>
    <property name="dirRadius" type="float" value="80"/>
    <property name="directional" type="bool" value="false"/>
    <property name="falloff" type="float" value="2"/>
    <property name="radius" type="float" value="3"/>
    <property name="shadows" type="bool" value="false"/>
    <property name="startActive" type="bool" value="true"/>
   </properties>
   <point/>
  </object>
  <object id="149" class="light" x="1153" y="568">
   <properties>
    <property name="angle" type="float" value="270"/>
    <property name="brightness" type="float" value="1"/>
    <property name="color" type="color" value="#ffffa963"/>
    <property name="dirRadius" type="float" value="80"/>
    <property name="directional" type="bool" value="false"/>
    <property name="falloff" type="float" value="2"/>
    <property name="radius" type="float" value="3"/>
    <property name="shadows" type="bool" value="false"/>
    <property name="startActive" type="bool" value="true"/>
   </properties>
   <point/>
  </object>
  <object id="150" class="light" x="1528" y="372">
   <properties>
    <property name="angle" type="float" value="270"/>
    <property name="brightness" type="float" value="3"/>
    <property name="color" type="color" value="#ffffa962"/>
    <property name="dirRadius" type="float" value="80"/>
    <property name="directional" type="bool" value="false"/>
    <property name="falloff" type="float" value="2"/>
    <property name="radius" type="float" value="1.4"/>
    <property name="shadows" type="bool" value="false"/>
    <property name="startActive" type="bool" value="true"/>
   </properties>
   <point/>
  </object>
  <object id="151" class="light" x="1738" y="278">
   <properties>
    <property name="angle" type="float" value="270"/>
    <property name="brightness" type="float" value="3"/>
    <property name="color" type="color" value="#ffff904f"/>
    <property name="dirRadius" type="float" value="80"/>
    <property name="directional" type="bool" value="false"/>
    <property name="falloff" type="float" value="2"/>
    <property name="radius" type="float" value="3.4"/>
    <property name="shadows" type="bool" value="false"/>
    <property name="startActive" type="bool" value="true"/>
   </properties>
   <point/>
  </object>
  <object id="152" class="light" x="1364" y="706">
   <properties>
    <property name="angle" type="float" value="270"/>
    <property name="brightness" type="float" value="0.7"/>
    <property name="color" type="color" value="#ffffa962"/>
    <property name="dirRadius" type="float" value="80"/>
    <property name="directional" type="bool" value="false"/>
    <property name="falloff" type="float" value="2"/>
    <property name="radius" type="float" value="1.4"/>
    <property name="shadows" type="bool" value="false"/>
    <property name="startActive" type="bool" value="true"/>
   </properties>
   <point/>
  </object>
  <object id="153" class="light" x="1751" y="539">
   <properties>
    <property name="angle" type="float" value="270"/>
    <property name="brightness" type="float" value="1.25"/>
    <property name="color" type="color" value="#ffff985c"/>
    <property name="dirRadius" type="float" value="80"/>
    <property name="directional" type="bool" value="false"/>
    <property name="falloff" type="float" value="2"/>
    <property name="radius" type="float" value="3"/>
    <property name="shadows" type="bool" value="false"/>
    <property name="startActive" type="bool" value="true"/>
   </properties>
   <point/>
  </object>
  <object id="154" class="light" x="1730" y="739">
   <properties>
    <property name="angle" type="float" value="270"/>
    <property name="brightness" type="float" value="1.5"/>
    <property name="color" type="color" value="#ffffa962"/>
    <property name="dirRadius" type="float" value="80"/>
    <property name="directional" type="bool" value="false"/>
    <property name="falloff" type="float" value="2"/>
    <property name="radius" type="float" value="3"/>
    <property name="shadows" type="bool" value="false"/>
    <property name="startActive" type="bool" value="true"/>
   </properties>
   <point/>
  </object>
  <object id="155" class="light" x="1522" y="544">
   <properties>
    <property name="angle" type="float" value="270"/>
    <property name="brightness" type="float" value="2"/>
    <property name="color" type="color" value="#ffffd15d"/>
    <property name="dirRadius" type="float" value="80"/>
    <property name="directional" type="bool" value="false"/>
    <property name="falloff" type="float" value="2"/>
    <property name="radius" type="float" value="5"/>
    <property name="shadows" type="bool" value="false"/>
    <property name="startActive" type="bool" value="true"/>
   </properties>
   <point/>
  </object>
  <object id="156" class="light" x="1466" y="555">
   <properties>
    <property name="angle" type="float" value="270"/>
    <property name="brightness" type="float" value="2"/>
    <property name="color" type="color" value="#ffffd15d"/>
    <property name="dirRadius" type="float" value="80"/>
    <property name="directional" type="bool" value="false"/>
    <property name="falloff" type="float" value="2"/>
    <property name="radius" type="float" value="5"/>
    <property name="shadows" type="bool" value="false"/>
    <property name="startActive" type="bool" value="true"/>
   </properties>
   <point/>
  </object>
  <object id="157" class="light" x="1584" y="759">
   <properties>
    <property name="angle" type="float" value="270"/>
    <property name="brightness" type="float" value="2"/>
    <property name="color" type="color" value="#ffffd15d"/>
    <property name="dirRadius" type="float" value="80"/>
    <property name="directional" type="bool" value="false"/>
    <property name="falloff" type="float" value="2"/>
    <property name="radius" type="float" value="5"/>
    <property name="shadows" type="bool" value="false"/>
    <property name="startActive" type="bool" value="true"/>
   </properties>
   <point/>
  </object>
  <object id="158" class="light" x="1785" y="614">
   <properties>
    <property name="angle" type="float" value="270"/>
    <property name="brightness" type="float" value="2"/>
    <property name="color" type="color" value="#ffffd15d"/>
    <property name="dirRadius" type="float" value="80"/>
    <property name="directional" type="bool" value="false"/>
    <property name="falloff" type="float" value="2"/>
    <property name="radius" type="float" value="5"/>
    <property name="shadows" type="bool" value="false"/>
    <property name="startActive" type="bool" value="true"/>
   </properties>
   <point/>
  </object>
  <object id="159" class="light" x="1691" y="413">
   <properties>
    <property name="angle" type="float" value="270"/>
    <property name="brightness" type="float" value="2"/>
    <property name="color" type="color" value="#ffffd15d"/>
    <property name="dirRadius" type="float" value="80"/>
    <property name="directional" type="bool" value="false"/>
    <property name="falloff" type="float" value="2"/>
    <property name="radius" type="float" value="5"/>
    <property name="shadows" type="bool" value="false"/>
    <property name="startActive" type="bool" value="true"/>
   </properties>
   <point/>
  </object>
 </objectgroup>
 <objectgroup color="#7de8b9" id="11" name="deco"/>
 <objectgroup color="#8aadff" id="9" name="puzzles">
  <object id="125" name="magnet1" class="magnet" x="1216" y="569">
   <properties>
    <property name="direction" type="bool" value="true"/>
    <property name="draw" type="bool" value="true"/>
    <property name="size" type="int" value="3"/>
    <property name="startActive" type="bool" value="true"/>
   </properties>
   <point/>
  </object>
  <object id="126" class="wireOverlay" x="1216" y="569">
   <properties>
    <property name="target" value="magnet1"/>
   </properties>
   <polyline points="0,0 44,-57 54,-186 -12,-273 -176,-329"/>
  </object>
  <object id="127" name="door1" class="door" x="1008" y="232" width="32" height="16">
   <properties>
    <property name="draw" type="bool" value="true"/>
    <property name="skin" type="int" value="0"/>
    <property name="startActive" type="bool" value="true"/>
   </properties>
  </object>
  <object id="130" class="wireOverlay" x="912" y="412">
   <properties>
    <property name="target" value="magnet1"/>
   </properties>
   <polyline points="292,-116 176,-110 112,-20"/>
  </object>
 </objectgroup>
 <objectgroup id="3" name="general">
  <object id="120" name="trans_start_serpent" class="transition" x="160" y="48" width="32" height="16">
   <properties>
    <property name="endTarget" value=""/>
    <property name="start" type="bool" value="true"/>
    <property name="targetLevel" type="int" value="0"/>
   </properties>
  </object>
  <object id="121" name="trans_start" class="transition" x="1808" y="48" width="32" height="16">
   <properties>
    <property name="endTarget" value=""/>
    <property name="start" type="bool" value="true"/>
    <property name="targetLevel" type="int" value="0"/>
   </properties>
  </object>
  <object id="122" class="transition" x="1008" y="48" width="32" height="48">
   <properties>
    <property name="endTarget" value="trans_start_backSerpent"/>
    <property name="start" type="bool" value="false"/>
    <property name="targetLevel" type="int" value="11"/>
   </properties>
  </object>
  <object id="123" class="transition" x="1760" y="960" width="48" height="32">
   <properties>
    <property name="endTarget" value="trans_start"/>
    <property name="start" type="bool" value="false"/>
    <property name="targetLevel" type="int" value="13"/>
   </properties>
  </object>
  <object id="129" name="catalyst1" class="catalyst" x="1010" y="392" width="28" height="8">
   <properties>
    <property name="boostMult" type="float" value="2"/>
    <property name="charged" type="bool" value="false"/>
    <property name="draw" type="bool" value="true"/>
    <property name="startActive" type="bool" value="false"/>
   </properties>
  </object>
  <object id="161" class="spiralDoor" x="1798" y="272" width="16" height="32">
   <properties>
    <property name="startActive" type="bool" value="true"/>
    <property name="teleportTarget" value=""/>
   </properties>
  </object>
  <object id="162" class="reverb" x="570" y="204" width="480" height="480">
   <properties>
    <property name="minRadius" type="float" value="10"/>
    <property name="reverbType" type="int" value="2"/>
    <property name="wetness" type="float" value="4"/>
   </properties>
   <ellipse/>
  </object>
  <object id="163" class="reverb" x="318" y="312" width="327" height="327">
   <properties>
    <property name="minRadius" type="float" value="10"/>
    <property name="reverbType" type="int" value="2"/>
    <property name="wetness" type="float" value="4"/>
   </properties>
   <ellipse/>
  </object>
  <object id="164" class="reverb" x="958" y="327" width="335" height="335">
   <properties>
    <property name="minRadius" type="float" value="10"/>
    <property name="reverbType" type="int" value="2"/>
    <property name="wetness" type="float" value="4"/>
   </properties>
   <ellipse/>
  </object>
  <object id="165" class="reverb" x="1264" y="190" width="694" height="694">
   <properties>
    <property name="minRadius" type="float" value="10"/>
    <property name="reverbType" type="int" value="2"/>
    <property name="wetness" type="float" value="4"/>
   </properties>
   <ellipse/>
  </object>
 </objectgroup>
 <objectgroup color="#00ff00" id="4" name="nodegraph">
  <object id="134" class="node" x="1072" y="592">
   <point/>
  </object>
  <object id="135" class="node" x="768" y="624">
   <point/>
  </object>
  <object id="136" class="node" x="496" y="592">
   <point/>
  </object>
 </objectgroup>
 <objectgroup color="#ffffff" id="12" name="regions"/>
</map>
