<?xml version="1.0" encoding="UTF-8"?>
<map version="1.11" tiledversion="1.11.0" orientation="orthogonal" renderorder="right-down" width="64" height="32" tilewidth="16" tileheight="16" infinite="1" nextlayerid="13" nextobjectid="194">
 <tileset firstgid="1" source="../til/devSet.tsx"/>
 <layer id="5" name="background" width="64" height="32" tintcolor="#433b35">
  <data encoding="csv">
   <chunk x="80" y="0" width="16" height="16">
0,0,0,0,0,0,0,0,0,0,0,0,0,0,0,0,
0,0,0,0,0,0,0,0,0,0,0,0,0,0,0,0,
0,0,0,0,0,0,0,0,0,0,0,0,0,0,0,0,
0,0,0,0,0,0,0,0,0,0,0,0,0,0,0,0,
0,0,0,0,0,0,0,0,0,0,0,0,0,0,0,0,
0,0,0,0,0,0,0,0,0,0,0,0,0,0,0,0,
0,0,0,61,62,62,62,62,62,62,62,62,63,0,0,0,
0,0,0,70,71,71,71,71,71,71,71,71,72,0,0,0,
0,0,0,70,71,71,71,71,71,71,71,71,72,0,0,0,
0,0,0,70,71,71,71,71,71,71,71,71,72,0,0,0,
0,0,0,70,71,71,71,71,71,71,71,71,72,0,0,0,
0,0,0,70,71,71,71,71,71,71,71,71,72,0,0,0,
0,0,0,70,71,71,71,71,71,71,71,71,72,0,0,0,
0,0,0,70,71,71,71,71,71,71,71,71,72,0,0,0,
0,0,0,70,71,71,71,71,71,71,71,71,68,63,0,0,
0,0,0,70,71,71,71,71,71,71,71,71,71,72,0,0
</chunk>
   <chunk x="0" y="16" width="16" height="16">
0,0,0,0,0,0,0,0,0,0,0,0,0,0,0,0,
0,0,0,0,0,0,0,0,0,0,0,0,0,0,0,0,
0,0,0,0,0,0,0,61,62,63,0,0,0,0,0,0,
0,0,0,0,0,0,61,69,71,68,62,62,62,62,62,62,
0,0,0,0,0,0,70,71,71,71,71,71,71,71,71,71,
0,0,0,0,0,0,70,71,71,71,71,71,71,71,71,71,
0,0,0,0,0,0,70,71,71,71,71,71,71,71,71,71,
0,0,0,0,0,0,70,71,71,71,71,71,71,71,71,71,
0,0,0,0,0,0,70,71,71,71,71,71,71,71,71,71,
0,0,0,0,0,0,70,71,71,71,71,71,71,71,71,71,
0,0,0,0,0,0,70,71,71,71,71,71,71,71,71,71,
0,0,0,0,0,0,70,71,71,71,71,71,71,71,71,71,
0,0,0,0,0,0,70,71,71,71,71,71,71,71,71,71,
0,0,0,0,0,0,79,80,80,80,80,80,80,80,80,80,
0,0,0,0,0,0,0,0,0,0,0,0,0,0,0,0,
0,0,0,0,0,0,0,0,0,0,0,0,0,0,0,0
</chunk>
   <chunk x="16" y="16" width="16" height="16">
0,0,0,0,0,0,0,0,0,0,0,0,0,0,0,0,
0,0,0,0,0,0,0,0,0,0,0,0,0,0,0,0,
0,0,0,0,0,0,0,0,0,0,0,0,0,0,0,0,
62,62,62,62,63,0,0,0,0,0,0,0,0,0,0,0,
71,71,71,71,68,62,62,62,62,62,62,62,62,62,62,62,
71,71,71,71,71,71,71,71,71,71,71,71,71,71,71,71,
71,71,71,71,71,71,71,71,71,71,71,71,71,71,71,71,
71,71,71,71,71,71,71,71,71,71,71,71,71,71,71,71,
71,71,71,71,71,71,71,71,71,71,71,71,71,71,71,71,
71,71,71,71,71,59,80,80,80,80,80,80,80,80,80,60,
71,71,71,71,71,72,0,0,0,0,0,0,0,0,0,70,
71,71,71,71,71,72,0,0,0,0,0,0,0,0,0,70,
71,71,71,71,71,72,0,0,0,0,0,0,0,0,0,70,
80,80,80,80,80,81,0,0,0,0,0,0,0,0,0,79,
0,0,0,0,0,0,0,0,0,0,0,0,0,0,0,0,
0,0,0,0,0,0,0,0,0,0,0,0,0,0,0,0
</chunk>
   <chunk x="32" y="16" width="16" height="16">
0,0,0,0,0,0,0,0,0,0,0,0,0,0,0,0,
0,0,0,0,0,0,0,0,0,0,0,0,0,0,0,0,
0,0,0,0,0,0,0,0,0,0,0,0,0,0,0,0,
0,0,0,0,0,0,0,0,0,0,0,0,0,61,62,63,
62,62,62,62,62,62,62,62,62,62,62,62,62,69,71,68,
71,71,71,71,71,71,71,71,71,71,71,71,71,71,71,71,
71,71,71,71,71,71,71,71,71,71,71,71,71,71,71,71,
71,71,71,71,71,71,71,71,71,71,71,71,71,71,71,71,
71,71,71,71,71,71,71,71,71,71,71,71,71,71,71,71,
71,71,71,71,71,71,71,71,71,71,71,71,71,71,71,71,
71,71,71,71,71,71,71,71,71,71,71,71,71,59,80,80,
71,71,71,71,71,71,71,71,71,71,71,71,71,72,0,0,
71,71,71,71,71,71,71,71,71,71,71,71,71,72,0,0,
80,80,80,80,80,80,80,80,80,80,80,80,80,81,0,0,
0,0,0,0,0,0,0,0,0,0,0,0,0,0,0,0,
0,0,0,0,0,0,0,0,0,0,0,0,0,0,0,0
</chunk>
   <chunk x="48" y="16" width="16" height="16">
0,0,0,0,0,0,0,0,0,0,0,0,0,0,0,0,
0,0,0,0,0,0,0,0,0,0,0,0,0,0,0,0,
0,0,0,0,0,0,0,0,0,0,0,0,0,0,0,0,
0,0,0,0,0,0,0,0,0,0,0,0,0,0,0,0,
62,62,62,62,62,62,62,62,62,62,62,62,62,62,62,62,
71,71,71,71,71,71,71,71,71,71,71,71,71,71,71,71,
71,71,71,71,71,71,71,71,71,71,71,71,71,71,71,71,
71,71,71,71,71,71,71,71,71,71,71,71,71,71,71,71,
71,71,71,71,71,71,71,71,71,71,71,71,71,71,71,71,
71,71,71,71,71,71,71,71,71,71,71,71,71,71,71,71,
80,80,80,80,80,80,80,60,71,71,71,71,71,71,71,71,
0,0,0,0,0,0,0,79,80,80,80,80,80,80,80,80,
0,0,0,0,0,0,0,0,0,0,0,0,0,0,0,0,
0,0,0,0,0,0,0,0,0,0,0,0,0,0,0,0,
0,0,0,0,0,0,0,0,0,0,0,0,0,0,0,0,
0,0,0,0,0,0,0,0,0,0,0,0,0,0,0,0
</chunk>
   <chunk x="64" y="16" width="16" height="16">
0,0,0,0,0,0,0,0,0,0,0,0,0,0,0,0,
0,0,0,0,0,0,0,0,0,0,0,0,0,0,0,0,
0,0,0,0,0,0,0,0,0,0,0,0,0,0,0,0,
61,62,62,62,62,62,62,62,62,62,62,62,62,62,62,62,
69,71,71,71,71,71,71,71,71,71,71,71,71,71,71,71,
71,71,71,71,71,71,71,71,71,71,71,71,71,71,71,71,
71,71,71,71,71,71,71,71,71,71,71,71,71,71,71,71,
71,71,71,71,71,71,71,71,71,71,71,71,71,71,71,71,
71,71,71,71,71,71,71,71,71,71,71,71,71,71,71,71,
71,71,71,71,71,71,71,71,71,71,71,71,71,59,80,80,
71,71,71,71,71,71,71,71,71,71,71,71,71,72,0,0,
60,71,71,71,71,71,71,71,71,71,71,71,71,72,0,0,
70,71,71,71,71,71,71,71,71,71,71,71,59,18,0,0,
70,71,71,71,71,71,71,71,71,71,71,71,72,0,0,0,
79,80,80,60,71,71,71,71,71,71,71,59,18,0,0,0,
0,0,0,70,71,71,71,71,71,71,71,72,0,0,0,0
</chunk>
   <chunk x="80" y="16" width="16" height="16">
0,0,0,70,71,71,71,71,71,71,71,71,71,72,0,0,
0,0,0,70,71,71,71,71,71,71,71,71,59,81,0,0,
0,0,0,70,71,71,71,71,71,71,71,71,72,0,0,0,
62,62,62,69,71,71,71,71,71,71,71,71,68,62,62,62,
71,71,71,71,71,71,71,71,71,71,71,71,71,71,71,71,
71,71,71,71,71,71,71,71,71,71,71,71,59,80,80,80,
71,71,71,71,71,71,71,71,71,71,71,71,72,0,0,0,
71,71,71,59,80,80,80,80,80,80,80,80,81,0,0,0,
71,71,71,72,0,0,0,0,0,0,0,0,0,0,0,0,
80,80,80,81,0,0,0,0,0,0,0,0,0,0,0,0,
0,0,0,0,0,0,0,0,0,0,0,0,0,0,0,0,
0,0,0,0,0,0,0,0,0,0,0,0,0,0,0,0,
0,0,0,0,0,0,0,0,0,0,0,0,0,0,0,0,
0,0,0,0,0,0,0,0,0,0,0,0,0,0,0,0,
0,0,0,0,0,0,0,0,0,0,0,0,0,0,0,0,
0,0,0,0,0,0,0,0,0,0,0,0,0,0,0,0
</chunk>
   <chunk x="96" y="16" width="16" height="16">
0,0,0,0,0,0,0,0,0,0,0,0,0,0,0,0,
0,0,0,0,0,0,0,0,0,0,61,62,63,0,0,0,
61,62,62,62,63,0,61,62,62,62,69,71,68,62,62,62,
69,71,71,71,68,62,69,71,71,71,71,71,71,71,71,71,
71,71,71,71,71,71,71,71,71,71,71,71,71,71,71,71,
80,80,80,60,71,71,71,71,71,71,71,71,71,71,71,71,
0,0,0,70,71,71,71,71,71,71,71,71,71,71,71,71,
0,0,0,70,71,71,71,71,71,71,71,71,71,71,71,71,
0,0,0,70,71,71,71,71,71,71,71,71,71,71,71,71,
0,0,0,70,71,71,71,71,71,71,71,71,71,71,71,71,
0,0,0,79,80,80,80,80,80,80,80,80,80,80,80,80,
0,0,0,0,0,0,0,0,0,0,0,0,0,0,0,0,
0,0,0,0,0,0,0,0,0,0,0,0,0,0,0,0,
0,0,0,0,0,0,0,0,0,0,0,0,0,0,0,0,
0,0,0,0,0,0,0,0,0,0,0,0,0,0,0,0,
0,0,0,0,0,0,0,0,0,0,0,0,0,0,0,0
</chunk>
   <chunk x="112" y="16" width="16" height="16">
0,0,0,0,0,61,62,62,62,62,62,62,62,62,62,62,
0,0,0,61,62,69,71,71,71,71,71,71,71,71,71,71,
62,62,62,69,71,71,71,71,71,71,71,71,71,71,71,71,
71,71,71,71,71,71,71,71,71,71,71,71,71,71,71,71,
71,71,71,71,71,71,71,71,71,71,71,71,71,71,71,71,
71,71,71,71,71,71,71,71,71,71,71,71,71,71,71,71,
71,71,71,71,71,71,71,71,71,71,71,71,71,71,71,71,
71,71,71,71,71,71,71,71,71,71,71,71,71,71,71,71,
71,71,71,71,71,71,71,71,71,71,71,71,71,71,71,71,
71,71,71,71,71,71,71,71,71,71,71,71,71,71,71,71,
80,60,71,71,71,71,71,71,71,71,71,71,71,71,71,71,
0,70,71,71,71,71,71,71,71,71,71,71,71,71,71,71,
0,70,71,71,71,71,71,71,71,71,71,71,71,71,71,71,
0,79,80,60,71,71,71,71,71,71,71,71,71,71,71,71,
0,0,0,70,71,71,71,71,71,71,71,71,71,71,71,71,
0,0,0,70,71,71,71,71,71,71,71,71,71,71,71,71
</chunk>
   <chunk x="128" y="16" width="16" height="16">
62,62,62,62,62,62,62,63,0,0,0,0,0,0,0,0,
71,71,71,71,71,71,71,68,62,62,62,62,62,62,62,62,
71,71,71,71,71,71,71,71,71,71,71,71,71,71,71,71,
71,71,71,71,71,71,71,71,71,71,71,71,71,71,71,71,
71,71,71,71,71,71,71,71,71,71,71,71,71,71,71,71,
71,71,71,71,71,71,71,71,71,71,71,71,71,71,71,71,
71,71,71,71,71,71,71,71,71,71,71,71,71,71,71,71,
71,71,71,71,71,71,71,71,71,71,71,71,71,71,71,71,
71,71,71,71,71,71,71,71,71,71,71,71,71,71,71,71,
71,71,71,71,71,71,71,71,71,71,71,71,71,71,71,71,
71,71,71,71,71,71,71,71,71,71,71,71,71,71,71,71,
71,71,71,71,71,71,71,71,71,71,71,71,71,71,71,71,
71,71,71,71,71,71,71,71,71,71,71,71,71,71,71,71,
71,71,71,71,71,71,71,71,71,71,71,71,71,71,71,71,
71,71,71,71,71,71,71,71,71,71,71,71,71,71,71,71,
71,71,71,71,71,71,71,71,71,71,71,71,71,71,71,71
</chunk>
   <chunk x="144" y="16" width="16" height="16">
0,0,0,0,0,0,0,0,0,0,0,0,0,0,0,0,
63,0,0,0,0,0,0,0,0,0,0,0,0,0,0,0,
72,0,0,0,0,61,62,62,62,62,62,62,62,62,62,62,
68,62,62,62,62,69,71,71,71,71,71,71,71,71,71,71,
71,71,71,71,71,71,71,71,71,71,71,71,71,71,71,71,
71,71,71,71,71,71,71,71,71,71,71,71,71,71,71,71,
71,71,71,71,71,71,71,71,71,71,71,71,71,71,71,71,
71,71,71,71,71,71,71,71,71,71,71,71,71,71,71,71,
71,71,71,71,71,71,71,71,71,71,71,71,71,71,71,71,
71,71,71,71,71,71,71,71,71,71,59,80,80,80,80,80,
71,59,80,80,80,80,80,80,80,80,81,0,0,0,0,0,
71,72,0,0,0,0,0,0,0,0,0,0,0,0,0,0,
71,72,0,0,0,0,0,0,0,0,0,0,0,0,0,0,
71,72,0,0,0,0,0,0,0,0,0,0,0,0,0,0,
71,72,0,0,0,0,0,0,0,0,0,0,0,0,0,0,
71,72,0,0,0,0,0,0,0,0,0,0,0,0,0,0
</chunk>
   <chunk x="160" y="16" width="16" height="16">
0,0,0,0,0,0,0,0,0,0,0,0,0,0,0,0,
0,0,0,0,0,0,0,0,0,0,0,0,0,0,0,0,
62,62,62,62,62,62,62,63,0,0,0,0,0,0,0,0,
71,71,71,71,71,71,71,72,0,0,0,0,0,0,0,0,
71,71,71,71,71,71,71,72,0,0,0,0,0,0,0,0,
71,71,71,71,71,71,71,72,0,0,0,0,0,0,0,0,
71,71,71,71,71,71,71,72,0,0,0,0,0,0,0,0,
71,71,71,71,71,71,71,72,0,0,0,0,0,0,0,0,
71,71,71,71,71,71,71,72,0,0,0,0,0,0,0,0,
80,80,80,80,80,80,80,81,0,0,0,0,0,0,0,0,
0,0,0,0,0,0,0,0,0,0,0,0,0,0,0,0,
0,0,0,0,0,0,0,0,0,0,0,0,0,0,0,0,
0,0,0,0,0,0,0,0,0,0,0,0,0,0,0,0,
0,0,0,0,0,0,0,0,0,0,0,0,0,0,0,0,
0,0,0,0,0,0,0,0,0,0,0,0,0,0,0,0,
0,0,0,0,0,0,0,0,0,0,0,0,0,0,0,0
</chunk>
   <chunk x="64" y="32" width="16" height="16">
0,0,0,70,71,71,71,71,71,71,71,72,0,0,0,0,
0,0,0,70,71,71,71,71,71,71,71,72,0,0,0,0,
0,0,0,70,71,71,71,71,71,71,71,68,11,0,0,0,
0,0,0,70,71,71,71,71,71,71,71,71,72,0,0,0,
0,0,0,70,71,71,71,71,71,71,71,71,72,0,0,0,
0,0,0,70,71,71,71,71,71,71,71,71,72,0,0,0,
0,0,0,70,71,71,71,71,71,71,71,71,72,0,0,0,
0,0,0,70,71,71,71,71,71,71,71,71,72,0,0,0,
0,0,0,70,71,71,71,71,71,71,71,71,72,0,0,0,
0,0,0,70,71,71,71,71,71,71,71,71,72,0,0,0,
0,0,0,70,71,71,71,71,71,71,71,71,72,0,0,0,
0,0,0,70,71,71,71,71,71,71,71,71,68,62,62,63,
0,0,0,70,71,71,71,71,71,71,71,71,71,71,71,72,
0,0,0,70,71,71,71,71,71,71,71,71,71,71,71,72,
0,0,0,70,71,71,71,71,71,71,71,71,71,71,71,72,
0,0,0,70,71,71,71,71,71,71,71,71,71,71,71,72
</chunk>
   <chunk x="96" y="32" width="16" height="16">
0,0,0,0,0,0,0,0,0,0,0,0,0,0,0,0,
0,0,0,0,0,0,0,0,0,0,0,0,0,0,0,0,
0,0,0,0,0,0,0,0,0,0,0,0,0,0,0,0,
0,0,0,0,0,0,0,0,0,0,0,0,0,0,0,0,
0,0,0,0,0,0,0,0,0,0,0,0,0,0,0,0,
0,0,0,0,0,0,0,0,0,0,0,0,0,0,0,0,
0,0,0,0,0,0,0,0,0,0,0,0,0,0,0,0,
0,0,0,0,0,0,0,0,0,0,0,0,0,0,0,0,
0,0,0,0,0,0,0,0,0,0,0,0,0,0,0,0,
0,0,0,0,0,0,0,0,0,0,0,0,0,0,0,0,
0,0,0,0,0,0,0,0,0,0,0,0,0,0,0,0,
0,0,0,0,0,0,0,0,61,62,62,62,62,62,62,62,
0,0,0,0,0,0,0,0,70,71,71,71,71,71,71,71,
0,0,0,0,0,0,0,0,79,60,71,71,71,71,71,71,
0,0,0,0,0,61,62,62,62,69,71,71,71,71,71,71,
0,0,0,0,0,70,71,71,71,71,71,71,71,71,71,71
</chunk>
   <chunk x="112" y="32" width="16" height="16">
0,0,0,70,71,71,71,71,71,71,71,71,71,71,71,71,
0,0,0,70,71,71,71,71,71,71,71,71,71,71,71,71,
0,0,0,70,71,71,71,71,71,71,71,71,71,71,71,71,
0,10,62,69,71,71,71,71,71,71,71,71,71,71,71,71,
10,69,71,71,71,71,71,59,80,60,71,71,71,59,80,60,
70,71,71,71,71,71,71,72,0,79,60,71,59,81,0,79,
70,71,71,71,71,71,71,72,0,0,79,80,81,0,0,0,
70,71,71,71,71,71,71,72,0,0,0,0,0,0,0,0,
70,71,71,71,71,71,71,72,0,0,0,0,0,0,0,0,
70,71,71,71,71,71,71,72,0,0,0,0,0,0,0,0,
70,71,71,71,71,59,80,81,0,0,0,0,0,0,0,0,
69,71,71,71,71,72,0,0,0,0,0,0,0,0,0,0,
71,71,71,71,71,72,0,0,0,0,0,0,0,0,0,0,
71,71,59,80,80,81,0,0,0,0,0,0,0,0,0,0,
59,80,81,0,0,0,0,0,0,0,0,0,0,0,0,0,
72,0,0,0,0,0,0,0,0,0,0,0,0,0,0,0
</chunk>
   <chunk x="128" y="32" width="16" height="16">
71,71,71,71,71,71,71,71,71,71,71,71,71,71,71,71,
71,71,71,71,71,71,71,71,71,71,71,71,71,71,71,71,
71,71,71,71,71,71,71,71,71,71,71,71,71,71,71,71,
71,71,71,71,59,60,71,71,71,59,60,71,71,59,80,80,
71,71,71,71,72,79,60,71,71,72,70,71,71,72,0,0,
80,80,80,80,81,0,70,71,59,81,70,71,59,81,0,0,
0,0,0,0,0,0,79,80,81,0,79,80,81,0,0,0,
0,0,0,0,0,0,0,0,0,0,0,0,0,0,0,0,
0,0,0,0,0,0,0,0,0,0,0,0,0,0,0,0,
0,0,0,0,0,0,0,0,0,0,0,0,0,0,0,0,
0,0,0,0,0,0,0,0,0,0,0,0,0,0,0,0,
0,0,0,0,0,0,0,0,0,0,0,0,0,0,0,0,
0,0,0,0,0,0,0,0,0,0,0,0,0,0,0,0,
0,0,0,0,0,0,0,0,0,0,0,0,0,0,0,0,
0,0,0,0,0,0,0,0,0,0,0,0,0,0,0,0,
0,0,0,0,0,0,0,0,0,0,0,0,0,0,0,0
</chunk>
   <chunk x="144" y="32" width="16" height="16">
71,72,0,0,0,0,0,0,0,0,0,0,0,0,0,0,
71,72,0,0,0,0,0,0,0,0,0,0,0,0,0,0,
71,72,0,0,0,0,0,0,0,0,0,0,0,0,0,0,
80,81,0,0,0,0,0,0,0,0,0,0,0,0,0,0,
0,0,0,0,0,0,0,0,0,0,0,0,0,0,0,0,
0,0,0,0,0,0,0,0,0,0,0,0,0,0,0,0,
0,0,0,0,0,0,0,0,0,0,0,0,0,0,0,0,
0,0,0,0,0,0,0,0,0,0,0,0,0,0,0,0,
0,0,0,0,0,0,0,0,0,0,0,0,0,0,0,0,
0,0,0,0,0,0,0,0,0,0,0,0,0,0,0,0,
0,0,0,0,0,0,0,0,0,0,0,0,0,0,0,0,
0,0,0,0,0,0,0,0,0,0,0,0,0,0,0,0,
0,0,0,0,0,0,0,0,0,0,0,0,0,0,0,0,
0,0,0,0,0,0,0,0,0,0,0,0,0,0,0,0,
0,0,0,0,0,0,0,0,0,0,0,0,0,0,0,0,
0,0,0,0,0,0,0,0,0,0,0,0,0,0,0,0
</chunk>
   <chunk x="64" y="48" width="16" height="16">
0,0,0,70,71,71,71,71,71,71,71,71,71,71,71,72,
0,0,0,70,71,71,71,71,71,71,59,80,80,80,80,81,
0,0,0,70,71,71,71,71,71,71,72,0,0,0,0,0,
0,0,0,70,71,71,71,71,71,71,72,0,0,0,0,0,
0,0,0,70,71,71,71,71,71,71,72,0,0,0,0,0,
0,0,0,70,71,71,71,71,71,71,72,0,0,0,0,0,
0,0,0,70,71,71,71,71,71,71,72,0,0,0,0,0,
0,0,0,70,71,71,71,71,71,71,72,0,0,0,0,0,
0,0,0,70,71,71,71,71,71,71,72,0,0,0,0,0,
0,0,61,69,71,71,71,71,71,71,72,0,0,0,0,0,
0,0,70,71,71,71,71,71,71,71,72,0,0,0,0,0,
0,0,70,71,71,71,71,71,71,71,72,0,0,0,0,0,
0,0,70,71,71,71,71,71,71,59,18,0,0,0,0,0,
0,0,70,71,71,71,71,71,59,18,0,0,0,0,0,0,
0,0,70,71,71,71,71,71,72,0,0,0,0,0,0,0,
0,0,70,71,71,71,71,71,72,0,0,0,0,0,0,0
</chunk>
   <chunk x="96" y="48" width="16" height="16">
0,0,0,0,0,79,60,71,71,71,71,71,71,71,71,71,
0,0,0,0,0,0,27,80,60,71,71,71,71,71,71,71,
0,0,0,0,0,0,0,0,27,80,60,71,71,71,71,59,
0,0,0,0,0,0,0,0,0,0,27,60,71,71,71,68,
0,0,0,0,0,0,0,0,0,0,0,27,80,60,71,71,
0,0,0,0,0,0,0,0,0,0,0,0,0,27,80,80,
0,0,0,0,0,0,0,0,0,0,0,0,0,0,0,0,
0,0,0,0,0,0,0,0,0,0,0,0,0,0,0,0,
0,0,0,0,0,0,0,0,0,0,0,0,0,0,0,0,
0,0,0,0,0,0,0,0,0,0,0,0,0,0,0,0,
0,0,0,0,0,0,0,0,0,0,0,0,0,0,0,0,
0,0,0,0,0,0,0,0,0,0,0,0,0,0,0,0,
0,0,0,0,0,0,0,0,0,0,0,0,0,0,0,0,
0,0,0,0,0,0,0,0,0,0,0,0,0,0,0,0,
0,0,0,0,0,0,0,0,0,0,0,0,0,0,0,0,
0,0,0,0,0,0,0,0,0,0,0,0,0,0,0,0
</chunk>
   <chunk x="112" y="48" width="16" height="16">
68,63,0,0,0,0,0,0,0,0,0,0,0,0,0,0,
71,72,0,0,0,0,0,0,0,0,0,0,0,0,0,0,
80,81,0,0,0,0,0,0,0,0,0,0,0,0,0,0,
63,0,0,0,0,0,0,0,0,0,0,0,0,0,0,0,
72,0,0,0,0,0,0,0,0,0,0,0,0,0,0,0,
81,0,0,0,0,0,0,0,0,0,0,0,0,0,0,0,
0,0,0,0,0,0,0,0,0,0,0,0,0,0,0,0,
0,0,0,0,0,0,0,0,0,0,0,0,0,0,0,0,
0,0,0,0,0,0,0,0,0,0,0,0,0,0,0,0,
0,0,0,0,0,0,0,0,0,0,0,0,0,0,0,0,
0,0,0,0,0,0,0,0,0,0,0,0,0,0,0,0,
0,0,0,0,0,0,0,0,0,0,0,0,0,0,0,0,
0,0,0,0,0,0,0,0,0,0,0,0,0,0,0,0,
0,0,0,0,0,0,0,0,0,0,0,0,0,0,0,0,
0,0,0,0,0,0,0,0,0,0,0,0,0,0,0,0,
0,0,0,0,0,0,0,0,0,0,0,0,0,0,0,0
</chunk>
   <chunk x="128" y="48" width="16" height="16">
0,0,0,0,0,0,0,0,0,0,0,0,0,0,0,0,
0,0,0,0,0,0,0,0,0,0,0,61,62,63,0,0,
0,0,0,0,0,0,0,0,0,0,0,70,71,72,0,0,
0,0,0,0,0,0,0,0,0,0,0,70,71,72,0,0,
0,0,0,0,0,0,0,0,0,0,61,69,71,72,0,0,
0,0,0,0,0,0,0,0,0,0,70,71,71,72,0,0,
0,0,0,0,0,0,0,0,0,0,70,71,71,72,0,0,
0,0,0,0,0,0,0,0,0,0,70,71,71,72,0,0,
0,0,0,0,0,0,0,0,0,0,70,71,71,72,0,0,
0,0,0,0,0,0,0,0,0,0,70,71,59,18,0,0,
0,0,0,0,0,0,0,0,0,0,70,71,72,0,0,0,
0,0,0,0,0,0,0,0,0,0,70,71,72,0,0,0,
0,0,0,0,0,0,0,0,0,0,70,71,72,0,0,0,
0,0,0,0,0,0,0,0,0,0,70,71,72,0,0,0,
0,0,0,0,0,0,0,0,0,61,69,71,72,0,0,0,
0,0,0,0,0,0,0,0,0,70,71,71,72,0,0,0
</chunk>
   <chunk x="64" y="64" width="16" height="16">
0,0,70,71,71,71,71,71,72,0,0,0,0,0,0,0,
0,0,70,71,71,71,71,71,72,0,0,0,0,0,0,0,
0,0,70,71,71,71,71,71,72,0,0,0,0,0,0,0,
0,0,70,71,71,71,71,71,71,71,71,71,72,0,0,0,
0,0,70,71,71,71,71,71,71,71,71,71,72,0,0,0,
0,0,70,71,71,71,71,71,71,59,80,80,81,0,0,0,
0,0,70,71,71,71,71,71,71,72,0,0,0,0,0,0,
0,0,70,71,71,71,71,71,71,72,0,0,0,0,0,0,
0,0,70,71,71,71,71,71,71,72,0,0,0,0,0,0,
0,0,79,60,71,71,71,71,71,72,0,0,0,0,0,0,
0,0,0,70,71,71,71,71,71,72,0,0,0,0,0,0,
0,0,0,79,60,71,71,71,71,72,0,0,0,0,0,0,
0,0,0,0,79,80,80,60,71,72,0,0,0,0,0,0,
0,0,0,0,0,0,0,70,71,72,0,0,0,0,0,0,
0,0,0,0,0,0,0,79,80,81,0,0,0,0,0,0,
0,0,0,0,0,0,0,0,0,0,0,0,0,0,0,0
</chunk>
   <chunk x="96" y="64" width="16" height="16">
0,0,0,0,0,0,0,0,0,0,0,0,0,0,0,0,
0,0,0,0,0,0,0,0,0,61,62,62,62,62,63,0,
0,0,0,0,0,0,0,0,0,70,71,71,71,71,72,0,
0,0,0,0,0,0,0,0,0,27,60,71,71,71,72,0,
0,0,0,0,0,0,0,0,0,0,27,60,71,71,68,63,
0,0,0,0,0,0,0,0,0,0,0,70,71,71,71,68,
0,0,0,0,0,0,0,0,0,0,0,70,71,71,71,71,
0,0,0,0,0,0,0,0,0,0,0,70,71,71,71,71,
0,0,0,0,0,0,0,0,0,0,0,70,71,71,71,71,
0,0,0,0,0,0,0,0,0,0,0,70,71,71,71,71,
0,0,0,0,0,0,0,0,0,0,0,70,71,71,71,71,
0,0,0,0,0,0,0,0,0,0,0,70,71,71,71,71,
0,0,0,0,0,0,0,0,0,0,0,70,71,71,71,71,
0,0,0,0,0,0,0,0,0,0,0,70,71,59,60,71,
0,0,0,0,0,0,0,0,0,0,0,79,80,81,79,80,
0,0,0,0,0,0,0,0,0,0,0,0,0,0,0,0
</chunk>
   <chunk x="112" y="64" width="16" height="16">
0,0,0,0,0,0,0,0,0,0,0,0,0,0,0,0,
0,0,0,0,0,0,0,0,0,0,0,0,0,0,0,0,
0,0,0,0,0,0,0,0,0,0,0,0,0,0,0,0,
0,0,0,0,0,0,0,0,0,0,0,0,0,0,0,0,
0,0,0,0,0,0,0,0,0,0,0,0,0,0,0,0,
63,0,0,0,0,0,0,0,0,0,0,0,0,0,0,0,
68,63,0,0,0,0,0,0,0,0,0,0,0,0,0,0,
71,68,62,62,62,62,62,62,62,62,62,62,62,63,0,61,
71,71,71,71,71,71,71,71,71,71,71,71,71,68,62,69,
71,71,71,71,71,71,71,71,71,71,71,71,71,71,71,71,
71,71,71,71,71,71,71,71,71,71,71,71,71,71,71,71,
71,71,71,71,71,71,71,71,71,71,71,71,71,71,71,71,
71,71,71,71,71,71,71,71,71,71,71,71,71,71,71,71,
71,71,71,71,71,71,71,71,71,71,71,71,71,71,71,71,
80,80,60,71,71,71,71,71,71,71,71,71,71,71,71,71,
0,0,79,80,60,71,71,71,71,71,71,71,71,71,71,71
</chunk>
   <chunk x="128" y="64" width="16" height="16">
0,0,0,0,0,0,0,0,0,70,71,71,68,63,0,0,
0,0,0,0,0,0,0,0,0,70,71,71,71,72,0,0,
0,0,0,0,0,0,0,0,0,70,71,71,71,72,0,0,
0,0,0,0,0,0,0,0,0,70,71,71,71,72,0,0,
0,0,0,0,0,0,0,0,0,70,71,71,71,72,0,0,
0,0,0,0,0,0,0,0,0,70,71,71,71,72,0,0,
0,0,0,0,0,0,0,0,0,70,71,71,71,72,0,0,
62,62,62,62,62,62,62,62,62,69,71,71,71,72,0,0,
71,71,71,71,71,71,71,71,71,71,71,71,71,72,0,0,
71,71,71,71,71,71,71,71,71,71,71,71,59,18,0,0,
71,71,71,71,71,71,71,71,71,71,59,80,18,0,0,0,
71,71,71,71,71,71,71,71,71,71,72,0,0,0,0,0,
71,71,71,71,71,71,71,71,71,71,72,0,0,0,0,0,
71,71,71,71,71,71,71,71,71,71,72,0,0,0,0,0,
71,71,71,71,71,71,71,71,71,71,72,0,0,0,0,0,
71,71,71,71,71,59,80,80,80,80,81,0,0,0,0,0
</chunk>
   <chunk x="96" y="80" width="16" height="16">
0,0,0,0,0,0,0,0,0,0,0,0,0,0,0,0,
0,0,0,0,0,0,0,0,0,0,0,0,0,0,0,0,
0,0,0,0,0,0,0,0,0,0,0,0,0,0,0,0,
0,0,0,0,0,0,0,0,0,0,61,62,62,63,0,0,
0,0,0,0,0,0,0,0,0,0,70,71,71,68,62,62,
0,0,0,0,0,0,0,0,0,0,70,71,71,71,71,71,
0,0,0,0,0,0,0,0,0,0,70,71,71,71,71,71,
0,0,0,0,0,0,0,0,0,0,70,71,71,71,71,71,
0,0,0,0,0,0,0,0,0,0,70,71,71,71,71,71,
0,0,0,0,0,0,0,0,0,0,70,71,71,71,71,71,
0,0,0,0,0,0,0,0,0,0,27,60,71,71,71,71,
0,0,0,0,0,0,0,0,0,0,0,27,60,71,71,71,
0,0,0,0,0,0,0,0,0,0,0,0,27,60,71,71,
0,0,0,0,0,0,0,0,0,0,0,0,0,27,80,80,
0,0,0,0,0,0,0,0,0,0,0,0,0,0,0,0,
0,0,0,0,0,0,0,0,0,0,0,0,0,0,0,0
</chunk>
   <chunk x="112" y="80" width="16" height="16">
0,0,0,0,79,80,80,80,80,80,80,60,71,71,71,59,
0,0,0,0,0,0,0,0,0,0,0,79,80,80,80,81,
0,0,0,0,0,0,0,0,0,0,0,0,0,0,0,0,
0,0,0,0,0,0,0,0,0,0,0,0,0,0,0,0,
63,0,0,0,0,0,0,0,0,0,0,0,0,0,0,0,
72,0,0,0,0,0,0,0,0,0,0,0,0,0,0,0,
72,0,0,0,0,0,0,0,0,0,0,0,0,0,0,61,
72,0,0,0,0,0,0,0,0,0,0,0,61,62,62,69,
68,62,62,62,62,62,62,62,62,62,62,62,69,71,71,71,
71,71,71,71,71,71,71,71,71,71,71,71,71,71,71,71,
71,71,71,71,71,71,71,71,71,71,71,71,71,71,71,71,
71,71,71,71,71,71,71,71,71,71,71,71,71,71,71,71,
71,71,71,71,71,71,71,71,71,71,71,71,71,71,71,71,
80,60,71,71,71,71,71,71,71,71,71,71,71,71,71,71,
0,79,80,80,80,80,80,80,80,80,80,80,80,80,80,80,
0,0,0,0,0,0,0,0,0,0,0,0,0,0,0,0
</chunk>
   <chunk x="128" y="80" width="16" height="16">
80,80,80,80,80,81,0,0,0,0,0,0,0,0,0,0,
0,0,0,0,0,0,0,0,0,0,0,0,0,0,0,0,
0,0,0,0,0,0,0,0,0,0,0,0,0,0,0,0,
0,0,0,0,0,0,0,0,0,0,0,0,0,0,0,0,
0,0,0,0,0,0,0,0,0,61,62,63,0,0,0,0,
0,0,0,61,62,62,62,62,62,69,71,72,0,0,0,0,
62,62,62,69,71,71,71,71,71,71,71,72,0,0,0,0,
71,71,71,71,71,71,71,71,71,71,71,72,0,0,0,0,
71,71,71,71,71,71,71,71,71,71,71,72,0,0,0,0,
71,71,71,71,71,71,71,71,71,71,59,18,0,0,0,0,
71,71,71,71,71,71,71,71,71,71,72,0,0,0,0,0,
71,71,71,71,71,71,71,71,71,71,72,0,0,0,0,0,
71,71,71,71,71,71,71,71,71,59,18,0,0,0,0,0,
71,71,71,71,71,71,71,71,71,72,0,0,0,0,0,0,
80,80,60,71,71,71,71,71,71,72,0,0,0,0,0,0,
0,0,79,80,80,80,80,80,80,81,0,0,0,0,0,0
</chunk>
   <chunk x="144" y="80" width="16" height="16">
0,0,0,0,0,0,0,0,0,0,0,0,0,0,0,0,
0,0,0,0,0,0,0,0,0,0,0,0,0,0,0,0,
0,0,0,0,0,0,0,0,0,0,0,0,0,0,0,0,
0,0,0,0,0,0,0,0,0,0,0,0,0,0,0,0,
0,0,0,0,0,0,0,0,0,0,0,0,0,0,0,0,
0,0,0,0,0,0,0,0,0,0,0,0,0,0,0,0,
0,0,0,0,0,0,0,0,0,0,0,0,0,0,0,0,
0,0,0,0,0,0,0,0,0,0,0,0,0,0,0,0,
0,0,0,0,0,0,0,0,0,0,0,0,0,0,0,0,
0,0,0,0,0,0,12,13,62,62,62,14,15,0,0,0,
0,0,0,0,0,10,69,71,71,71,71,71,68,11,0,0,
0,0,0,0,10,69,71,71,71,71,71,71,71,68,11,0,
0,0,0,0,70,71,71,71,71,71,71,71,71,71,72,0,
0,0,0,0,70,71,71,71,71,71,71,71,71,59,18,0,
0,0,0,0,70,71,71,71,71,71,71,71,71,72,0,0,
0,0,0,0,27,80,60,71,71,71,71,71,71,72,0,0
</chunk>
   <chunk x="16" y="96" width="16" height="16">
0,0,0,0,0,0,0,0,0,0,0,0,0,0,0,0,
0,0,0,0,0,0,0,0,0,0,0,0,0,0,0,0,
0,0,0,0,0,0,0,0,0,0,0,0,0,0,0,0,
0,0,0,0,0,0,0,0,0,0,0,0,0,0,0,0,
0,0,0,0,0,0,0,0,0,0,0,0,0,0,0,0,
0,0,0,0,0,0,0,0,0,0,0,0,0,0,0,0,
0,0,0,0,0,0,0,0,0,0,0,0,0,0,0,0,
0,0,0,0,0,0,0,0,0,0,0,0,0,0,0,0,
0,0,0,0,0,0,0,0,0,0,0,0,0,0,0,0,
0,0,0,0,0,0,0,0,0,0,0,0,0,0,0,0,
0,0,0,0,0,0,0,0,0,61,62,62,62,62,63,0,
0,0,0,0,0,0,0,0,0,70,71,71,71,71,72,0,
61,62,62,62,62,62,62,62,62,69,71,71,71,71,72,0,
70,71,71,71,71,71,71,71,71,71,71,71,71,71,72,0,
70,71,71,71,71,71,71,71,71,71,71,71,71,71,72,0,
70,71,71,71,71,71,71,71,71,71,71,71,71,71,72,0
</chunk>
   <chunk x="144" y="96" width="16" height="16">
0,0,0,0,0,0,70,71,71,71,71,71,71,72,0,0,
0,0,0,0,0,0,70,71,71,71,71,71,59,18,0,0,
0,0,0,0,0,0,70,71,71,71,71,71,72,0,0,0,
0,0,0,0,0,0,70,71,71,71,71,71,72,0,0,0,
0,0,0,0,0,0,27,60,71,71,71,71,72,0,0,0,
0,0,0,0,0,0,0,70,71,71,71,71,72,0,0,0,
0,0,0,0,0,0,0,27,60,71,71,71,72,0,0,0,
0,0,0,0,0,0,0,0,70,71,71,71,72,0,0,0,
0,0,0,0,0,0,0,10,69,71,71,71,72,0,0,0,
0,0,0,0,0,0,0,70,71,71,59,80,81,0,0,0,
0,0,0,0,0,0,0,70,71,71,72,0,0,0,0,0,
0,0,0,0,0,0,0,70,71,71,72,0,0,0,0,0,
0,0,0,0,0,0,0,79,60,71,72,0,0,0,0,0,
0,0,0,0,0,0,0,0,70,71,72,0,0,0,0,0,
0,0,0,0,0,0,0,0,70,71,72,0,0,0,0,0,
0,0,0,0,0,0,0,0,70,71,72,0,0,0,0,0
</chunk>
   <chunk x="16" y="112" width="16" height="16">
70,71,71,71,71,71,71,71,71,71,71,71,71,71,72,0,
70,71,71,71,71,71,71,71,71,71,71,71,71,71,72,0,
79,80,80,80,80,80,80,80,80,80,80,80,80,80,81,0,
0,0,0,0,0,0,0,0,0,0,0,0,0,0,0,0,
0,0,0,0,0,0,0,0,0,0,0,0,0,0,0,0,
0,0,0,0,0,0,0,0,0,0,0,0,0,0,0,0,
0,0,0,0,0,0,0,0,0,0,0,0,0,0,0,0,
0,0,0,0,0,0,0,0,0,0,0,0,0,0,0,0,
0,0,0,0,0,0,0,0,0,0,0,0,0,0,0,0,
0,0,0,0,0,0,0,0,0,0,0,0,0,0,0,0,
0,0,0,0,0,0,0,0,0,0,0,0,0,0,0,0,
0,0,0,0,0,0,0,0,0,0,0,0,0,0,0,0,
0,0,0,0,0,0,0,0,0,0,0,0,0,0,0,0,
0,0,0,0,0,0,0,0,0,0,0,0,0,0,0,0,
0,0,0,0,0,0,0,0,0,0,0,0,0,0,0,0,
0,0,0,0,0,0,0,0,0,0,0,0,0,0,0,0
</chunk>
   <chunk x="144" y="112" width="16" height="16">
0,0,0,0,0,0,0,0,70,71,72,0,0,0,0,0,
0,0,0,0,0,0,0,0,70,71,72,0,0,0,0,0,
0,0,0,0,0,0,0,0,79,80,81,0,0,0,0,0,
0,0,0,0,0,0,0,0,0,0,0,0,0,0,0,0,
0,0,0,0,0,0,0,0,0,0,0,0,0,0,0,0,
0,0,0,0,0,0,0,0,0,0,0,0,0,0,0,0,
0,0,0,0,0,0,0,0,0,0,0,0,0,0,0,0,
0,0,0,0,0,0,0,0,0,0,0,0,0,0,0,0,
0,0,0,0,0,0,0,0,0,0,0,0,0,0,0,0,
0,0,0,0,0,0,0,0,0,0,0,0,0,0,0,0,
0,0,0,0,0,0,0,0,0,0,0,0,0,0,0,0,
0,0,0,0,0,0,0,0,0,0,0,0,0,0,0,0,
0,0,0,0,0,0,0,0,0,0,0,0,0,0,0,0,
0,0,0,0,0,0,0,0,0,0,0,0,0,0,0,0,
0,0,0,0,0,0,0,0,0,0,0,0,0,0,0,0,
0,0,0,0,0,0,0,0,0,0,0,0,0,0,0,0
</chunk>
  </data>
 </layer>
 <layer id="1" name="ground" width="64" height="32">
  <data encoding="csv">
   <chunk x="0" y="0" width="16" height="16">
47,0,0,0,0,0,0,0,0,0,0,0,0,0,0,0,
0,0,0,0,0,0,0,0,0,0,0,0,0,0,0,0,
0,0,0,0,0,0,0,0,0,0,0,0,0,0,0,0,
0,0,0,0,0,0,0,0,0,0,0,0,0,0,0,0,
0,0,0,0,0,0,0,0,0,0,0,0,0,0,0,0,
0,0,0,0,0,0,0,0,0,0,0,0,0,0,0,0,
0,0,0,0,0,0,0,0,0,0,0,0,0,0,0,0,
0,0,0,0,0,0,0,0,0,0,0,0,0,0,0,0,
0,0,0,0,0,0,0,0,0,0,0,0,0,0,0,0,
0,0,0,0,0,0,0,0,0,0,0,0,0,0,0,0,
0,0,0,0,0,0,0,0,0,0,0,0,0,0,0,0,
0,0,0,0,0,0,0,0,0,0,0,0,0,0,0,0,
0,0,0,0,0,0,0,0,0,0,0,0,0,0,0,0,
0,0,0,0,0,0,0,0,0,0,0,0,0,0,0,0,
0,0,0,0,0,0,0,0,0,0,0,0,0,0,0,0,
0,0,0,0,0,0,0,0,0,0,0,0,0,0,0,0
</chunk>
  </data>
 </layer>
 <layer id="2" name="collision" width="64" height="32">
  <data encoding="csv">
   <chunk x="0" y="0" width="16" height="16">
0,0,0,0,70,71,71,71,71,71,71,71,71,71,71,71,
0,0,0,0,70,71,71,71,71,71,71,71,71,71,71,71,
0,0,0,0,70,71,71,71,71,71,71,71,71,71,71,71,
0,0,0,0,70,71,71,71,71,71,71,71,71,71,71,71,
0,0,0,0,70,71,71,71,71,71,71,71,71,71,71,71,
0,0,0,0,70,71,71,71,71,71,71,71,71,71,71,71,
0,0,0,0,70,71,71,71,71,71,71,71,71,71,71,71,
0,0,0,0,70,71,71,71,71,71,71,71,71,71,71,71,
0,0,0,0,70,71,71,71,71,71,71,71,71,71,71,71,
0,0,0,0,70,71,71,71,71,71,71,71,71,71,71,71,
0,0,0,0,70,71,71,71,71,71,71,71,71,71,71,71,
0,0,0,0,70,71,71,71,71,71,71,71,71,71,71,71,
0,0,0,0,70,71,71,71,71,71,71,71,71,71,71,71,
0,0,0,0,70,71,71,71,71,71,71,71,71,71,71,71,
0,0,0,0,70,71,71,71,71,71,71,71,71,71,71,71,
0,0,0,0,70,71,71,71,71,71,71,71,71,71,71,71
</chunk>
   <chunk x="16" y="0" width="16" height="16">
71,71,71,71,71,71,71,71,71,71,71,71,71,71,71,71,
71,71,71,71,71,71,71,71,71,71,71,71,71,71,71,71,
71,71,71,71,71,71,71,71,71,71,71,71,71,71,71,71,
71,71,71,71,71,71,71,71,71,71,71,71,71,71,71,71,
71,71,71,71,71,71,71,71,71,71,71,71,71,71,71,71,
71,71,71,71,71,71,71,71,71,71,71,71,71,71,71,71,
71,71,71,71,71,71,71,71,71,71,71,71,71,71,71,71,
71,71,71,71,71,71,71,71,71,71,71,71,71,71,71,71,
71,71,71,71,71,71,71,71,71,71,71,71,71,71,71,71,
71,71,71,71,71,71,71,71,71,71,71,71,71,71,71,71,
71,71,71,71,71,71,71,71,71,71,71,71,71,71,71,71,
71,71,71,71,71,71,71,71,71,71,71,71,71,71,71,71,
71,71,71,71,71,71,71,71,71,71,71,71,71,71,71,71,
71,71,71,71,71,71,71,71,71,71,71,71,71,71,71,71,
71,71,71,71,71,71,71,71,71,71,71,71,71,71,71,71,
71,71,71,71,71,71,71,71,71,71,71,71,71,71,71,71
</chunk>
   <chunk x="32" y="0" width="16" height="16">
71,71,71,71,71,71,71,71,71,71,71,71,71,71,71,71,
71,71,71,71,71,71,71,71,71,71,71,71,71,71,71,71,
71,71,71,71,71,71,71,71,71,71,71,71,71,71,71,71,
71,71,71,71,71,71,71,71,71,71,71,71,71,71,71,71,
71,71,71,71,71,71,71,71,71,71,71,71,71,71,71,71,
71,71,71,71,71,71,71,71,71,71,71,71,71,71,71,71,
71,71,71,71,71,71,71,71,71,71,71,71,71,71,71,71,
71,71,71,71,71,71,71,71,71,71,71,71,71,71,71,71,
71,71,71,71,71,71,71,71,71,71,71,71,71,71,71,71,
71,71,71,71,71,71,71,71,71,71,71,71,71,71,71,71,
71,71,71,71,71,71,71,71,71,71,71,71,71,71,71,71,
71,71,71,71,71,71,71,71,71,71,71,71,71,71,71,71,
71,71,71,71,71,71,71,71,71,71,71,71,71,71,71,71,
71,71,71,71,71,71,71,71,71,71,71,71,71,71,71,71,
71,71,71,71,71,71,71,71,71,71,71,71,71,71,71,71,
71,71,71,71,71,71,71,71,71,71,71,71,71,71,71,71
</chunk>
   <chunk x="48" y="0" width="16" height="16">
71,71,71,71,71,71,71,71,71,71,71,71,71,71,71,71,
71,71,71,71,71,71,71,71,71,71,71,71,71,71,71,71,
71,71,71,71,71,71,71,71,71,71,71,71,71,71,71,71,
71,71,71,71,71,71,71,71,71,71,71,71,71,71,71,71,
71,71,71,71,71,71,71,71,71,71,71,71,71,71,71,71,
71,71,71,71,71,71,71,71,71,71,71,71,71,71,71,71,
71,71,71,71,71,71,71,71,71,71,71,71,71,71,71,71,
71,71,71,71,71,71,71,71,71,71,71,71,71,71,71,71,
71,71,71,71,71,71,71,71,71,71,71,71,71,71,71,71,
71,71,71,71,71,71,71,71,71,71,71,71,71,71,71,71,
71,71,71,71,71,71,71,71,71,71,71,71,71,71,71,71,
71,71,71,71,71,71,71,71,71,71,71,71,71,71,71,71,
71,71,71,71,71,71,71,71,71,71,71,71,71,71,71,71,
71,71,71,71,71,71,71,71,71,71,71,71,71,71,71,71,
71,71,71,71,71,71,71,71,71,71,71,71,71,71,71,71,
71,71,71,71,71,71,71,71,71,71,71,71,71,71,71,71
</chunk>
   <chunk x="64" y="0" width="16" height="16">
71,71,71,71,71,71,71,71,71,71,71,71,71,71,71,71,
71,71,71,71,71,71,71,71,71,71,71,71,71,71,71,71,
71,71,71,71,71,71,71,71,71,71,71,71,71,71,71,71,
71,71,71,71,71,71,71,71,71,71,71,71,71,71,71,71,
71,71,71,71,71,71,71,71,71,71,71,71,71,71,71,71,
71,71,71,71,71,71,71,71,71,71,71,71,71,71,71,71,
71,71,71,71,71,71,71,71,71,71,71,71,71,71,71,71,
71,71,71,71,71,71,71,71,71,71,71,71,71,71,71,71,
71,71,71,71,71,71,71,71,71,71,71,71,71,71,71,71,
71,71,71,71,71,71,71,71,71,71,71,71,71,71,71,71,
71,71,71,71,71,71,71,71,71,71,71,71,71,71,71,71,
71,71,71,71,71,71,71,71,71,71,71,71,71,71,71,71,
71,71,71,71,71,71,71,71,71,71,71,71,71,71,71,71,
71,71,71,71,71,71,71,71,71,71,71,71,71,71,71,71,
71,71,71,71,71,71,71,71,71,71,71,71,71,71,71,71,
71,71,71,71,71,71,71,71,71,71,71,71,71,71,71,71
</chunk>
   <chunk x="80" y="0" width="16" height="16">
71,71,71,71,71,71,71,71,71,71,71,71,71,71,71,71,
71,71,71,71,71,71,71,71,71,71,71,71,71,71,71,71,
71,71,71,71,71,71,71,71,71,71,71,71,71,71,71,71,
71,71,71,71,71,71,71,71,71,71,71,71,71,71,71,71,
71,71,71,71,71,71,71,71,71,71,71,71,71,71,71,71,
71,71,71,71,71,71,71,71,71,71,71,71,71,71,71,71,
71,71,71,59,80,80,80,80,80,80,80,80,60,71,71,71,
71,71,71,72,0,0,0,0,0,0,0,0,70,71,71,71,
71,71,71,72,0,0,0,0,0,0,0,0,70,71,71,71,
71,71,71,72,0,0,0,0,0,0,0,0,70,71,71,71,
71,71,71,72,0,0,0,0,0,0,0,0,70,71,71,71,
71,71,71,72,0,0,0,0,0,0,0,0,70,71,71,71,
71,71,71,72,0,0,0,0,0,0,0,0,70,71,71,71,
71,71,71,72,0,0,0,0,0,0,0,0,70,71,71,71,
71,71,71,72,0,0,0,0,0,0,0,0,70,71,71,71,
71,71,71,72,0,0,0,0,0,0,0,0,70,71,71,71
</chunk>
   <chunk x="96" y="0" width="16" height="16">
71,71,71,71,71,71,71,71,71,71,71,71,71,71,71,71,
71,71,71,71,71,71,71,71,71,71,71,71,71,71,71,71,
71,71,71,71,71,71,71,71,71,71,71,71,71,71,71,71,
71,71,71,71,71,71,71,71,71,71,71,71,71,71,71,71,
71,71,71,71,71,71,71,71,71,71,71,71,71,71,71,71,
71,71,71,71,71,71,71,71,71,71,71,71,71,71,71,71,
71,71,71,71,71,71,71,71,71,71,71,71,71,71,71,71,
71,71,71,71,71,71,71,71,71,71,71,71,71,71,71,71,
71,71,71,71,71,71,71,71,71,71,71,71,71,71,71,71,
71,71,71,71,71,71,71,71,71,71,71,71,71,71,71,71,
71,71,71,71,71,71,71,71,71,71,71,71,71,71,71,71,
71,71,71,71,71,71,71,71,71,71,71,71,71,71,71,71,
71,71,71,71,71,71,71,71,71,71,71,71,71,71,71,71,
71,71,71,71,71,71,71,71,71,71,71,71,71,71,71,71,
71,71,71,71,71,71,71,71,71,71,71,71,71,71,71,71,
71,71,71,71,71,71,71,71,71,71,71,71,71,71,71,71
</chunk>
   <chunk x="112" y="0" width="16" height="16">
71,71,71,71,71,71,71,71,71,71,71,71,71,71,71,71,
71,71,71,71,71,71,71,71,71,71,71,71,71,71,71,71,
71,71,71,71,71,71,71,71,71,71,71,71,71,71,71,71,
71,71,71,71,71,71,71,71,71,71,71,71,71,71,71,71,
71,71,71,71,71,71,71,71,71,71,71,71,71,71,71,71,
71,71,71,71,71,71,71,71,71,71,71,71,71,71,71,71,
71,71,71,71,71,71,71,71,71,71,71,71,71,71,71,71,
71,71,71,71,71,71,71,71,71,71,71,71,71,71,71,71,
71,71,71,71,71,71,71,71,71,71,71,71,71,71,71,71,
71,71,71,71,71,71,71,71,71,71,71,71,71,71,71,71,
71,71,71,71,71,71,71,71,71,71,71,71,71,71,71,71,
71,71,71,71,71,71,71,71,71,71,71,71,71,71,71,71,
71,71,71,71,71,71,71,71,71,71,71,71,71,71,71,71,
71,71,71,71,71,71,71,71,71,71,71,71,71,71,71,71,
71,71,71,71,71,71,71,71,71,71,71,71,71,71,71,71,
71,71,71,71,71,71,71,71,71,71,71,71,71,71,71,71
</chunk>
   <chunk x="128" y="0" width="16" height="16">
71,71,71,71,71,71,71,71,71,71,71,71,71,71,71,71,
71,71,71,71,71,71,71,71,71,71,71,71,71,71,71,71,
71,71,71,71,71,71,71,71,71,71,71,71,71,71,71,71,
71,71,71,71,71,71,71,71,71,71,71,71,71,71,71,71,
71,71,71,71,71,71,71,71,71,71,71,71,71,71,71,71,
71,71,71,71,71,71,71,71,71,71,71,71,71,71,71,71,
71,71,71,71,71,71,71,71,71,71,71,71,71,71,71,71,
71,71,71,71,71,71,71,71,71,71,71,71,71,71,71,71,
71,71,71,71,71,71,71,71,71,71,71,71,71,71,71,71,
71,71,71,71,71,71,71,71,71,71,71,71,71,71,71,71,
71,71,71,71,71,71,71,71,71,71,71,71,71,71,71,71,
71,71,71,71,71,71,71,71,71,71,71,71,71,71,71,71,
71,71,71,71,71,71,71,71,71,71,71,71,71,71,71,71,
71,71,71,71,71,71,71,71,71,71,71,71,71,71,71,71,
71,71,71,71,71,71,71,71,71,71,71,71,71,71,71,71,
71,71,71,71,71,71,71,71,71,71,71,71,71,71,71,71
</chunk>
   <chunk x="144" y="0" width="16" height="16">
71,71,71,71,71,71,71,71,71,71,71,71,71,71,71,71,
71,71,71,71,71,71,71,71,71,71,71,71,71,71,71,71,
71,71,71,71,71,71,71,71,71,71,71,71,71,71,71,71,
71,71,71,71,71,71,71,71,71,71,71,71,71,71,71,71,
71,71,71,71,71,71,71,71,71,71,71,71,71,71,71,71,
71,71,71,71,71,71,71,71,71,71,71,71,71,71,71,71,
71,71,71,71,71,71,71,71,71,71,71,71,71,71,71,71,
71,71,71,71,71,71,71,71,71,71,71,71,71,71,71,71,
71,71,71,71,71,71,71,71,71,71,71,71,71,71,71,71,
71,71,71,71,71,71,71,71,71,71,71,71,71,71,71,71,
71,71,71,71,71,71,71,71,71,71,71,71,71,71,71,71,
71,71,71,71,71,71,71,71,71,71,71,71,71,71,71,71,
71,71,71,71,71,71,71,71,71,71,71,71,71,71,71,71,
71,71,71,71,71,71,71,71,71,71,71,71,71,71,71,71,
71,71,71,71,71,71,71,71,71,71,71,71,71,71,71,71,
71,71,71,71,71,71,71,71,71,71,71,71,71,71,71,71
</chunk>
   <chunk x="160" y="0" width="16" height="16">
71,71,71,71,71,71,71,71,71,71,72,0,0,0,0,0,
71,71,71,71,71,71,71,71,71,71,72,0,0,0,0,0,
71,71,71,71,71,71,71,71,71,71,72,0,0,0,0,0,
71,71,71,71,71,71,71,71,71,71,72,0,0,0,0,0,
71,71,71,71,71,71,71,71,71,71,72,0,0,0,0,0,
71,71,71,71,71,71,71,71,71,71,72,0,0,0,0,0,
71,71,71,71,71,71,71,71,71,71,72,0,0,0,0,0,
71,71,71,71,71,71,71,71,71,71,72,0,0,0,0,0,
71,71,71,71,71,71,71,71,71,71,72,0,0,0,0,0,
71,71,71,71,71,71,71,71,71,71,72,0,0,0,0,0,
71,71,71,71,71,71,71,71,71,71,72,0,0,0,0,0,
71,71,71,71,71,71,71,71,71,71,72,0,0,0,0,0,
71,71,71,71,71,71,71,71,71,71,72,0,0,0,0,0,
71,71,71,71,71,71,71,71,71,71,72,0,0,0,0,0,
71,71,71,71,71,71,71,71,71,71,72,0,0,0,0,0,
71,71,71,71,71,71,71,71,71,71,72,0,0,0,0,0
</chunk>
   <chunk x="0" y="16" width="16" height="16">
0,0,0,0,70,71,71,71,71,71,71,71,71,71,71,71,
0,0,0,0,70,71,71,71,71,71,71,71,71,71,71,71,
0,0,0,0,70,71,71,71,71,71,71,71,71,71,71,71,
0,0,0,0,79,80,80,80,80,80,80,80,80,80,60,71,
0,0,0,0,0,0,0,0,0,0,0,0,0,0,79,80,
0,0,0,0,0,0,0,0,0,0,0,0,0,0,0,0,
0,0,0,0,0,0,0,0,0,0,0,0,0,0,0,0,
0,0,0,0,0,0,0,0,0,0,0,0,0,0,0,0,
0,0,0,0,0,0,0,0,0,0,0,0,0,0,0,0,
0,0,0,0,0,0,0,0,0,0,0,0,0,0,0,0,
0,0,0,0,0,0,0,0,0,0,0,0,0,0,0,0,
0,0,0,0,0,0,0,0,0,0,0,0,0,0,0,0,
0,0,0,0,0,0,0,0,0,0,0,0,0,0,0,0,
0,0,0,0,0,0,0,0,0,0,0,0,0,0,0,0,
0,0,0,0,0,0,0,0,0,0,0,0,0,0,0,0,
0,0,0,0,0,0,0,0,0,0,0,0,0,0,0,0
</chunk>
   <chunk x="16" y="16" width="16" height="16">
71,71,71,71,71,71,71,71,71,71,71,71,71,71,71,71,
71,71,71,71,71,71,71,71,71,71,71,71,71,71,71,71,
71,71,71,71,71,71,71,71,71,71,71,71,71,71,71,71,
71,71,71,71,71,71,71,71,71,71,71,71,71,71,71,71,
80,80,80,80,80,80,80,80,80,80,80,80,80,80,80,80,
0,0,0,0,0,0,0,0,0,0,0,0,0,0,0,0,
0,0,0,0,0,0,0,0,0,0,0,0,0,0,0,0,
0,0,0,0,0,0,0,0,0,0,0,0,0,0,0,0,
0,0,0,0,0,0,0,0,0,0,0,0,0,0,0,0,
0,0,0,0,0,0,0,0,0,0,0,0,0,0,0,0,
0,0,0,0,0,0,0,0,0,0,0,0,0,0,0,0,
0,0,0,0,0,0,0,0,0,0,0,0,0,0,0,0,
0,0,0,0,0,0,0,0,0,0,0,0,0,0,0,0,
0,0,0,0,0,0,0,0,0,0,0,0,0,0,0,0,
0,0,0,0,0,0,0,0,0,0,0,0,0,0,0,0,
0,0,0,0,0,0,0,0,0,0,0,0,0,0,0,0
</chunk>
   <chunk x="32" y="16" width="16" height="16">
71,71,71,71,71,71,71,71,71,71,71,71,71,71,71,71,
71,71,71,71,71,71,71,71,71,71,71,71,71,71,71,71,
71,71,71,71,71,71,71,71,71,71,71,71,71,71,71,71,
71,71,71,71,71,71,71,71,71,71,71,71,71,71,71,71,
80,80,80,80,80,80,80,80,80,80,80,80,80,80,80,80,
0,0,0,0,0,0,0,0,0,0,0,0,0,0,0,0,
0,0,0,0,0,0,0,0,0,0,0,0,0,0,0,0,
0,0,0,0,0,0,0,0,0,0,0,0,0,0,0,0,
0,0,0,0,0,0,0,0,0,0,0,0,0,0,0,0,
0,0,0,0,0,0,0,0,0,0,0,0,0,0,0,0,
0,0,0,0,0,0,0,0,0,0,0,0,0,0,0,0,
0,0,0,0,0,0,0,0,0,0,0,0,0,0,0,0,
0,0,0,0,0,0,0,0,0,0,0,0,0,0,0,0,
0,0,0,0,0,0,0,0,0,0,0,0,0,0,0,0,
0,0,0,0,0,0,0,0,0,0,0,0,0,0,0,0,
0,0,0,0,0,0,0,0,0,0,0,0,0,0,0,0
</chunk>
   <chunk x="48" y="16" width="16" height="16">
71,71,71,71,71,71,71,71,71,71,71,71,71,71,71,71,
71,71,71,71,71,71,71,71,71,71,71,71,71,71,71,71,
71,71,71,71,71,71,71,71,71,71,71,71,71,71,71,71,
71,71,71,71,71,71,71,71,71,71,71,71,71,71,71,71,
80,80,80,80,80,80,80,80,80,80,80,80,80,80,80,80,
0,0,0,0,0,0,0,0,0,0,0,0,0,0,0,0,
0,0,0,0,0,0,0,0,0,0,0,0,0,0,0,0,
0,0,0,0,0,0,0,0,0,0,0,0,0,0,0,0,
0,0,0,0,0,0,0,0,0,0,0,0,0,0,0,0,
0,0,0,0,0,0,0,0,0,0,0,0,0,0,0,0,
0,0,0,0,0,0,0,0,0,0,0,0,0,0,0,0,
0,0,0,0,0,0,0,0,0,0,0,0,0,0,0,0,
0,0,0,0,0,0,0,0,0,0,0,0,0,0,0,0,
0,0,0,0,0,0,0,0,0,0,0,0,0,0,0,0,
0,0,0,0,0,0,0,0,0,0,0,0,0,0,0,0,
0,0,0,0,0,0,0,0,0,0,0,0,0,0,0,0
</chunk>
   <chunk x="64" y="16" width="16" height="16">
71,71,71,71,71,71,71,71,71,71,71,71,71,71,71,71,
71,71,71,71,71,71,71,71,71,71,71,71,71,71,71,71,
71,71,71,71,71,71,71,71,71,71,71,71,71,71,71,71,
59,80,80,80,80,80,80,80,80,80,80,80,80,80,80,80,
18,0,0,0,0,0,0,0,0,0,0,0,0,0,0,0,
0,0,0,0,0,0,0,0,0,0,0,0,0,0,0,0,
0,0,0,0,0,0,0,0,0,0,0,0,0,0,0,0,
0,0,0,0,0,0,0,0,0,0,0,0,0,0,0,0,
0,0,0,0,0,0,0,0,0,0,0,0,0,0,0,0,
0,0,0,0,0,0,0,0,0,0,0,0,0,0,0,0,
0,0,0,0,0,0,0,0,0,0,0,0,0,0,0,0,
0,0,0,0,0,0,0,0,0,0,0,0,0,0,0,0,
0,0,0,0,0,0,0,0,0,0,0,0,0,0,0,0,
0,0,0,0,0,0,0,0,0,0,0,0,0,0,0,0,
0,0,0,0,0,0,0,0,0,0,0,0,0,0,0,0,
0,0,0,0,0,0,0,0,0,0,0,0,0,0,0,0
</chunk>
   <chunk x="80" y="16" width="16" height="16">
71,71,71,72,0,0,0,0,0,0,0,0,70,71,71,71,
71,71,71,72,0,0,0,0,0,0,0,0,70,71,71,71,
71,71,71,72,0,0,0,0,0,0,0,0,70,71,71,71,
80,80,80,81,0,0,0,0,0,0,0,0,79,80,80,80,
0,0,0,0,0,0,0,0,0,0,0,0,0,0,0,0,
0,0,0,0,0,0,0,0,0,0,0,0,0,0,0,0,
0,0,0,0,0,0,0,0,0,0,0,0,0,0,0,0,
0,0,0,0,0,0,0,0,0,0,0,0,0,0,0,0,
0,0,0,0,0,0,0,0,0,0,0,0,0,0,0,0,
0,0,0,0,0,0,0,0,0,0,0,0,0,0,0,0,
0,0,0,0,0,0,0,0,0,0,0,0,0,0,0,0,
0,0,0,0,0,0,0,0,0,0,0,0,0,0,0,0,
0,0,0,0,0,0,0,0,0,0,0,0,0,0,0,0,
0,0,0,0,25,25,25,25,25,25,25,25,0,0,0,0,
0,0,0,0,0,0,0,0,0,0,0,0,0,0,0,0,
0,0,0,0,0,0,0,0,0,0,0,0,0,0,0,0
</chunk>
   <chunk x="96" y="16" width="16" height="16">
71,71,71,71,71,71,71,71,71,71,71,71,71,71,71,71,
71,71,71,71,71,71,71,71,71,71,71,71,71,71,71,71,
71,71,71,71,71,71,71,59,80,80,80,80,80,80,80,80,
80,80,80,80,80,80,80,18,0,0,0,0,0,0,0,0,
0,0,0,0,0,0,0,0,0,0,0,0,0,0,0,0,
0,0,0,0,0,0,0,0,0,0,0,0,0,0,0,0,
0,0,0,0,0,0,0,0,0,0,0,0,0,0,0,0,
0,0,0,0,0,0,0,0,0,0,0,0,0,0,0,0,
0,0,0,0,0,0,0,0,0,0,0,0,0,0,0,0,
0,0,0,0,0,0,0,0,0,0,0,0,0,0,0,0,
0,0,0,0,0,0,0,0,0,0,0,0,0,0,0,0,
0,0,0,0,0,0,0,0,0,0,0,0,0,0,0,0,
0,0,0,0,0,0,0,0,0,0,0,0,0,0,0,0,
0,0,0,0,0,0,0,0,0,0,0,0,0,0,0,0,
0,0,0,0,0,0,0,0,0,0,0,0,0,0,0,0,
0,0,0,0,0,0,0,0,0,0,0,0,0,0,0,0
</chunk>
   <chunk x="112" y="16" width="16" height="16">
71,71,71,71,71,71,71,71,71,71,71,71,71,71,71,71,
71,71,71,71,71,71,71,71,71,71,59,80,80,80,80,80,
80,80,80,80,80,80,80,80,80,80,18,0,0,0,0,0,
0,0,0,0,0,0,0,0,0,0,0,0,0,0,0,0,
0,0,0,0,0,0,0,0,0,0,0,0,0,0,0,0,
0,0,0,0,0,0,0,0,0,0,0,0,0,0,0,0,
0,0,0,0,0,0,0,0,0,0,0,0,0,0,0,0,
0,0,0,0,0,0,0,0,0,0,0,0,0,0,0,0,
0,0,0,0,0,0,0,0,0,0,0,0,0,0,0,0,
0,0,0,0,0,0,0,0,0,0,0,0,0,0,0,0,
0,0,0,0,0,0,0,0,0,0,0,0,0,0,0,0,
0,0,0,0,0,0,0,0,0,0,0,0,0,0,0,0,
0,0,0,0,0,0,0,0,0,0,0,0,0,0,0,0,
0,0,0,0,0,0,0,0,0,0,0,0,0,0,0,0,
0,0,0,0,0,0,0,0,0,0,0,0,0,0,0,0,
0,0,0,0,0,0,0,0,0,0,0,0,0,0,0,0
</chunk>
   <chunk x="128" y="16" width="16" height="16">
71,71,71,71,71,71,71,71,71,71,71,71,71,71,71,71,
80,80,80,80,80,80,80,80,80,80,80,80,80,80,60,71,
0,0,0,0,0,0,0,0,0,0,0,0,0,0,70,71,
0,0,0,0,0,0,0,0,0,0,0,0,0,0,79,80,
0,0,0,0,0,0,0,0,0,0,0,0,0,0,0,0,
0,0,0,0,0,0,0,0,0,0,0,0,0,0,0,0,
0,0,0,0,0,0,0,0,0,0,0,0,0,0,0,0,
0,0,0,0,0,0,0,0,0,0,0,0,0,0,0,0,
0,0,0,0,0,0,0,0,0,0,0,0,0,0,0,0,
0,0,0,0,0,0,0,0,0,0,0,0,0,0,0,0,
0,0,0,0,0,0,0,0,0,0,0,0,0,0,0,0,
0,0,0,0,0,0,0,0,0,0,0,0,0,0,0,0,
0,0,0,0,0,0,0,0,0,0,0,0,0,0,0,0,
0,0,0,0,0,0,0,0,0,0,0,0,0,0,0,0,
0,0,0,0,0,0,0,0,0,0,0,0,0,0,0,0,
0,0,0,0,0,0,0,0,0,0,0,0,0,0,0,0
</chunk>
   <chunk x="144" y="16" width="16" height="16">
71,71,71,71,71,71,71,71,71,71,71,71,71,71,71,71,
71,71,71,71,71,71,71,71,71,71,71,71,71,71,71,71,
71,71,71,71,71,71,71,71,71,71,71,71,71,71,71,71,
80,80,80,80,80,80,80,80,80,80,80,80,80,80,80,80,
0,0,0,0,0,0,0,0,0,0,0,0,0,0,0,0,
0,0,0,0,0,0,0,0,0,0,0,0,0,0,0,0,
0,0,0,0,0,0,0,0,0,0,0,0,0,0,0,0,
0,0,0,0,0,0,0,0,0,0,0,0,0,0,0,0,
0,0,0,0,0,0,0,0,0,0,0,0,0,0,0,0,
0,0,0,0,0,0,0,0,0,0,0,0,0,0,0,0,
0,0,0,0,0,0,0,0,0,0,0,0,0,0,0,0,
0,0,0,0,0,0,0,0,0,0,0,0,0,0,0,0,
0,0,0,0,0,0,0,0,0,0,0,0,0,0,0,0,
0,0,0,0,0,0,0,0,0,0,0,0,0,0,0,0,
0,0,0,0,0,0,0,0,0,0,0,0,0,0,0,0,
0,0,0,0,0,0,0,0,0,0,0,0,0,0,0,0
</chunk>
   <chunk x="160" y="16" width="16" height="16">
71,71,71,71,71,71,71,71,71,71,72,0,0,0,0,0,
71,71,71,71,71,71,71,71,71,71,72,0,0,0,0,0,
71,71,71,71,71,71,71,71,71,71,72,0,0,0,0,0,
80,80,80,80,80,80,80,80,80,80,81,0,0,0,0,0,
0,0,0,0,0,0,0,0,0,0,0,0,0,0,0,0,
0,0,0,0,0,0,0,0,0,0,0,0,0,0,0,0,
0,0,0,0,0,0,0,0,0,0,0,0,0,0,0,0,
0,0,0,0,0,0,0,0,0,0,0,0,0,0,0,0,
0,0,0,0,0,0,0,0,0,0,0,0,0,0,0,0,
0,0,0,0,0,0,0,0,0,0,0,0,0,0,0,0,
0,0,0,0,0,0,0,0,0,0,0,0,0,0,0,0,
0,0,0,0,0,0,0,0,0,0,0,0,0,0,0,0,
0,0,0,0,0,0,0,0,0,0,0,0,0,0,0,0,
0,0,0,0,0,0,0,0,0,0,0,0,0,0,0,0,
0,0,0,0,0,0,0,0,0,0,0,0,0,0,0,0,
0,0,0,0,0,0,0,0,0,0,0,0,0,0,0,0
</chunk>
   <chunk x="0" y="32" width="16" height="16">
0,0,0,0,0,0,0,0,0,0,0,0,0,0,0,0,
0,0,0,0,0,0,0,0,0,0,0,0,0,0,0,0,
0,0,0,0,0,0,0,0,0,0,0,0,0,0,0,0,
0,0,0,0,0,0,0,0,0,0,0,0,0,0,0,0,
0,0,0,0,0,0,0,0,0,0,0,0,0,0,0,0,
0,0,0,0,0,0,0,0,0,0,0,0,0,0,0,0,
0,0,0,0,0,0,0,0,0,0,0,0,0,0,0,0,
0,0,0,0,0,0,0,0,0,0,0,0,0,0,0,0,
0,0,0,0,0,0,0,0,0,0,0,0,0,0,0,0,
0,0,0,0,0,0,0,0,0,0,0,0,0,0,0,0,
0,0,0,0,0,0,0,0,0,0,0,0,0,0,0,0,
0,0,0,0,0,0,0,0,0,0,0,0,4,0,0,0,
0,0,0,0,0,0,0,0,0,0,0,0,0,0,0,0,
0,0,0,0,0,0,0,0,0,0,0,0,0,0,0,0,
0,0,0,0,0,0,0,0,0,0,0,0,0,0,0,0,
0,0,0,0,0,0,0,0,0,0,0,0,0,0,0,0
</chunk>
   <chunk x="16" y="32" width="16" height="16">
0,0,0,0,0,0,0,0,0,0,0,0,0,0,0,0,
0,0,0,0,0,0,0,0,0,0,0,0,0,0,0,0,
0,0,0,0,0,0,0,0,0,0,0,0,0,0,0,0,
0,0,0,0,0,0,0,0,0,0,0,0,0,0,0,0,
0,0,0,0,0,0,0,0,0,0,0,0,0,0,0,0,
0,0,0,0,0,0,0,0,0,0,0,0,0,0,0,0,
0,0,0,0,0,0,0,0,0,0,0,0,0,0,0,0,
0,0,0,0,0,0,0,0,0,0,0,0,0,0,0,0,
0,0,0,0,0,0,0,0,0,0,0,0,0,0,0,0,
0,0,0,0,0,0,0,0,0,4,0,0,0,0,0,0,
0,0,0,0,0,0,0,0,0,0,0,0,0,0,0,0,
0,0,0,0,0,0,0,0,0,0,0,0,0,0,0,0,
0,0,0,0,0,0,0,0,0,0,0,0,0,0,0,0,
0,0,0,0,0,0,0,0,0,0,0,0,0,0,0,0,
0,0,0,0,0,0,0,0,0,0,0,0,0,0,0,0,
0,0,0,0,0,0,0,0,0,0,0,0,0,0,0,0
</chunk>
   <chunk x="32" y="32" width="16" height="16">
0,0,0,0,0,0,0,0,0,0,0,0,0,0,0,0,
0,0,0,0,0,0,0,0,0,0,0,0,0,0,0,0,
0,0,0,0,0,0,0,0,0,0,0,0,0,0,0,0,
0,0,0,0,0,0,0,0,0,0,0,0,0,0,0,0,
0,0,0,0,0,0,0,0,0,0,0,0,0,0,0,0,
0,0,0,0,0,0,0,0,0,0,0,0,0,0,0,0,
0,0,0,0,0,0,0,0,0,0,0,0,0,0,0,0,
0,0,0,0,0,0,0,0,0,0,0,0,0,0,0,0,
0,0,0,0,0,0,0,0,0,0,0,0,0,0,0,0,
0,0,0,0,0,0,0,0,0,0,0,4,0,0,0,0,
0,0,0,0,0,0,0,0,0,0,0,0,0,0,0,0,
0,0,0,0,0,0,0,0,0,0,0,0,0,0,0,0,
0,0,0,0,0,0,0,0,0,0,0,0,0,0,0,0,
0,0,0,0,0,0,0,0,0,0,0,0,0,0,0,0,
0,0,0,0,0,0,0,0,0,0,0,0,0,0,0,0,
0,0,0,0,0,0,0,0,0,0,0,0,0,0,0,0
</chunk>
   <chunk x="48" y="32" width="16" height="16">
0,0,0,0,0,0,0,0,0,0,0,0,0,0,0,0,
0,0,0,0,0,0,0,0,0,0,0,0,0,0,0,0,
0,0,0,0,0,0,0,0,0,0,0,0,0,0,0,0,
0,0,0,0,0,0,0,0,0,0,0,0,0,0,0,0,
0,0,0,0,0,0,0,0,0,0,0,0,0,0,0,0,
0,0,0,0,0,0,0,0,0,0,0,0,0,0,0,0,
0,0,0,0,0,0,0,0,0,0,0,0,0,0,0,0,
0,0,0,0,0,0,0,0,0,0,0,0,0,0,0,0,
0,0,0,0,0,0,0,0,0,0,0,0,0,0,0,0,
0,0,0,0,0,4,0,0,0,0,0,0,0,0,0,0,
0,0,0,0,0,0,0,0,0,0,0,0,0,0,0,0,
0,0,0,0,0,0,0,0,0,0,0,0,0,0,0,0,
0,0,0,0,0,0,0,0,0,0,0,0,0,0,0,0,
0,0,0,0,0,0,0,0,0,0,0,0,0,0,0,0,
0,0,0,0,0,0,0,0,0,0,0,0,0,0,0,0,
0,0,0,0,0,0,0,0,0,0,0,0,0,0,0,0
</chunk>
   <chunk x="64" y="32" width="16" height="16">
0,0,0,0,0,0,0,0,0,0,0,0,0,0,0,0,
0,0,0,0,0,0,0,0,0,0,0,0,0,0,0,0,
0,0,0,0,0,0,0,0,0,0,0,0,0,0,0,0,
0,0,0,0,0,0,0,0,0,0,0,0,0,0,0,0,
0,0,0,0,0,0,0,0,0,0,0,0,0,0,0,0,
0,0,0,0,0,0,0,0,0,0,0,0,0,0,0,0,
0,0,0,0,0,0,0,0,0,0,0,0,0,0,0,0,
0,0,0,0,0,0,0,0,0,0,0,0,0,0,0,0,
0,0,0,0,0,0,0,0,0,0,0,61,62,62,62,62,
0,0,0,0,0,0,0,0,0,0,0,70,71,71,71,71,
0,0,0,0,0,0,0,0,0,0,0,70,71,71,71,71,
0,0,0,0,0,0,0,0,0,0,0,70,71,71,71,71,
0,0,0,0,0,0,0,0,0,0,0,79,80,80,80,80,
0,0,0,0,0,0,0,0,0,0,0,0,0,0,0,0,
0,0,0,0,0,0,0,0,0,0,0,0,0,0,0,0,
0,0,0,0,0,0,0,0,0,0,0,0,0,0,0,0
</chunk>
   <chunk x="80" y="32" width="16" height="16">
0,0,0,0,0,0,0,0,0,0,0,0,0,0,0,0,
0,0,0,0,0,0,0,0,0,0,0,0,0,0,0,0,
0,0,0,0,0,0,0,0,0,0,0,0,0,0,0,0,
0,0,0,0,0,0,0,0,0,0,0,0,0,0,0,0,
0,0,0,0,0,0,0,0,0,0,0,0,0,0,0,0,
0,0,0,0,0,0,0,0,0,0,0,0,0,0,0,0,
0,0,0,0,0,0,0,0,0,0,0,0,0,0,0,0,
0,0,0,0,0,0,0,0,0,0,0,0,0,0,0,0,
62,62,62,63,0,0,0,0,0,0,0,0,0,0,0,0,
71,71,71,72,0,0,0,0,0,0,0,0,0,0,0,0,
71,71,71,72,0,0,0,0,0,0,0,0,0,0,0,0,
71,71,71,72,0,0,0,0,0,0,0,0,0,0,0,0,
80,80,80,81,0,0,0,0,0,0,0,0,0,0,0,0,
0,0,0,0,0,0,0,0,0,0,0,0,0,0,0,0,
0,0,0,0,0,0,0,0,0,0,0,0,0,0,0,0,
0,0,0,0,0,0,0,0,0,0,0,0,0,0,0,0
</chunk>
   <chunk x="96" y="32" width="16" height="16">
0,0,0,0,0,0,0,0,0,0,0,0,0,0,0,0,
0,0,0,0,0,0,0,0,0,0,0,0,0,0,0,0,
0,0,0,0,0,0,0,0,0,0,0,0,0,0,0,0,
0,0,0,0,0,0,0,0,0,0,0,0,0,0,0,0,
0,0,0,0,0,0,0,0,0,0,0,0,0,0,0,0,
0,0,0,0,0,0,0,0,0,0,0,0,0,0,0,0,
0,0,0,0,0,0,0,0,0,0,0,0,0,0,0,0,
0,0,0,0,0,0,0,0,0,0,0,0,0,0,0,0,
0,0,0,0,0,0,0,0,0,0,0,0,0,0,0,0,
0,0,0,0,0,0,0,0,0,0,0,0,0,0,0,0,
0,0,0,0,0,0,0,0,0,0,0,0,0,0,0,0,
0,0,0,0,0,0,0,0,0,0,0,0,0,0,0,0,
0,0,0,0,0,0,0,0,0,0,0,0,0,0,0,0,
25,25,25,25,61,62,62,62,62,63,0,0,0,0,61,62,
0,0,0,0,70,71,71,71,71,72,0,0,0,0,70,71,
0,0,0,0,70,71,71,71,71,72,0,0,0,0,70,71
</chunk>
   <chunk x="112" y="32" width="16" height="16">
0,0,0,0,0,0,0,0,0,0,0,0,0,0,0,0,
0,0,0,0,0,0,0,0,0,0,0,0,0,0,0,0,
0,0,0,0,0,0,0,0,0,0,0,0,0,0,0,0,
0,0,0,0,0,0,0,0,0,0,0,0,0,0,0,0,
0,0,0,0,0,0,0,61,62,62,62,62,62,62,62,62,
0,0,0,0,0,0,0,70,71,71,71,71,71,71,71,71,
0,0,0,0,0,0,0,70,71,71,71,71,71,71,71,71,
0,0,0,0,0,0,10,69,71,71,71,71,71,71,71,71,
0,0,0,0,0,10,69,71,71,71,71,71,71,71,71,71,
0,0,0,0,0,70,71,71,71,71,71,71,71,71,71,71,
0,0,0,0,0,70,71,71,71,71,71,71,71,71,71,71,
0,0,0,0,0,70,71,71,71,71,71,71,71,71,71,71,
0,0,0,0,0,70,71,71,71,71,71,71,71,71,71,71,
62,62,62,62,62,69,71,71,71,71,71,71,71,71,71,71,
71,71,71,71,71,71,71,71,71,71,71,71,71,71,71,71,
71,71,71,71,71,71,71,71,71,71,71,71,71,71,71,71
</chunk>
   <chunk x="128" y="32" width="16" height="16">
0,0,0,0,0,0,0,0,0,0,0,0,0,0,0,0,
0,0,0,0,0,0,0,0,0,0,0,0,0,0,0,0,
0,0,0,0,0,0,0,0,0,0,0,0,0,0,0,0,
0,0,0,0,0,0,0,0,0,0,0,0,0,0,0,0,
62,62,62,62,62,62,62,62,62,62,62,62,63,0,0,0,
71,71,71,71,71,71,71,71,71,71,71,71,72,0,0,0,
71,71,71,71,71,71,71,71,71,71,71,71,72,0,0,0,
71,71,71,71,71,71,71,71,71,71,71,71,72,0,0,0,
71,71,71,71,71,71,71,71,71,71,71,71,72,0,0,0,
71,71,71,71,71,71,71,71,71,71,71,59,18,0,0,0,
71,71,71,71,71,71,71,71,71,71,71,72,0,0,0,0,
71,71,71,71,71,71,71,71,71,71,71,72,0,0,0,0,
71,71,71,71,71,71,71,71,71,71,71,72,0,0,0,0,
71,71,71,71,71,71,71,71,71,71,71,72,0,0,0,0,
71,71,71,71,71,71,71,71,71,71,71,72,0,0,0,0,
71,71,71,71,71,71,71,71,71,71,71,72,0,0,0,0
</chunk>
   <chunk x="144" y="32" width="16" height="16">
0,0,0,0,0,0,0,0,0,0,0,0,0,0,0,0,
0,0,0,0,0,0,0,0,0,0,0,0,0,0,0,0,
0,0,0,0,0,0,0,0,0,0,0,0,0,0,0,0,
0,0,0,0,0,0,0,0,0,0,0,0,0,0,0,0,
0,0,0,0,0,0,0,0,0,0,0,0,0,0,0,0,
0,0,0,0,0,0,0,0,0,0,0,0,0,0,0,0,
0,0,0,0,0,0,0,0,0,0,0,0,0,0,0,0,
0,0,0,0,0,0,0,0,0,4,0,0,0,0,0,0,
0,0,0,0,0,0,0,0,0,0,0,0,0,0,0,0,
0,0,0,0,0,0,0,0,0,0,0,0,0,0,0,0,
0,0,0,0,0,0,0,0,0,0,0,0,0,0,0,0,
0,0,0,0,0,0,0,0,0,0,0,0,0,0,0,0,
0,0,0,0,0,0,0,0,0,0,0,0,0,0,0,0,
0,0,0,0,0,0,0,0,0,0,0,0,0,0,0,0,
0,0,0,0,0,0,0,0,0,0,0,0,0,0,0,0,
0,0,0,0,0,0,0,0,0,0,0,0,0,0,0,0
</chunk>
   <chunk x="160" y="32" width="16" height="16">
0,0,0,0,0,0,0,0,0,0,0,0,0,0,0,0,
0,0,0,0,0,0,0,0,0,0,0,0,0,0,0,0,
0,0,0,0,0,0,0,0,0,0,0,0,0,0,0,0,
0,0,0,0,0,0,0,0,0,0,0,0,0,0,0,0,
0,0,0,0,0,0,0,0,0,0,0,0,0,0,0,0,
0,0,0,0,0,0,0,0,0,0,0,0,0,0,0,0,
0,0,0,0,0,0,0,4,0,0,0,0,0,0,0,0,
0,0,0,0,0,0,0,0,0,0,0,0,0,0,0,0,
0,0,0,0,0,0,0,0,0,0,0,0,0,0,0,0,
0,0,0,0,0,0,0,0,0,0,0,0,0,0,0,0,
0,0,0,0,0,0,0,0,0,0,0,0,0,0,0,0,
0,0,0,0,0,0,0,0,0,0,0,0,0,0,0,0,
0,0,0,0,0,0,0,0,0,0,0,0,0,0,0,0,
0,0,0,0,0,0,0,0,0,0,0,0,0,0,0,0,
0,0,0,0,0,0,0,0,0,0,0,0,0,0,0,0,
0,0,0,0,0,0,0,0,0,0,0,0,0,0,0,0
</chunk>
   <chunk x="0" y="48" width="16" height="16">
0,0,0,0,0,0,0,0,0,0,0,0,0,0,0,0,
0,0,0,0,0,0,0,0,0,0,0,0,0,0,0,0,
0,0,0,0,0,0,0,0,0,0,0,0,0,0,0,0,
0,0,0,0,0,0,0,0,0,0,0,0,0,0,0,0,
0,0,0,0,0,0,0,0,0,0,0,0,0,0,0,0,
0,0,0,0,0,0,0,0,0,0,0,0,0,0,0,0,
0,0,0,0,0,0,0,0,0,0,0,0,0,0,0,0,
0,0,0,0,0,0,0,0,0,0,0,0,0,0,0,0,
0,0,0,0,0,0,0,0,0,0,0,0,0,0,0,0,
0,0,0,0,0,0,0,0,0,0,0,0,0,0,0,0,
0,0,0,0,0,0,0,0,0,0,0,4,0,0,0,0,
0,0,0,0,0,0,0,0,0,0,0,0,0,0,0,0,
0,0,0,0,0,0,0,0,0,0,0,0,0,0,0,0,
0,0,0,0,0,0,0,0,0,0,0,0,0,0,0,0,
0,0,0,0,0,0,0,0,0,0,0,0,0,0,0,0,
0,0,0,0,0,0,0,0,0,0,0,0,0,0,0,0
</chunk>
   <chunk x="16" y="48" width="16" height="16">
0,0,0,0,0,0,0,0,0,0,0,0,0,0,0,0,
0,0,0,0,0,0,0,0,0,0,0,0,0,0,0,0,
0,0,0,0,0,0,0,0,0,0,0,0,0,0,0,0,
0,0,0,0,0,0,0,0,0,0,0,0,0,0,0,0,
0,0,0,0,0,0,0,0,0,0,0,0,0,0,0,0,
0,0,0,0,0,0,0,0,0,0,0,0,0,0,0,0,
0,0,0,0,0,0,0,0,0,0,0,0,0,0,0,0,
0,0,0,0,0,0,0,0,0,0,0,0,0,0,0,0,
0,0,0,0,0,0,0,0,0,0,0,0,0,0,0,0,
0,0,0,0,0,0,0,0,0,0,0,0,0,0,0,0,
0,0,0,0,0,0,0,0,0,0,0,0,4,0,0,0,
0,0,0,0,0,0,0,0,0,0,0,0,0,0,0,0,
0,0,0,0,0,0,0,0,0,0,0,0,0,0,0,0,
0,0,0,0,0,0,0,0,0,0,0,0,0,0,0,0,
0,0,0,0,0,0,0,0,0,0,0,0,0,0,0,0,
0,0,0,0,0,0,0,0,0,0,0,0,0,0,0,0
</chunk>
   <chunk x="32" y="48" width="16" height="16">
0,0,0,0,0,0,0,0,0,0,0,0,0,0,0,0,
0,0,0,0,0,0,0,0,0,0,0,0,0,0,0,0,
0,0,0,0,0,0,0,0,0,0,0,0,0,0,0,0,
0,0,0,0,0,0,0,0,0,0,0,0,0,0,0,0,
0,0,0,0,0,0,0,0,0,0,0,0,0,0,0,0,
0,0,0,0,0,0,0,0,0,0,0,0,0,0,0,0,
0,0,0,0,0,0,0,0,0,0,0,0,0,0,0,0,
0,0,0,0,0,0,0,0,0,0,0,0,0,0,0,0,
0,0,0,0,0,0,0,0,0,4,0,0,0,0,0,0,
0,0,0,0,0,0,0,0,0,0,0,0,0,0,0,0,
0,0,0,0,0,0,0,0,0,0,0,0,0,0,0,0,
0,0,0,0,0,0,0,0,0,0,0,0,0,0,0,0,
0,0,0,0,0,0,0,0,0,0,0,0,0,0,0,0,
0,0,0,0,0,0,0,0,0,0,0,0,0,0,0,0,
0,0,0,0,0,0,0,0,0,0,0,0,0,0,0,0,
0,0,0,0,0,0,0,0,0,0,0,0,0,0,0,0
</chunk>
   <chunk x="48" y="48" width="16" height="16">
0,0,0,0,0,0,0,0,0,0,0,0,0,0,0,0,
0,0,0,0,0,0,0,0,0,0,0,0,0,0,0,0,
0,0,0,0,0,0,0,0,0,0,0,0,0,0,0,0,
0,0,0,0,0,0,0,0,0,0,0,0,0,0,0,0,
0,0,0,0,0,0,0,0,0,0,0,0,0,0,0,0,
0,0,0,0,0,0,4,0,0,0,0,0,0,0,0,0,
0,0,0,0,0,0,0,0,0,0,0,0,0,0,0,0,
0,0,0,0,0,0,0,0,0,0,0,0,0,0,0,0,
0,0,0,0,0,0,0,0,0,0,0,0,0,0,0,0,
0,0,0,0,0,0,0,0,0,0,0,0,0,0,0,0,
0,0,0,0,0,0,0,0,0,0,0,0,0,0,0,0,
0,0,0,0,0,0,0,0,0,0,0,0,0,0,0,0,
0,0,0,0,0,0,0,0,0,0,0,0,0,0,0,0,
0,0,0,0,0,0,0,0,0,0,0,0,0,0,0,0,
0,0,0,0,0,0,0,0,0,0,0,0,0,0,0,0,
0,0,0,0,0,0,0,0,0,0,0,0,0,0,0,0
</chunk>
   <chunk x="64" y="48" width="16" height="16">
0,0,0,0,0,0,0,0,0,0,0,0,0,0,0,0,
0,0,0,0,0,0,0,0,0,0,0,0,0,0,0,0,
0,0,0,0,0,0,0,0,0,0,0,0,0,0,0,0,
0,0,0,0,0,0,0,0,0,0,0,0,0,0,0,0,
0,0,0,0,0,0,0,0,0,0,0,0,0,0,0,0,
0,0,0,0,0,0,0,0,0,0,0,0,0,0,0,0,
0,0,0,0,0,0,0,0,0,0,0,0,0,0,0,0,
0,0,0,0,0,0,0,0,0,0,0,0,0,0,0,0,
0,0,0,0,0,0,0,0,0,0,0,0,0,0,0,0,
0,0,0,0,0,0,0,0,0,0,0,0,0,0,0,0,
0,0,0,0,0,0,0,0,0,0,0,0,0,0,0,0,
0,0,0,0,0,0,0,0,0,0,0,0,0,0,0,0,
0,0,0,0,0,0,0,0,0,0,0,0,0,0,0,0,
0,0,0,0,0,0,0,0,0,0,0,0,0,0,0,0,
0,0,0,0,0,0,0,0,0,0,0,0,0,0,0,0,
0,0,0,0,0,0,0,0,61,62,62,62,62,62,63,0
</chunk>
   <chunk x="80" y="48" width="16" height="16">
0,0,0,0,0,0,0,0,0,0,25,25,25,25,25,25,
0,0,0,0,0,0,0,0,0,0,0,0,0,0,0,0,
0,0,0,0,0,0,0,0,0,0,0,0,0,0,0,0,
0,0,0,0,0,0,0,0,0,0,0,0,0,0,0,0,
0,0,0,0,0,0,0,0,0,0,0,0,0,0,0,0,
0,0,0,0,0,0,0,0,0,0,0,0,0,0,0,0,
0,0,0,0,0,0,0,0,0,0,0,0,0,0,0,0,
0,0,0,0,0,0,0,0,0,0,0,0,0,0,0,0,
0,0,0,0,0,0,0,0,0,0,0,0,0,0,0,0,
0,0,0,0,0,0,0,0,0,0,0,0,0,0,0,0,
0,0,0,0,0,0,0,0,0,0,0,0,0,0,0,0,
0,0,0,0,0,0,0,0,0,0,0,0,0,0,0,0,
0,0,0,0,0,0,0,0,0,0,0,0,0,0,0,0,
0,0,0,0,0,0,0,0,0,0,0,0,0,0,0,0,
0,0,0,0,0,0,0,0,0,0,0,0,0,0,0,0,
0,0,0,0,0,0,0,0,0,0,0,0,0,0,0,0
</chunk>
   <chunk x="96" y="48" width="16" height="16">
0,0,0,0,79,80,80,80,80,81,0,0,0,0,70,71,
0,0,0,0,0,0,0,0,0,0,0,0,0,0,70,71,
0,0,0,0,0,0,0,0,0,0,0,0,0,0,70,71,
0,0,0,0,0,0,0,0,0,0,0,0,0,0,70,71,
0,0,0,0,0,0,0,0,0,0,0,0,0,0,70,71,
0,0,0,0,0,0,0,0,0,0,0,0,0,0,70,71,
0,0,0,0,0,0,0,0,0,0,0,0,0,0,70,71,
0,0,0,0,0,0,0,0,0,0,0,0,0,0,70,71,
0,0,0,0,0,0,0,0,0,0,0,0,0,0,70,71,
0,0,0,0,0,0,0,0,0,0,0,0,0,0,70,71,
0,0,0,0,0,0,0,0,0,0,0,0,0,0,70,71,
0,0,0,0,0,0,0,0,0,0,0,0,0,0,70,71,
0,0,0,0,0,0,0,0,0,0,0,0,0,0,70,71,
0,0,0,0,0,0,0,0,0,0,0,0,0,0,70,71,
0,0,0,0,0,61,62,62,62,62,62,62,62,62,69,71,
0,0,0,0,0,70,71,71,71,71,71,71,71,71,71,71
</chunk>
   <chunk x="112" y="48" width="16" height="16">
71,71,71,71,71,71,71,71,71,71,71,71,71,71,71,71,
71,71,71,71,71,71,71,71,71,71,71,71,71,71,71,71,
71,71,71,71,71,71,71,71,71,71,71,71,71,71,71,71,
71,71,71,71,71,71,71,71,71,71,71,71,71,71,71,71,
71,71,71,71,71,71,71,71,71,71,71,71,71,71,71,71,
71,71,71,71,71,71,71,71,71,71,71,71,71,71,71,71,
71,71,71,71,71,71,71,71,71,71,71,71,71,71,71,71,
71,71,71,71,71,71,71,71,71,71,71,71,71,71,71,71,
71,71,71,71,71,71,71,71,71,71,71,71,71,71,71,71,
71,71,71,71,71,71,71,71,71,71,71,71,71,71,71,71,
71,71,71,71,71,71,71,71,71,71,71,71,71,71,71,71,
71,71,71,71,71,71,71,71,71,71,71,71,71,71,71,71,
71,71,71,71,71,71,71,71,71,71,71,71,71,71,71,71,
71,71,71,71,71,71,71,71,71,71,71,71,71,71,71,71,
71,71,71,71,71,71,71,71,71,71,71,71,71,71,71,71,
71,71,71,71,71,71,71,71,71,71,71,71,71,71,71,71
</chunk>
   <chunk x="128" y="48" width="16" height="16">
71,71,71,71,71,71,71,71,71,71,71,72,0,0,0,0,
71,71,71,71,71,71,71,71,71,71,71,72,0,0,0,0,
71,71,71,71,71,71,71,71,71,71,71,72,0,0,0,0,
71,71,71,71,71,71,71,71,71,71,71,72,0,0,0,0,
71,71,71,71,71,71,71,71,71,71,71,72,0,0,0,0,
71,71,71,71,71,71,71,71,71,71,71,72,0,0,0,0,
71,71,71,71,71,71,71,71,71,71,71,72,0,0,0,0,
71,71,71,71,71,71,71,71,71,71,71,72,0,0,0,0,
71,71,71,71,71,71,71,71,71,71,71,72,0,0,0,0,
71,71,71,71,71,71,71,71,71,71,59,18,0,0,0,0,
71,71,71,71,71,71,71,71,71,71,72,0,0,0,0,0,
71,71,71,71,71,71,71,71,71,71,72,0,0,0,0,0,
71,71,71,71,71,71,71,71,71,71,72,0,0,0,0,0,
71,71,71,71,71,71,71,71,71,71,72,0,0,0,0,0,
71,71,71,71,71,71,71,71,71,71,72,0,0,0,0,0,
71,71,71,71,71,71,71,71,71,71,72,0,0,0,0,0
</chunk>
   <chunk x="144" y="48" width="16" height="16">
0,0,0,0,0,0,0,0,0,0,0,0,0,0,0,0,
0,0,0,0,0,0,0,0,0,0,0,0,0,0,0,0,
0,0,0,0,0,0,0,0,0,0,0,0,0,0,0,0,
0,0,0,0,0,0,0,0,0,0,0,0,0,0,0,0,
0,0,0,0,0,0,0,0,0,0,0,0,0,0,0,0,
0,0,0,0,0,0,0,0,0,0,0,0,0,0,0,0,
0,0,0,0,0,0,0,0,0,0,0,0,0,0,0,0,
0,0,0,0,0,0,0,0,0,0,0,4,0,0,0,0,
0,0,0,0,0,0,0,0,0,0,0,0,0,0,0,0,
0,0,0,0,0,0,0,0,0,0,0,0,0,0,0,0,
0,0,0,0,0,0,0,0,0,0,0,0,0,0,0,0,
0,0,0,0,0,0,0,0,0,0,0,0,0,0,0,0,
0,0,0,0,0,0,0,0,0,0,0,0,0,0,0,0,
0,0,0,0,0,0,0,0,0,0,0,0,0,0,0,0,
0,0,0,0,0,0,0,0,0,0,0,0,0,0,0,0,
0,0,0,0,0,0,0,0,0,0,0,0,0,0,0,0
</chunk>
   <chunk x="160" y="48" width="16" height="16">
0,0,0,0,0,0,0,0,0,0,0,0,0,0,0,0,
0,0,0,0,0,0,0,0,0,0,0,0,0,0,0,0,
0,0,0,0,0,0,0,0,0,0,0,0,0,0,0,0,
0,0,0,0,0,0,0,0,0,0,0,0,0,0,0,0,
0,0,0,0,0,0,0,0,0,0,0,0,0,0,0,0,
0,0,0,0,0,0,0,0,0,0,0,0,0,0,0,0,
0,0,0,0,0,0,0,0,0,0,0,0,0,0,0,0,
0,0,0,0,0,0,0,0,0,0,0,0,0,0,0,0,
0,0,0,0,4,0,0,0,0,0,0,0,0,0,0,0,
0,0,0,0,0,0,0,0,0,0,0,0,0,0,0,0,
0,0,0,0,0,0,0,0,0,0,0,0,0,0,0,0,
0,0,0,0,0,0,0,0,0,0,0,0,0,0,0,0,
0,0,0,0,0,0,0,0,0,0,0,0,0,0,0,0,
0,0,0,0,0,0,0,0,0,0,0,0,0,0,0,0,
0,0,0,0,0,0,0,0,0,0,0,0,0,0,0,0,
0,0,0,0,0,0,0,0,0,0,0,0,0,0,0,0
</chunk>
   <chunk x="0" y="64" width="16" height="16">
0,0,0,0,0,0,0,0,0,0,0,0,0,0,0,0,
0,0,0,0,0,0,0,0,0,0,0,0,0,0,0,0,
0,0,0,0,0,0,0,0,0,0,0,0,0,0,0,0,
0,0,0,0,0,0,0,0,0,0,0,0,0,0,0,0,
0,0,0,0,0,0,0,0,0,0,0,0,0,0,0,0,
0,0,0,0,0,0,0,0,0,0,0,0,0,0,0,0,
0,0,0,0,0,0,0,0,0,0,0,0,0,0,0,0,
0,0,0,0,0,0,0,4,0,0,0,0,0,0,0,0,
0,0,0,0,0,0,0,0,0,0,0,0,0,0,0,0,
0,0,0,0,0,0,0,0,0,0,0,0,0,0,0,0,
0,0,0,0,0,0,0,0,0,0,0,0,0,0,0,0,
0,0,0,0,0,0,0,0,0,0,0,0,0,0,0,0,
0,0,0,0,0,0,0,0,0,0,0,0,0,0,0,0,
0,0,0,0,0,0,0,0,0,0,0,0,0,0,0,0,
0,0,0,0,0,0,0,0,0,0,0,0,0,0,0,0,
0,0,0,0,0,0,0,0,0,0,0,0,0,0,0,0
</chunk>
   <chunk x="16" y="64" width="16" height="16">
0,0,0,0,0,0,0,0,0,0,0,0,0,0,0,0,
0,0,0,0,0,0,0,0,0,0,0,0,0,0,0,0,
0,0,0,0,0,0,0,0,0,0,0,0,0,0,0,0,
0,0,0,0,0,0,0,0,0,0,0,0,0,0,0,0,
0,0,0,0,0,0,0,0,0,0,0,0,0,0,0,0,
0,0,0,0,0,0,0,0,0,0,0,0,0,0,0,0,
0,0,0,0,0,0,0,0,0,0,0,0,0,0,0,0,
0,0,0,0,0,0,0,0,0,0,0,0,0,0,0,0,
0,0,0,0,0,4,0,0,0,0,0,0,0,0,0,0,
0,0,0,0,0,0,0,0,0,0,0,0,0,0,0,0,
0,0,0,0,0,0,0,0,0,0,0,0,0,0,0,0,
0,0,0,0,0,0,0,0,0,0,0,0,0,0,0,0,
0,0,0,0,0,0,0,0,0,0,0,0,0,0,0,0,
0,0,0,0,0,0,0,0,0,0,0,0,0,0,0,0,
0,0,0,0,0,0,0,0,0,0,0,0,0,0,0,0,
0,0,0,0,0,0,0,0,0,0,0,0,0,0,0,0
</chunk>
   <chunk x="32" y="64" width="16" height="16">
0,0,0,0,0,0,0,0,0,0,0,0,0,0,0,0,
0,0,0,0,0,0,0,0,0,0,0,0,0,0,0,0,
0,0,0,0,0,0,0,0,0,0,0,0,0,0,0,0,
0,0,0,0,0,0,0,0,0,0,0,0,0,0,0,0,
0,0,0,0,0,0,0,0,0,0,0,0,0,0,0,0,
0,0,0,0,0,0,0,0,0,0,0,0,0,0,0,0,
0,0,0,0,0,0,0,0,0,0,0,0,0,0,0,0,
0,0,0,0,0,0,4,0,0,0,0,0,0,0,0,0,
0,0,0,0,0,0,0,0,0,0,0,0,0,0,0,0,
0,0,0,0,0,0,0,0,0,0,0,0,0,0,0,0,
0,0,0,0,0,0,0,0,0,0,0,0,0,0,0,0,
0,0,0,0,0,0,0,0,0,0,0,0,0,0,0,0,
0,0,0,0,0,0,0,0,0,0,0,0,0,0,0,0,
0,0,0,0,0,0,0,0,0,0,0,0,0,0,0,0,
0,0,0,0,0,0,0,0,0,0,0,0,0,0,0,0,
0,0,0,0,0,0,0,0,0,0,0,0,0,0,0,0
</chunk>
   <chunk x="48" y="64" width="16" height="16">
0,0,0,0,0,0,0,0,0,0,0,0,0,0,0,0,
0,0,0,0,0,0,0,0,0,0,0,0,0,0,0,0,
0,0,0,0,0,0,0,0,0,0,0,0,0,0,0,0,
0,0,0,0,0,0,0,0,0,0,0,0,0,0,0,0,
0,0,0,0,0,0,0,0,0,0,0,0,0,0,0,0,
0,0,0,0,0,0,0,0,0,0,0,0,0,0,0,0,
0,0,0,0,0,0,0,0,0,0,0,0,0,0,0,0,
0,0,0,0,0,4,0,0,0,0,0,0,0,0,0,0,
0,0,0,0,0,0,0,0,0,0,0,0,0,0,0,0,
0,0,0,0,0,0,0,0,0,0,0,0,0,0,0,0,
0,0,0,0,0,0,0,0,0,0,0,0,0,0,0,0,
0,0,0,0,0,0,0,0,0,0,0,0,0,0,0,0,
0,0,0,0,0,0,0,0,0,0,0,0,0,0,0,0,
0,0,0,0,0,0,0,0,0,0,0,0,0,0,0,0,
0,0,0,0,0,0,0,0,0,0,0,0,0,0,0,0,
0,0,0,0,0,0,0,0,0,0,0,0,0,0,0,0
</chunk>
   <chunk x="64" y="64" width="16" height="16">
0,0,0,0,0,0,0,0,70,71,71,71,71,71,72,0,
0,0,0,0,0,0,0,0,70,71,71,71,71,71,72,0,
0,0,0,0,0,0,0,0,79,80,80,80,80,80,81,0,
0,0,0,0,0,0,0,0,0,0,0,0,0,0,0,0,
0,0,0,0,0,0,0,0,0,0,0,0,0,0,0,0,
0,0,0,0,0,0,0,0,0,0,0,0,0,0,0,0,
0,0,0,0,0,0,0,0,0,0,0,0,0,0,0,0,
0,0,0,0,0,0,0,0,0,0,0,0,0,0,0,0,
0,0,0,0,0,0,0,0,0,0,0,0,0,0,0,0,
0,0,0,0,0,0,0,0,0,0,0,0,0,0,0,0,
0,0,0,0,0,0,0,0,0,0,0,0,0,0,0,0,
0,0,0,0,0,0,0,0,0,0,0,0,0,0,0,0,
0,0,0,0,0,0,0,0,0,0,0,0,0,0,0,0,
0,0,0,0,0,0,0,0,0,0,0,0,0,0,0,0,
0,0,0,0,0,0,0,0,0,0,0,0,0,0,0,0,
0,0,0,0,0,0,0,0,0,0,0,0,0,0,0,0
</chunk>
   <chunk x="80" y="64" width="16" height="16">
0,0,0,0,0,0,0,0,0,0,0,0,0,0,0,0,
0,0,0,0,0,0,0,0,0,0,0,0,0,0,0,0,
0,0,0,0,0,0,0,0,0,0,0,0,0,0,0,0,
0,0,0,0,0,0,0,0,0,0,0,0,0,0,0,0,
0,0,0,0,0,0,0,0,0,0,0,0,0,0,0,0,
0,0,0,0,0,0,0,0,0,0,0,0,0,0,0,0,
0,0,0,0,0,0,0,0,0,0,0,0,0,0,0,0,
0,0,0,0,0,0,0,0,0,0,0,0,0,0,0,0,
0,0,0,0,0,0,0,0,0,0,0,0,0,0,0,0,
0,0,0,0,0,0,0,0,0,0,0,0,0,0,0,0,
0,0,0,0,0,0,0,0,4,0,0,0,0,0,0,0,
0,0,0,0,0,0,0,0,0,0,0,0,0,0,0,0,
0,0,0,0,0,0,0,0,0,0,0,0,0,0,0,0,
0,0,0,0,0,0,0,0,0,0,0,0,0,0,0,0,
0,0,0,0,0,0,0,0,0,0,0,0,0,0,0,0,
0,0,0,0,0,0,0,0,0,0,0,0,0,0,0,0
</chunk>
   <chunk x="96" y="64" width="16" height="16">
0,0,0,0,0,70,71,71,71,71,71,71,71,71,71,71,
0,0,0,0,0,79,80,80,80,80,80,80,80,80,60,71,
0,0,0,0,0,0,0,0,0,0,0,0,0,0,70,71,
0,0,0,0,0,0,0,0,0,0,0,0,0,0,70,71,
0,0,0,0,0,0,0,0,0,0,0,0,0,0,70,71,
0,0,0,0,0,0,0,0,0,0,0,0,0,0,27,60,
0,0,0,0,0,0,0,0,0,0,0,0,0,0,0,27,
0,0,0,0,0,0,0,0,0,0,0,0,0,0,0,0,
0,0,0,0,0,0,0,0,0,0,0,0,0,0,0,0,
0,0,0,0,0,0,0,0,0,0,0,0,0,0,0,0,
0,0,0,0,0,0,0,0,0,0,0,0,0,0,0,0,
0,0,0,0,0,0,0,0,0,0,0,0,0,0,0,0,
0,0,0,0,0,0,0,0,0,0,61,62,14,15,0,0,
0,0,0,0,0,0,0,0,0,0,70,71,71,68,11,0,
0,0,0,0,0,0,0,0,0,0,79,60,71,71,68,62,
0,0,0,0,0,0,0,0,0,0,0,70,71,71,71,71
</chunk>
   <chunk x="112" y="64" width="16" height="16">
71,71,71,71,71,71,71,71,71,71,71,71,71,71,71,71,
71,71,71,71,71,71,71,71,71,71,71,71,71,71,71,71,
71,71,71,71,71,71,71,71,71,71,71,71,71,71,71,71,
71,71,71,71,71,71,71,71,71,71,71,71,71,71,71,71,
71,71,71,71,71,71,71,71,71,71,71,71,71,71,71,71,
71,71,71,71,71,71,71,71,71,71,71,71,71,71,71,71,
80,80,60,71,71,71,71,71,71,71,71,71,71,71,71,71,
0,0,27,80,80,60,71,71,71,71,71,71,71,71,71,71,
0,0,0,0,0,27,80,80,80,80,80,80,80,80,80,80,
0,0,0,0,0,0,0,0,0,0,0,0,0,0,0,0,
0,0,0,0,0,0,0,0,0,0,0,0,0,0,0,0,
0,0,0,0,0,0,0,0,0,0,0,0,0,0,0,0,
0,0,0,0,0,0,0,0,0,0,0,0,0,0,0,0,
0,0,0,0,0,0,0,0,0,0,0,0,0,0,0,0,
14,15,0,0,0,0,0,0,0,0,0,0,0,0,0,0,
71,68,62,62,62,62,62,62,14,15,0,0,0,0,0,0
</chunk>
   <chunk x="128" y="64" width="16" height="16">
71,71,71,71,71,71,71,71,71,71,72,0,0,0,0,0,
71,71,71,71,71,71,71,71,71,71,72,0,0,0,0,0,
71,71,71,71,71,71,71,71,71,71,72,0,0,0,0,0,
71,71,71,71,71,71,71,71,71,71,72,0,0,0,0,0,
71,71,71,71,71,71,71,71,71,71,72,0,0,0,0,0,
71,71,71,71,71,71,71,71,71,71,72,0,0,0,0,0,
71,71,71,71,71,71,71,71,71,71,72,0,0,0,0,0,
71,71,71,71,71,71,71,71,71,71,72,0,0,0,0,0,
80,80,80,80,80,80,80,80,80,80,81,0,0,0,0,0,
0,0,0,0,0,0,0,0,0,0,0,0,0,0,0,0,
0,0,0,0,0,0,0,0,0,0,0,0,0,0,0,0,
0,0,0,0,0,0,0,0,0,0,0,0,0,0,0,0,
0,0,0,0,0,0,0,0,0,0,0,0,0,0,0,0,
0,0,0,0,0,0,0,0,0,0,0,0,0,0,0,0,
0,0,0,0,0,0,0,0,0,0,0,0,0,0,0,0,
0,0,0,0,12,13,62,62,62,62,63,25,25,25,25,25
</chunk>
   <chunk x="144" y="64" width="16" height="16">
0,0,0,0,0,0,0,0,0,0,0,0,0,0,0,0,
0,0,0,0,0,0,0,0,0,0,0,0,0,4,0,0,
0,0,0,0,0,0,0,0,0,0,0,0,0,0,0,0,
0,0,0,0,0,0,0,0,0,0,0,0,0,0,0,0,
0,0,0,0,0,0,0,0,0,0,0,0,0,0,0,0,
0,0,0,0,0,0,0,0,0,0,0,0,0,0,0,0,
0,0,0,0,0,0,0,0,0,0,0,0,0,0,0,0,
0,0,0,0,0,0,0,0,0,0,0,0,0,0,0,0,
0,0,0,25,25,25,25,25,25,25,25,25,25,25,25,25,
0,0,0,0,0,0,0,0,0,0,0,0,0,0,0,0,
0,0,0,0,0,0,0,0,0,0,0,0,0,0,0,0,
0,0,0,0,0,0,0,0,0,0,0,0,0,0,0,0,
0,0,0,0,0,0,0,0,0,0,0,0,0,0,0,0,
0,0,0,0,0,0,0,0,0,0,0,0,0,0,0,0,
0,0,0,0,0,0,0,0,0,0,0,0,0,0,0,0,
25,25,25,25,25,25,25,25,0,0,0,0,0,0,0,0
</chunk>
   <chunk x="160" y="64" width="16" height="16">
0,0,0,0,0,0,0,0,0,0,0,0,0,0,0,0,
0,0,0,0,0,0,0,0,0,0,0,0,0,0,0,0,
0,0,0,4,0,0,0,0,0,0,0,0,0,0,0,0,
0,0,0,0,0,0,0,0,0,0,0,0,0,0,0,0,
0,0,0,0,0,0,0,0,0,0,0,0,0,0,0,0,
0,0,0,0,0,0,0,0,0,0,0,0,0,0,0,0,
0,0,0,0,0,0,0,0,0,0,0,0,0,0,0,0,
0,0,0,0,0,0,0,0,0,0,0,0,0,0,0,0,
25,25,25,25,25,25,0,0,0,0,0,0,0,0,0,0,
0,0,0,0,0,0,0,0,0,0,0,0,0,0,0,0,
0,0,0,0,0,0,0,0,0,0,0,0,0,0,0,0,
0,0,0,0,0,0,0,0,0,0,0,0,0,0,0,0,
0,0,0,0,0,0,0,0,0,0,0,0,0,0,0,0,
0,0,0,0,0,0,0,0,0,0,0,0,0,0,0,0,
0,0,0,0,0,0,0,0,0,0,0,0,0,0,0,0,
0,0,0,0,0,0,0,0,0,0,0,0,0,0,0,0
</chunk>
   <chunk x="0" y="80" width="16" height="16">
0,0,0,0,0,0,0,0,0,0,0,0,0,0,0,0,
0,0,0,0,0,0,0,0,0,0,0,0,0,0,0,0,
0,0,0,0,0,0,0,0,0,0,0,0,0,0,0,0,
0,0,0,0,0,0,0,0,0,0,0,0,0,0,0,0,
0,0,0,0,0,0,0,0,0,0,0,0,0,0,0,0,
0,0,0,0,0,0,0,0,0,0,0,0,0,0,0,0,
0,0,0,0,0,0,0,0,0,0,0,0,0,0,0,0,
0,0,0,0,0,0,0,0,0,0,0,0,0,0,0,0,
0,0,0,0,0,0,0,0,0,0,0,0,0,0,0,0,
0,0,0,0,0,0,0,0,0,0,0,0,0,0,0,0,
0,0,0,0,0,0,0,0,0,0,0,0,0,0,0,0,
0,0,0,0,0,0,0,0,0,4,0,0,0,0,0,0,
0,0,0,0,0,0,0,0,0,0,0,0,0,0,0,0,
0,0,0,0,0,0,0,0,0,0,0,0,0,0,0,0,
0,0,0,0,0,0,0,0,0,0,0,0,0,0,0,0,
0,0,0,0,0,0,0,0,0,0,0,0,0,0,0,0
</chunk>
   <chunk x="16" y="80" width="16" height="16">
0,0,0,0,0,0,0,0,0,0,0,0,0,0,0,0,
0,0,0,0,0,0,0,0,0,0,0,0,0,0,0,0,
0,0,0,0,0,0,0,0,0,0,0,0,0,0,0,0,
0,0,0,0,0,0,0,0,0,0,0,0,0,0,0,0,
0,0,0,0,0,0,0,0,0,0,0,0,0,0,0,0,
0,0,0,0,0,0,0,0,0,0,0,0,0,0,0,0,
0,0,0,0,0,0,0,0,0,0,0,0,0,0,0,0,
0,0,0,0,0,0,0,0,0,0,0,0,0,0,0,0,
0,0,0,0,0,0,0,0,0,0,0,0,0,0,0,0,
0,0,0,0,0,0,0,0,0,0,0,0,0,0,0,0,
0,0,0,0,0,0,0,0,0,0,0,0,0,0,0,0,
0,0,0,0,0,0,0,4,0,0,0,0,0,0,0,0,
0,0,0,0,0,0,0,0,0,0,0,0,0,0,0,0,
0,0,0,0,0,0,0,0,0,0,0,0,0,0,0,0,
0,0,0,0,0,0,0,0,0,0,0,0,0,0,0,0,
0,0,0,0,0,0,0,0,0,0,0,0,0,0,0,0
</chunk>
   <chunk x="32" y="80" width="16" height="16">
0,0,0,0,0,0,0,0,0,0,0,0,0,0,0,0,
0,0,0,0,0,0,0,0,0,0,0,0,0,0,0,0,
0,0,0,0,0,0,0,0,0,0,0,0,0,0,0,0,
0,0,0,0,0,0,0,0,0,0,0,0,0,0,0,0,
0,0,0,0,0,0,0,0,0,0,0,0,0,0,0,0,
0,0,0,0,0,0,0,0,0,0,0,0,0,0,0,0,
0,0,0,0,0,0,0,0,0,0,0,4,0,0,0,0,
0,0,0,0,0,0,0,0,0,0,0,0,0,0,0,0,
0,0,0,0,0,0,0,0,0,0,0,0,0,0,0,0,
0,0,0,0,0,0,0,0,0,0,0,0,0,0,0,0,
0,0,0,0,0,0,0,0,0,0,0,0,0,0,0,0,
0,0,0,0,0,0,0,0,0,0,0,0,0,0,0,0,
0,0,0,0,0,0,0,0,0,0,0,0,0,0,0,0,
0,0,0,0,0,0,0,0,0,0,0,0,0,0,0,0,
0,0,0,0,0,0,0,0,0,0,0,0,0,0,0,0,
0,0,0,0,0,0,0,0,0,0,0,0,0,0,0,0
</chunk>
   <chunk x="48" y="80" width="16" height="16">
0,0,0,0,0,0,0,0,0,0,0,0,0,0,0,0,
0,0,0,0,0,0,0,0,0,0,0,0,0,0,0,0,
0,0,0,0,0,0,0,0,0,0,0,0,0,0,0,0,
0,0,0,0,0,0,0,0,0,0,0,0,0,0,0,0,
0,0,0,0,0,0,0,0,0,0,0,0,0,0,0,0,
0,0,0,0,0,0,0,0,0,0,0,0,0,0,0,0,
0,0,0,0,0,0,0,0,0,0,0,0,0,0,0,0,
0,0,0,0,0,0,0,0,0,0,0,0,0,0,0,0,
0,0,0,0,0,0,0,0,0,0,0,0,0,0,0,0,
0,0,0,0,0,0,4,0,0,0,0,0,0,0,0,0,
0,0,0,0,0,0,0,0,0,0,0,0,0,0,0,0,
0,0,0,0,0,0,0,0,0,0,0,0,0,0,0,0,
0,0,0,0,0,0,0,0,0,0,0,0,0,0,0,0,
0,0,0,0,0,0,0,0,0,0,0,0,0,0,0,0,
0,0,0,0,0,0,0,0,0,0,0,0,0,0,0,0,
0,0,0,0,0,0,0,0,0,0,0,0,0,0,0,0
</chunk>
   <chunk x="64" y="80" width="16" height="16">
0,0,0,0,0,0,0,0,0,0,0,0,0,0,0,0,
0,0,0,0,0,0,0,0,0,0,0,0,0,0,0,0,
0,0,0,0,0,0,0,0,0,0,0,0,0,0,0,0,
0,0,0,0,0,0,0,0,0,0,0,0,0,0,0,0,
0,0,0,0,4,0,0,0,0,0,0,0,0,0,0,0,
0,0,0,0,0,0,0,0,0,0,0,0,0,0,0,0,
0,0,0,0,0,0,0,0,0,0,0,0,0,0,0,0,
0,0,0,0,0,0,0,0,0,0,0,0,0,0,0,0,
0,0,0,0,0,0,0,0,0,0,0,0,0,0,0,0,
0,0,0,0,0,0,0,0,0,0,0,0,0,0,0,0,
0,0,0,0,0,0,0,0,0,0,0,0,0,0,0,0,
0,0,0,0,0,0,0,0,0,0,0,0,0,0,0,0,
0,0,0,0,0,0,0,0,0,0,0,0,0,0,0,0,
0,0,0,0,0,0,0,0,0,0,0,0,0,0,0,0,
0,0,0,0,0,0,0,0,0,0,0,0,0,0,0,0,
0,0,0,0,0,0,0,0,0,0,0,0,0,0,0,0
</chunk>
   <chunk x="80" y="80" width="16" height="16">
0,0,0,0,0,0,0,0,0,0,0,0,0,0,0,0,
0,0,0,0,0,0,0,0,0,0,0,0,0,0,0,0,
0,0,0,0,0,0,0,0,0,0,0,0,0,0,0,0,
0,0,0,4,0,0,0,0,0,0,0,0,0,0,0,0,
0,0,0,0,0,0,0,0,0,0,0,0,0,0,0,0,
0,0,0,0,0,0,0,0,0,0,0,0,0,0,0,0,
0,0,0,0,0,0,0,0,0,0,0,0,0,0,0,0,
0,0,0,0,0,0,0,0,0,0,0,0,0,0,0,0,
0,0,0,0,0,0,0,0,0,0,0,0,0,0,0,0,
0,0,0,0,0,0,0,0,0,0,0,0,0,0,0,0,
0,0,0,0,0,0,0,0,0,0,0,0,0,0,0,0,
0,0,0,0,0,0,0,0,0,0,0,0,0,0,0,0,
0,0,0,0,0,0,0,0,0,0,0,0,0,0,0,0,
0,0,0,0,0,0,0,0,0,0,0,0,0,0,0,0,
0,0,0,0,0,0,0,0,0,0,0,0,0,0,0,0,
0,0,0,0,0,0,0,0,0,0,0,0,0,0,0,0
</chunk>
   <chunk x="96" y="80" width="16" height="16">
0,0,0,0,0,0,0,0,0,0,0,70,71,71,71,71,
0,0,0,0,0,0,0,0,0,0,0,70,71,71,71,71,
0,0,0,0,0,0,0,0,0,0,0,70,71,71,71,71,
0,0,0,0,0,0,0,0,0,0,0,70,71,71,71,71,
0,0,0,0,0,0,0,0,0,0,0,70,71,71,71,71,
0,0,0,0,0,0,0,0,0,0,0,79,80,80,80,60,
0,0,0,0,0,0,0,0,0,0,0,0,0,0,0,70,
0,0,0,0,0,0,0,0,0,0,0,0,0,0,0,70,
0,0,0,0,0,0,0,0,0,0,0,0,0,0,0,79,
0,0,0,0,0,0,0,0,0,0,0,0,0,0,0,0,
0,0,0,0,0,0,0,0,0,0,0,0,0,0,0,0,
0,0,0,0,0,0,0,0,0,0,0,0,0,0,0,0,
0,0,0,0,0,0,0,0,0,0,0,0,0,0,0,0,
0,0,0,0,0,0,0,0,0,0,0,0,0,0,0,0,
0,0,0,0,0,0,0,0,0,0,0,0,0,0,0,0,
0,0,0,0,0,0,0,0,0,0,0,0,0,0,0,0
</chunk>
   <chunk x="112" y="80" width="16" height="16">
71,71,71,71,71,71,71,71,71,68,62,62,62,62,62,62,
71,71,71,71,71,71,71,71,71,71,71,71,71,71,71,71,
71,71,71,71,71,71,71,71,71,71,71,71,71,71,71,71,
71,71,71,71,71,71,71,71,71,71,71,71,71,71,71,71,
71,71,71,71,71,71,71,71,71,71,71,71,71,71,71,71,
71,71,71,71,71,71,71,71,71,71,71,71,71,71,71,71,
71,71,71,71,71,71,71,71,71,71,71,71,71,71,59,80,
71,71,71,71,71,71,71,71,71,71,71,71,71,71,72,0,
80,80,80,80,80,80,80,80,80,80,80,80,80,80,81,0,
0,0,0,0,0,0,0,0,0,0,0,0,0,0,0,0,
0,0,0,0,0,0,0,0,0,0,0,0,0,0,0,0,
0,0,0,0,0,0,0,0,0,0,0,0,0,0,0,0,
0,0,0,0,0,0,0,0,0,0,0,0,0,0,0,0,
0,0,0,0,0,0,0,0,0,0,0,0,0,0,0,0,
0,0,0,0,0,0,0,0,0,0,0,0,0,0,0,0,
0,0,0,0,0,0,0,0,0,0,0,0,0,0,0,0
</chunk>
   <chunk x="128" y="80" width="16" height="16">
62,62,62,62,69,71,71,71,71,71,72,0,0,0,0,0,
71,71,71,71,71,71,71,71,71,71,72,0,0,0,0,0,
71,71,71,71,71,71,71,71,71,71,72,0,0,0,0,0,
71,71,71,71,71,71,71,71,71,71,72,0,0,0,0,0,
71,71,71,71,71,71,71,71,71,71,72,0,0,0,0,0,
71,71,71,71,71,71,71,71,71,71,72,0,0,0,0,0,
80,80,80,80,80,80,80,80,80,80,81,0,0,0,0,0,
0,0,0,0,0,0,0,0,0,0,0,0,0,0,0,0,
0,0,0,0,0,0,0,0,0,0,0,0,0,0,0,0,
0,0,0,0,0,0,0,0,0,0,0,0,0,0,0,0,
0,0,0,0,0,0,0,0,0,0,0,0,0,0,0,0,
0,0,0,0,0,0,0,0,0,0,0,0,0,0,0,0,
0,0,0,0,0,0,0,0,0,0,0,0,0,0,0,0,
0,0,0,0,0,0,0,0,0,0,0,0,0,0,0,0,
0,0,0,0,0,0,0,0,0,0,0,0,0,0,0,0,
0,0,0,0,0,0,0,0,0,0,0,0,0,0,0,0
</chunk>
   <chunk x="144" y="80" width="16" height="16">
0,0,0,0,0,0,0,0,0,0,0,0,0,0,0,0,
0,0,0,0,0,0,0,0,0,0,0,0,0,0,0,0,
0,0,0,0,0,0,0,0,0,0,0,0,0,0,0,0,
0,0,0,0,0,0,0,0,0,0,0,0,0,0,0,0,
0,0,0,0,0,0,0,0,0,0,0,0,0,0,0,0,
0,0,0,0,0,0,0,0,0,0,0,0,0,0,0,0,
0,0,0,0,0,0,0,0,0,0,0,0,0,0,0,0,
0,0,0,0,0,0,0,0,0,0,0,0,0,0,0,0,
0,0,0,0,0,0,0,0,0,0,0,0,0,0,0,0,
0,0,0,0,0,0,0,0,0,0,0,0,0,0,0,0,
0,0,0,0,0,0,0,0,0,0,0,0,0,0,0,0,
0,0,0,0,0,25,25,25,25,25,25,25,4,0,0,0,
0,0,0,0,0,0,0,0,0,0,0,0,0,0,0,0,
0,0,0,0,0,0,0,0,0,0,0,0,0,0,0,0,
0,0,0,0,0,0,0,0,0,0,0,0,0,0,0,0,
0,0,0,0,0,0,0,0,0,0,0,0,0,0,0,0
</chunk>
   <chunk x="160" y="80" width="16" height="16">
0,0,0,0,0,0,0,0,0,0,0,0,0,0,0,0,
0,0,0,0,0,0,0,0,0,0,0,0,0,0,0,0,
0,0,0,0,0,0,0,0,0,0,0,0,0,0,0,0,
0,0,0,0,0,0,0,0,0,0,0,0,0,0,0,0,
0,0,0,0,0,0,0,0,0,0,0,0,0,0,0,0,
0,0,0,0,0,0,0,0,0,0,0,0,0,0,0,0,
0,0,0,0,0,0,0,0,0,0,0,0,0,0,0,0,
0,0,0,0,0,0,0,0,0,0,0,0,0,0,0,0,
0,0,0,0,0,0,0,0,0,0,0,0,0,0,0,0,
0,0,0,0,0,0,0,0,0,0,0,0,0,0,0,0,
0,0,0,0,0,0,0,0,0,0,0,0,0,0,0,0,
0,0,0,0,0,0,0,0,0,0,0,0,0,0,0,0,
0,0,0,0,0,0,4,0,0,0,0,0,0,0,0,0,
0,0,0,0,0,0,0,0,0,0,0,0,0,0,0,0,
0,0,0,0,0,0,0,0,0,0,0,0,0,0,0,0,
0,0,0,0,0,0,0,0,0,0,0,0,0,0,0,0
</chunk>
   <chunk x="0" y="96" width="16" height="16">
0,0,0,0,0,0,0,0,0,0,0,0,0,0,0,0,
0,0,0,0,0,0,0,0,0,0,0,0,0,0,0,0,
0,0,0,0,0,0,0,0,0,0,0,0,0,0,0,0,
0,0,0,0,0,0,0,0,0,0,0,0,0,0,0,0,
0,0,0,0,0,0,0,0,0,0,0,0,0,0,0,0,
0,0,0,0,0,0,0,0,0,0,0,0,0,0,0,0,
0,0,0,0,0,0,0,0,0,0,0,0,0,0,0,0,
0,0,0,0,0,0,0,0,4,0,0,0,0,0,0,0,
0,0,0,0,0,0,0,0,0,0,0,0,0,0,0,0,
0,0,0,0,0,0,0,0,0,0,0,0,0,0,0,0,
0,0,0,0,0,0,0,0,0,0,0,0,0,0,0,0,
0,0,0,0,0,0,0,0,0,0,0,0,0,0,0,0,
0,0,0,0,0,0,0,0,0,0,0,0,0,0,0,0,
0,0,0,0,0,0,0,0,0,0,0,0,0,0,0,0,
0,0,0,0,0,0,0,0,0,0,0,0,0,0,0,0,
0,0,0,0,0,0,0,0,0,0,0,0,0,0,0,0
</chunk>
   <chunk x="16" y="96" width="16" height="16">
0,0,0,0,0,0,0,0,0,0,0,0,0,0,0,0,
0,0,0,0,0,0,0,0,0,0,0,0,0,0,0,0,
0,0,0,0,0,0,0,0,0,0,0,0,0,0,0,0,
0,0,0,0,0,0,0,0,0,0,0,0,0,0,0,0,
0,0,0,0,0,0,0,0,0,0,0,0,0,0,0,0,
0,0,0,0,0,0,0,0,0,0,0,0,0,0,0,0,
0,0,0,0,0,0,0,0,0,0,0,0,0,0,0,0,
0,0,0,0,0,0,0,0,0,0,0,4,0,0,0,0,
0,0,0,0,0,0,0,0,0,0,0,0,0,0,0,0,
0,0,0,0,0,0,0,0,0,0,0,0,0,0,0,0,
0,0,0,0,0,0,0,0,0,0,0,0,0,0,0,0,
0,0,0,0,0,0,0,0,0,0,0,0,0,0,0,0,
0,0,0,0,0,0,0,0,0,0,0,0,0,0,0,0,
0,0,0,0,0,0,0,0,0,0,0,0,0,0,0,0,
0,0,0,0,0,0,0,0,0,0,0,0,0,0,0,0,
0,0,0,0,0,0,0,0,0,0,0,0,0,0,0,0
</chunk>
   <chunk x="32" y="96" width="16" height="16">
0,0,0,0,0,0,0,0,0,0,0,0,0,0,0,0,
0,0,0,0,0,0,0,0,0,0,0,0,0,0,0,0,
0,0,0,0,0,0,0,0,0,0,0,0,0,0,0,0,
0,0,0,0,0,0,0,0,0,0,0,0,0,0,0,0,
0,0,0,0,0,0,0,0,0,0,0,0,0,0,0,0,
0,0,0,0,0,0,0,0,0,0,0,0,0,0,0,0,
0,61,63,0,0,0,0,0,0,0,0,0,0,0,0,0,
0,79,81,0,0,0,0,0,0,0,0,0,0,0,0,0,
0,17,26,0,0,0,0,0,0,0,0,0,0,0,0,0,
0,17,26,0,0,0,0,0,0,0,0,0,0,0,0,0,
0,17,26,0,0,0,0,0,0,0,0,0,0,0,0,0,
0,17,26,0,0,0,0,0,0,0,0,0,0,0,0,0,
0,61,63,25,0,0,0,0,0,0,0,0,0,0,0,0,
0,79,81,0,0,0,0,0,0,0,0,0,0,0,0,0,
0,0,0,0,0,0,0,0,0,0,0,0,0,0,0,0,
0,0,0,0,0,0,0,0,0,0,0,0,0,0,0,0
</chunk>
   <chunk x="48" y="96" width="16" height="16">
0,0,0,0,0,0,0,0,0,0,0,0,0,0,0,0,
0,0,0,0,0,0,0,0,0,0,0,0,0,0,0,0,
0,0,0,0,0,0,0,0,0,0,0,0,0,0,0,0,
0,0,0,0,0,0,0,0,0,0,0,0,0,0,0,0,
0,0,0,0,0,0,0,0,0,0,0,0,0,0,0,0,
0,0,0,0,0,0,0,0,0,0,0,0,0,0,0,0,
0,0,0,0,0,0,0,0,0,0,0,0,0,0,0,0,
0,0,0,0,0,0,0,0,0,0,0,0,0,0,0,0,
0,0,0,0,0,0,0,0,0,0,0,0,0,0,0,0,
0,0,0,0,0,0,0,0,25,25,25,25,25,25,25,25,
0,0,0,0,0,0,0,0,0,0,0,0,0,0,0,0,
0,0,0,0,0,0,0,0,0,0,0,0,0,0,0,0,
0,0,0,0,0,0,0,0,0,0,0,0,0,0,0,0,
0,0,0,0,0,0,0,0,0,0,0,0,0,0,0,0,
0,0,0,0,0,0,0,0,0,0,0,0,0,0,0,0,
0,0,0,0,0,0,0,0,0,0,0,0,0,0,0,0
</chunk>
   <chunk x="64" y="96" width="16" height="16">
0,0,0,0,0,0,0,0,0,0,0,0,0,0,0,0,
0,0,0,0,0,0,0,0,0,0,0,0,0,0,0,0,
0,0,0,0,0,0,0,0,0,0,0,0,0,0,0,0,
0,0,0,0,0,0,0,0,0,0,0,0,0,0,0,0,
0,0,0,0,0,0,0,0,0,0,0,0,0,0,0,0,
0,0,0,0,0,0,0,0,0,0,25,25,25,25,25,0,
0,0,0,0,0,0,0,0,0,0,0,0,0,0,0,0,
0,0,0,0,0,0,0,0,0,0,0,0,0,0,0,0,
0,0,0,0,0,0,0,0,0,0,0,0,0,0,0,0,
25,25,0,0,0,0,0,0,0,0,0,0,0,0,0,0,
0,0,0,0,0,0,0,0,0,0,0,0,0,0,0,0,
0,0,0,0,0,0,0,0,0,0,0,0,0,0,0,0,
0,0,0,0,0,0,0,0,0,0,0,0,0,0,0,0,
0,0,0,0,0,0,0,0,0,0,0,0,0,0,0,0,
0,0,0,0,0,0,0,0,0,0,0,0,0,0,0,0,
0,0,0,0,0,0,0,0,0,0,0,0,0,0,0,0
</chunk>
   <chunk x="80" y="96" width="16" height="16">
0,0,0,0,0,0,0,0,0,0,0,0,0,0,0,0,
0,0,0,0,0,0,0,0,0,0,0,0,0,0,0,0,
0,0,0,0,0,0,0,0,0,0,0,0,0,0,0,0,
0,0,0,0,0,0,0,0,0,0,0,0,0,0,0,0,
0,0,0,0,0,0,0,0,0,0,0,0,0,0,0,0,
0,0,0,0,0,0,0,0,0,0,0,0,0,0,0,0,
0,0,0,0,0,0,0,0,0,61,63,0,0,0,0,0,
0,0,0,0,0,0,0,0,0,79,81,0,0,0,0,0,
0,0,0,0,0,0,0,0,0,17,26,0,0,0,0,0,
0,0,0,0,0,0,0,0,0,17,26,0,0,0,0,0,
0,0,0,0,0,0,0,0,0,17,26,0,0,0,0,0,
0,0,0,0,0,0,0,0,0,17,26,0,0,0,0,0,
0,0,0,0,0,0,0,0,0,61,63,0,0,0,0,0,
0,0,0,0,0,0,0,0,0,79,81,0,0,0,0,0,
0,0,0,0,0,0,0,0,0,0,0,0,0,0,0,0,
0,0,0,0,0,0,0,0,0,0,0,0,0,0,0,0
</chunk>
   <chunk x="96" y="96" width="16" height="16">
0,0,0,0,0,0,0,0,0,0,0,0,0,0,0,0,
0,0,0,0,0,0,0,0,0,0,0,0,0,0,0,0,
0,0,0,0,0,0,0,0,0,0,0,0,0,0,0,0,
0,0,0,0,0,0,0,0,0,0,0,0,0,0,0,0,
0,0,0,0,0,0,0,0,0,0,0,0,0,0,0,0,
0,0,0,0,0,0,4,0,0,0,0,0,0,0,0,0,
0,0,0,0,0,0,0,0,0,0,0,0,0,0,0,0,
0,0,0,0,0,0,0,0,0,0,0,0,0,0,0,0,
0,0,0,0,0,0,0,0,0,0,0,0,0,0,0,0,
0,0,0,0,0,0,0,0,0,0,0,0,0,0,0,0,
0,0,0,0,0,0,0,0,0,0,0,0,0,0,0,0,
0,0,0,0,0,0,0,0,0,0,0,0,0,0,0,0,
0,0,0,0,0,0,0,0,0,0,0,0,0,0,0,0,
0,0,0,0,0,0,0,0,0,0,0,0,0,0,0,0,
0,0,0,0,0,0,0,0,0,0,0,0,0,0,0,0,
0,0,0,0,0,0,0,0,0,0,0,0,0,0,0,0
</chunk>
   <chunk x="112" y="96" width="16" height="16">
0,0,0,0,0,0,0,0,0,0,0,0,0,0,0,0,
0,0,0,0,0,0,0,0,0,0,0,0,0,0,0,0,
0,0,0,0,0,0,0,0,0,0,0,0,0,0,0,0,
0,0,0,0,0,0,0,0,0,0,0,0,0,0,0,0,
0,0,0,0,0,0,0,0,0,0,0,0,0,0,0,0,
0,0,0,0,0,0,0,0,4,0,0,0,0,0,0,0,
0,0,0,0,0,0,0,0,0,0,0,0,0,0,0,0,
0,0,0,0,0,0,0,0,0,0,0,0,0,0,0,0,
0,0,0,0,0,0,0,0,0,0,0,0,0,0,0,0,
0,0,0,0,0,0,0,0,0,0,0,0,0,0,0,0,
0,0,0,0,0,0,0,0,0,0,0,0,0,0,0,0,
0,0,0,0,0,0,0,0,0,0,0,0,0,0,0,0,
0,0,0,0,0,0,0,0,0,0,0,0,0,0,0,0,
0,0,0,0,0,0,0,0,0,0,0,0,0,0,0,0,
0,0,0,0,0,0,0,0,0,0,0,0,0,0,0,0,
0,0,0,0,0,0,0,0,0,0,0,0,0,0,0,0
</chunk>
   <chunk x="128" y="96" width="16" height="16">
0,0,0,0,0,0,0,0,0,0,0,0,0,0,0,0,
0,0,0,0,0,0,0,0,0,0,0,0,0,0,0,0,
0,0,0,0,0,0,0,0,0,0,25,25,25,25,25,25,
0,0,0,0,0,0,0,0,0,0,0,0,0,0,0,0,
0,0,0,0,0,0,0,0,0,0,0,0,0,0,0,0,
0,0,4,0,0,0,0,0,0,0,0,0,0,0,0,0,
0,0,0,0,0,0,0,0,0,0,0,0,0,0,0,0,
0,0,0,0,0,0,0,0,0,0,0,0,0,0,0,0,
0,0,0,0,0,0,0,0,0,0,0,0,0,0,0,0,
0,0,0,0,0,0,0,0,0,0,0,0,0,0,0,0,
0,0,0,0,0,0,0,0,0,0,0,0,0,0,0,0,
0,0,0,0,0,0,0,0,0,0,0,0,0,0,0,0,
0,0,0,0,0,0,0,0,0,0,0,0,0,0,0,0,
0,0,0,0,0,0,0,0,0,0,0,0,0,0,0,0,
0,0,0,0,0,0,0,0,0,0,0,0,0,0,0,0,
0,0,0,0,0,0,0,0,0,0,0,0,0,0,0,0
</chunk>
   <chunk x="144" y="96" width="16" height="16">
0,0,0,0,0,0,0,0,0,0,0,0,0,0,0,0,
0,0,0,0,0,0,0,0,0,0,0,0,0,0,0,0,
25,25,25,0,0,0,0,0,0,0,0,0,4,0,0,0,
0,0,0,0,0,0,0,0,0,0,0,0,0,0,0,0,
0,0,0,0,0,0,0,0,0,0,0,0,0,0,0,0,
0,0,0,0,0,0,0,0,0,0,0,0,0,0,0,0,
0,0,0,0,0,0,0,0,0,0,0,0,0,0,0,0,
0,0,0,0,0,0,0,0,0,0,0,0,0,0,0,0,
0,0,0,0,0,0,0,0,0,0,0,0,0,0,0,0,
0,0,0,0,0,0,0,0,0,0,0,0,0,0,0,0,
0,0,0,0,0,0,0,0,0,0,0,0,0,0,0,0,
0,0,0,0,0,0,0,0,0,0,0,0,0,0,0,0,
0,0,0,0,0,0,0,0,0,0,0,0,0,0,0,0,
0,0,0,0,0,0,0,0,0,0,0,0,0,0,0,0,
0,0,0,0,0,0,0,0,0,0,0,0,0,0,0,0,
0,0,0,0,0,0,0,0,0,0,0,0,0,0,0,0
</chunk>
   <chunk x="160" y="96" width="16" height="16">
0,0,0,0,0,0,0,0,0,0,0,0,0,0,0,0,
0,0,0,0,0,0,0,0,0,0,0,0,0,0,0,0,
0,0,0,0,0,0,0,0,0,0,0,0,0,0,0,0,
0,0,0,0,0,0,0,0,0,0,0,0,0,0,0,0,
0,0,0,0,0,0,0,0,0,0,0,0,0,0,0,0,
0,0,0,0,0,0,0,0,0,0,0,0,0,0,0,0,
0,0,0,0,0,0,0,0,4,0,0,0,0,0,0,0,
0,0,0,0,0,0,0,0,0,0,0,0,0,0,0,0,
0,0,0,0,0,0,0,0,0,0,0,0,0,0,0,0,
0,0,0,0,0,0,0,0,0,0,0,0,0,0,0,0,
0,0,0,0,0,0,0,0,0,0,0,0,0,0,0,0,
0,0,0,0,0,0,0,0,0,0,0,0,0,0,0,0,
0,0,0,0,0,0,0,0,0,0,0,0,0,0,0,0,
0,0,0,0,0,0,0,0,0,0,0,0,0,0,0,0,
0,0,0,0,0,0,0,0,0,0,0,0,0,0,0,0,
0,0,0,0,0,0,0,0,0,0,0,0,0,0,0,0
</chunk>
   <chunk x="0" y="112" width="16" height="16">
0,0,0,0,0,0,0,0,0,0,0,0,0,0,0,0,
0,0,0,0,0,0,0,0,0,0,0,0,0,0,0,0,
0,0,0,0,0,0,0,0,0,0,0,0,0,0,61,62,
0,0,0,0,0,0,0,0,0,0,0,0,0,0,70,71,
0,0,0,0,0,0,0,0,0,0,0,0,0,0,70,71,
0,0,0,0,0,0,0,0,0,0,0,0,0,0,70,71,
0,0,0,0,0,0,0,0,0,0,0,0,0,0,70,71,
0,0,0,0,0,0,0,0,0,0,0,0,0,0,70,71,
0,0,0,0,0,0,0,0,0,0,0,0,0,0,70,71,
0,0,0,0,0,0,0,0,0,0,0,0,0,0,70,71,
0,0,0,0,0,0,0,0,0,0,0,0,0,0,70,71,
0,0,0,0,0,0,0,0,0,0,0,0,0,0,70,71,
0,0,0,0,0,0,0,0,0,0,0,0,0,0,70,71,
0,0,0,0,0,0,0,0,0,0,0,0,0,0,70,71,
0,0,0,0,0,0,0,0,0,0,0,0,0,0,70,71,
0,0,0,0,0,0,0,0,0,0,0,0,0,0,70,71
</chunk>
   <chunk x="16" y="112" width="16" height="16">
0,0,0,0,0,0,0,0,0,0,0,0,0,0,0,0,
0,0,0,0,0,0,0,0,0,0,0,0,0,0,0,0,
62,62,62,62,62,62,62,62,62,62,62,62,62,62,62,62,
71,71,71,71,71,71,71,71,71,71,71,71,71,71,71,71,
71,71,71,71,71,71,71,71,71,71,71,71,71,71,71,71,
71,71,71,71,71,71,71,71,71,71,71,71,71,71,71,71,
71,71,71,71,71,71,71,71,71,71,71,71,71,71,71,71,
71,71,71,71,71,71,71,71,71,71,71,71,71,71,71,71,
71,71,71,71,71,71,71,71,71,71,71,71,71,71,71,71,
71,71,71,71,71,71,71,71,71,71,71,71,71,71,71,71,
71,71,71,71,71,71,71,71,71,71,71,71,71,71,71,71,
71,71,71,71,71,71,71,71,71,71,71,71,71,71,71,71,
71,71,71,71,71,71,71,71,71,71,71,71,71,71,71,71,
71,71,71,71,71,71,71,71,71,71,71,71,71,71,71,71,
71,71,71,71,71,71,71,71,71,71,71,71,71,71,71,71,
71,71,71,71,71,71,71,71,71,71,71,71,71,71,71,71
</chunk>
   <chunk x="32" y="112" width="16" height="16">
0,0,0,0,0,0,0,0,0,0,0,0,0,0,0,0,
0,0,0,0,0,0,0,0,0,0,0,0,0,0,0,0,
62,62,62,62,62,62,62,62,62,62,62,62,62,62,62,62,
71,71,71,71,71,71,71,71,71,71,71,71,71,71,71,71,
71,71,71,71,71,71,71,71,71,71,71,71,71,71,71,71,
71,71,71,71,71,71,71,71,71,71,71,71,71,71,71,71,
71,71,71,71,71,71,71,71,71,71,71,71,71,71,71,71,
71,71,71,71,71,71,71,71,71,71,71,71,71,71,71,71,
71,71,71,71,71,71,71,71,71,71,71,71,71,71,71,71,
71,71,71,71,71,71,71,71,71,71,71,71,71,71,71,71,
71,71,71,71,71,71,71,71,71,71,71,71,71,71,71,71,
71,71,71,71,71,71,71,71,71,71,71,71,71,71,71,71,
71,71,71,71,71,71,71,71,71,71,71,71,71,71,71,71,
71,71,71,71,71,71,71,71,71,71,71,71,71,71,71,71,
71,71,71,71,71,71,71,71,71,71,71,71,71,71,71,71,
71,71,71,71,71,71,71,71,71,71,71,71,71,71,71,71
</chunk>
   <chunk x="48" y="112" width="16" height="16">
0,0,0,0,0,0,0,0,0,0,0,0,0,0,0,0,
0,0,0,0,0,0,0,0,0,0,0,0,0,0,0,0,
62,62,62,62,62,62,62,62,62,62,62,62,62,62,62,62,
71,71,71,71,71,71,71,71,71,71,71,71,71,71,71,71,
71,71,71,71,71,71,71,71,71,71,71,71,71,71,71,71,
71,71,71,71,71,71,71,71,71,71,71,71,71,71,71,71,
71,71,71,71,71,71,71,71,71,71,71,71,71,71,71,71,
71,71,71,71,71,71,71,71,71,71,71,71,71,71,71,71,
71,71,71,71,71,71,71,71,71,71,71,71,71,71,71,71,
71,71,71,71,71,71,71,71,71,71,71,71,71,71,71,71,
71,71,71,71,71,71,71,71,71,71,71,71,71,71,71,71,
71,71,71,71,71,71,71,71,71,71,71,71,71,71,71,71,
71,71,71,71,71,71,71,71,71,71,71,71,71,71,71,71,
71,71,71,71,71,71,71,71,71,71,71,71,71,71,71,71,
71,71,71,71,71,71,71,71,71,71,71,71,71,71,71,71,
71,71,71,71,71,71,71,71,71,71,71,71,71,71,71,71
</chunk>
   <chunk x="64" y="112" width="16" height="16">
0,0,0,0,0,0,0,0,0,0,0,0,0,0,0,0,
0,0,0,0,0,0,0,0,0,0,0,0,0,0,0,0,
62,62,62,62,62,62,62,62,62,62,62,62,62,62,62,62,
71,71,71,71,71,71,71,71,71,71,71,71,71,71,71,71,
71,71,71,71,71,71,71,71,71,71,71,71,71,71,71,71,
71,71,71,71,71,71,71,71,71,71,71,71,71,71,71,71,
71,71,71,71,71,71,71,71,71,71,71,71,71,71,71,71,
71,71,71,71,71,71,71,71,71,71,71,71,71,71,71,71,
71,71,71,71,71,71,71,71,71,71,71,71,71,71,71,71,
71,71,71,71,71,71,71,71,71,71,71,71,71,71,71,71,
71,71,71,71,71,71,71,71,71,71,71,71,71,71,71,71,
71,71,71,71,71,71,71,71,71,71,71,71,71,71,71,71,
71,71,71,71,71,71,71,71,71,71,71,71,71,71,71,71,
71,71,71,71,71,71,71,71,71,71,71,71,71,71,71,71,
71,71,71,71,71,71,71,71,71,71,71,71,71,71,71,71,
71,71,71,71,71,71,71,71,71,71,71,71,71,71,71,71
</chunk>
   <chunk x="80" y="112" width="16" height="16">
0,0,0,0,0,0,0,0,0,0,0,0,0,0,0,0,
0,0,0,0,0,0,0,0,0,0,0,0,0,0,0,0,
62,62,62,62,62,62,62,62,62,62,62,62,62,62,62,62,
71,71,71,71,71,71,71,71,71,71,71,71,71,71,71,71,
71,71,71,71,71,71,71,71,71,71,71,71,71,71,71,71,
71,71,71,71,71,71,71,71,71,71,71,71,71,71,71,71,
71,71,71,71,71,71,71,71,71,71,71,71,71,71,71,71,
71,71,71,71,71,71,71,71,71,71,71,71,71,71,71,71,
71,71,71,71,71,71,71,71,71,71,71,71,71,71,71,71,
71,71,71,71,71,71,71,71,71,71,71,71,71,71,71,71,
71,71,71,71,71,71,71,71,71,71,71,71,71,71,71,71,
71,71,71,71,71,71,71,71,71,71,71,71,71,71,71,71,
71,71,71,71,71,71,71,71,71,71,71,71,71,71,71,71,
71,71,71,71,71,71,71,71,71,71,71,71,71,71,71,71,
71,71,71,71,71,71,71,71,71,71,71,71,71,71,71,71,
71,71,71,71,71,71,71,71,71,71,71,71,71,71,71,71
</chunk>
   <chunk x="96" y="112" width="16" height="16">
0,0,0,0,0,0,0,0,0,0,0,0,0,0,0,0,
0,0,0,0,0,0,0,0,0,0,0,0,0,0,0,0,
62,62,62,62,62,62,62,62,62,62,62,62,62,62,62,62,
71,71,71,71,71,71,71,71,71,71,71,71,71,71,71,71,
71,71,71,71,71,71,71,71,71,71,71,71,71,71,71,71,
71,71,71,71,71,71,71,71,71,71,71,71,71,71,71,71,
71,71,71,71,71,71,71,71,71,71,71,71,71,71,71,71,
71,71,71,71,71,71,71,71,71,71,71,71,71,71,71,71,
71,71,71,71,71,71,71,71,71,71,71,71,71,71,71,71,
71,71,71,71,71,71,71,71,71,71,71,71,71,71,71,71,
71,71,71,71,71,71,71,71,71,71,71,71,71,71,71,71,
71,71,71,71,71,71,71,71,71,71,71,71,71,71,71,71,
71,71,71,71,71,71,71,71,71,71,71,71,71,71,71,71,
71,71,71,71,71,71,71,71,71,71,71,71,71,71,71,71,
71,71,71,71,71,71,71,71,71,71,71,71,71,71,71,71,
71,71,71,71,71,71,71,71,71,71,71,71,71,71,71,71
</chunk>
   <chunk x="112" y="112" width="16" height="16">
0,0,0,0,0,0,0,0,0,0,0,0,0,0,0,0,
0,0,0,0,0,0,0,0,0,0,0,0,0,0,0,0,
62,62,62,62,62,62,62,62,62,62,62,62,62,62,62,62,
71,71,71,71,71,71,71,71,71,71,71,71,71,71,71,71,
71,71,71,71,71,71,71,71,71,71,71,71,71,71,71,71,
71,71,71,71,71,71,71,71,71,71,71,71,71,71,71,71,
71,71,71,71,71,71,71,71,71,71,71,71,71,71,71,71,
71,71,71,71,71,71,71,71,71,71,71,71,71,71,71,71,
71,71,71,71,71,71,71,71,71,71,71,71,71,71,71,71,
71,71,71,71,71,71,71,71,71,71,71,71,71,71,71,71,
71,71,71,71,71,71,71,71,71,71,71,71,71,71,71,71,
71,71,71,71,71,71,71,71,71,71,71,71,71,71,71,71,
71,71,71,71,71,71,71,71,71,71,71,71,71,71,71,71,
71,71,71,71,71,71,71,71,71,71,71,71,71,71,71,71,
71,71,71,71,71,71,71,71,71,71,71,71,71,71,71,71,
71,71,71,71,71,71,71,71,71,71,71,71,71,71,71,71
</chunk>
   <chunk x="128" y="112" width="16" height="16">
0,0,0,0,0,0,0,0,0,0,0,0,0,0,0,0,
0,0,0,0,0,0,0,0,0,0,0,0,0,0,0,0,
62,62,62,62,62,62,62,62,62,62,62,62,62,62,62,62,
71,71,71,71,71,71,71,71,71,71,71,71,71,71,71,71,
71,71,71,71,71,71,71,71,71,71,71,71,71,71,71,71,
71,71,71,71,71,71,71,71,71,71,71,71,71,71,71,71,
71,71,71,71,71,71,71,71,71,71,71,71,71,71,71,71,
71,71,71,71,71,71,71,71,71,71,71,71,71,71,71,71,
71,71,71,71,71,71,71,71,71,71,71,71,71,71,71,71,
71,71,71,71,71,71,71,71,71,71,71,71,71,71,71,71,
71,71,71,71,71,71,71,71,71,71,71,71,71,71,71,71,
71,71,71,71,71,71,71,71,71,71,71,71,71,71,71,71,
71,71,71,71,71,71,71,71,71,71,71,71,71,71,71,71,
71,71,71,71,71,71,71,71,71,71,71,71,71,71,71,71,
71,71,71,71,71,71,71,71,71,71,71,71,71,71,71,71,
71,71,71,71,71,71,71,71,71,71,71,71,71,71,71,71
</chunk>
   <chunk x="144" y="112" width="16" height="16">
0,0,0,0,0,0,0,0,0,0,0,0,0,0,0,0,
0,0,0,0,0,0,0,0,0,0,0,0,0,0,0,0,
62,62,62,62,62,62,62,62,62,62,62,62,62,62,62,62,
71,71,71,71,71,71,71,71,71,71,71,71,71,71,71,71,
71,71,71,71,71,71,71,71,71,71,71,71,71,71,71,71,
71,71,71,71,71,71,71,71,71,71,71,71,71,71,71,71,
71,71,71,71,71,71,71,71,71,71,71,71,71,71,71,71,
71,71,71,71,71,71,71,71,71,71,71,71,71,71,71,71,
71,71,71,71,71,71,71,71,71,71,71,71,71,71,71,71,
71,71,71,71,71,71,71,71,71,71,71,71,71,71,71,71,
71,71,71,71,71,71,71,71,71,71,71,71,71,71,71,71,
71,71,71,71,71,71,71,71,71,71,71,71,71,71,71,71,
71,71,71,71,71,71,71,71,71,71,71,71,71,71,71,71,
71,71,71,71,71,71,71,71,71,71,71,71,71,71,71,71,
71,71,71,71,71,71,71,71,71,71,71,71,71,71,71,71,
71,71,71,71,71,71,71,71,71,71,71,71,71,71,71,71
</chunk>
   <chunk x="160" y="112" width="16" height="16">
0,0,0,0,0,0,0,0,0,0,0,0,0,0,0,0,
0,0,0,0,0,0,0,0,0,0,0,0,0,0,0,0,
62,63,0,0,0,0,0,0,0,0,0,0,0,0,0,0,
71,72,0,0,0,0,0,0,0,0,0,0,0,0,0,0,
71,72,0,0,0,0,0,0,0,0,0,0,0,0,0,0,
71,72,0,0,0,0,0,0,0,0,0,0,0,0,0,0,
71,72,0,0,0,0,0,0,0,0,0,0,0,0,0,0,
71,72,0,0,0,0,0,0,0,0,0,0,0,0,0,0,
71,72,0,0,0,0,0,0,0,0,0,0,0,0,0,0,
71,72,0,0,0,0,0,0,0,0,0,0,0,0,0,0,
71,72,0,0,0,0,0,0,0,0,0,0,0,0,0,0,
71,72,0,0,0,0,0,0,0,0,0,0,0,0,0,0,
71,72,0,0,0,0,0,0,0,0,0,0,0,0,0,0,
71,72,0,0,0,0,0,0,0,0,0,0,0,0,0,0,
71,72,0,0,0,0,0,0,0,0,0,0,0,0,0,0,
71,72,0,0,0,0,0,0,0,0,0,0,0,0,0,0
</chunk>
   <chunk x="0" y="128" width="16" height="16">
0,0,0,0,0,0,0,0,0,0,0,0,0,0,70,71,
0,0,0,0,0,0,0,0,0,0,0,0,0,0,70,71,
0,0,0,0,0,0,0,0,0,0,0,0,0,0,70,71,
0,0,0,0,0,0,0,0,0,0,0,0,0,0,70,71,
0,0,0,0,0,0,0,0,0,0,0,0,0,0,70,71,
0,0,0,0,0,0,0,0,0,0,0,0,0,0,70,71,
0,0,0,0,0,0,0,0,0,0,0,0,0,0,70,71,
0,0,0,0,0,0,0,0,0,0,0,0,0,0,70,71,
0,0,0,0,0,0,0,0,0,0,0,0,0,0,70,71,
0,0,0,0,0,0,0,0,0,0,0,0,0,0,70,71,
0,0,0,0,0,0,0,0,0,0,0,0,0,0,70,71,
0,0,0,0,0,0,0,0,0,0,0,0,0,0,70,71,
0,0,0,0,0,0,0,0,0,0,0,0,0,0,70,71,
0,0,0,0,0,0,0,0,0,0,0,0,0,0,70,71,
0,0,0,0,0,0,0,0,0,0,0,0,0,0,70,71,
0,0,0,0,0,0,0,0,0,0,0,0,0,0,70,71
</chunk>
   <chunk x="16" y="128" width="16" height="16">
71,71,71,71,71,71,71,71,71,71,71,71,71,71,71,71,
71,71,71,71,71,71,71,71,71,71,71,71,71,71,71,71,
71,71,71,71,71,71,71,71,71,71,71,71,71,71,71,71,
71,71,71,71,71,71,71,71,71,71,71,71,71,71,71,71,
71,71,71,71,71,71,71,71,71,71,71,71,71,71,71,71,
71,71,71,71,71,71,71,71,71,71,71,71,71,71,71,71,
71,71,71,71,71,71,71,71,71,71,71,71,71,71,71,71,
71,71,71,71,71,71,71,71,71,71,71,71,71,71,71,71,
71,71,71,71,71,71,71,71,71,71,71,71,71,71,71,71,
71,71,71,71,71,71,71,71,71,71,71,71,71,71,71,71,
71,71,71,71,71,71,71,71,71,71,71,71,71,71,71,71,
71,71,71,71,71,71,71,71,71,71,71,71,71,71,71,71,
71,71,71,71,71,71,71,71,71,71,71,71,71,71,71,71,
71,71,71,71,71,71,71,71,71,71,71,71,71,71,71,71,
71,71,71,71,71,71,71,71,71,71,71,71,71,71,71,71,
71,71,71,71,71,71,71,71,71,71,71,71,71,71,71,71
</chunk>
   <chunk x="32" y="128" width="16" height="16">
71,71,71,71,71,71,71,71,71,71,71,71,71,71,71,71,
71,71,71,71,71,71,71,71,71,71,71,71,71,71,71,71,
71,71,71,71,71,71,71,71,71,71,71,71,71,71,71,71,
71,71,71,71,71,71,71,71,71,71,71,71,71,71,71,71,
71,71,71,71,71,71,71,71,71,71,71,71,71,71,71,71,
71,71,71,71,71,71,71,71,71,71,71,71,71,71,71,71,
71,71,71,71,71,71,71,71,71,71,71,71,71,71,71,71,
71,71,71,71,71,71,71,71,71,71,71,71,71,71,71,71,
71,71,71,71,71,71,71,71,71,71,71,71,71,71,71,71,
71,71,71,71,71,71,71,71,71,71,71,71,71,71,71,71,
71,71,71,71,71,71,71,71,71,71,71,71,71,71,71,71,
71,71,71,71,71,71,71,71,71,71,71,71,71,71,71,71,
71,71,71,71,71,71,71,71,71,71,71,71,71,71,71,71,
71,71,71,71,71,71,71,71,71,71,71,71,71,71,71,71,
71,71,71,71,71,71,71,71,71,71,71,71,71,71,71,71,
71,71,71,71,71,71,71,71,71,71,71,71,71,71,71,71
</chunk>
   <chunk x="48" y="128" width="16" height="16">
71,71,71,71,71,71,71,71,71,71,71,71,71,71,71,71,
71,71,71,71,71,71,71,71,71,71,71,71,71,71,71,71,
71,71,71,71,71,71,71,71,71,71,71,71,71,71,71,71,
71,71,71,71,71,71,71,71,71,71,71,71,71,71,71,71,
71,71,71,71,71,71,71,71,71,71,71,71,71,71,71,71,
71,71,71,71,71,71,71,71,71,71,71,71,71,71,71,71,
71,71,71,71,71,71,71,71,71,71,71,71,71,71,71,71,
71,71,71,71,71,71,71,71,71,71,71,71,71,71,71,71,
71,71,71,71,71,71,71,71,71,71,71,71,71,71,71,71,
71,71,71,71,71,71,71,71,71,71,71,71,71,71,71,71,
71,71,71,71,71,71,71,71,71,71,71,71,71,71,71,71,
71,71,71,71,71,71,71,71,71,71,71,71,71,71,71,71,
71,71,71,71,71,71,71,71,71,71,71,71,71,71,71,71,
71,71,71,71,71,71,71,71,71,71,71,71,71,71,71,71,
71,71,71,71,71,71,71,71,71,71,71,71,71,71,71,71,
71,71,71,71,71,71,71,71,71,71,71,71,71,71,71,71
</chunk>
   <chunk x="64" y="128" width="16" height="16">
71,71,71,71,71,71,71,71,71,71,71,71,71,71,71,71,
71,71,71,71,71,71,71,71,71,71,71,71,71,71,71,71,
71,71,71,71,71,71,71,71,71,71,71,71,71,71,71,71,
71,71,71,71,71,71,71,71,71,71,71,71,71,71,71,71,
71,71,71,71,71,71,71,71,71,71,71,71,71,71,71,71,
71,71,71,71,71,71,71,71,71,71,71,71,71,71,71,71,
71,71,71,71,71,71,71,71,71,71,71,71,71,71,71,71,
71,71,71,71,71,71,71,71,71,71,71,71,71,71,71,71,
71,71,71,71,71,71,71,71,71,71,71,71,71,71,71,71,
71,71,71,71,71,71,71,71,71,71,71,71,71,71,71,71,
71,71,71,71,71,71,71,71,71,71,71,71,71,71,71,71,
71,71,71,71,71,71,71,71,71,71,71,71,71,71,71,71,
71,71,71,71,71,71,71,71,71,71,71,71,71,71,71,71,
71,71,71,71,71,71,71,71,71,71,71,71,71,71,71,71,
71,71,71,71,71,71,71,71,71,71,71,71,71,71,71,71,
71,71,71,71,71,71,71,71,71,71,71,71,71,71,71,71
</chunk>
   <chunk x="80" y="128" width="16" height="16">
71,71,71,71,71,71,71,71,71,71,71,71,71,71,71,71,
71,71,71,71,71,71,71,71,71,71,71,71,71,71,71,71,
71,71,71,71,71,71,71,71,71,71,71,71,71,71,71,71,
71,71,71,71,71,71,71,71,71,71,71,71,71,71,71,71,
71,71,71,71,71,71,71,71,71,71,71,71,71,71,71,71,
71,71,71,71,71,71,71,71,71,71,71,71,71,71,71,71,
71,71,71,71,71,71,71,71,71,71,71,71,71,71,71,71,
71,71,71,71,71,71,71,71,71,71,71,71,71,71,71,71,
71,71,71,71,71,71,71,71,71,71,71,71,71,71,71,71,
71,71,71,71,71,71,71,71,71,71,71,71,71,71,71,71,
71,71,71,71,71,71,71,71,71,71,71,71,71,71,71,71,
71,71,71,71,71,71,71,71,71,71,71,71,71,71,71,71,
71,71,71,71,71,71,71,71,71,71,71,71,71,71,71,71,
71,71,71,71,71,71,71,71,71,71,71,71,71,71,71,71,
71,71,71,71,71,71,71,71,71,71,71,71,71,71,71,71,
71,71,71,71,71,71,71,71,71,71,71,71,71,71,71,71
</chunk>
   <chunk x="96" y="128" width="16" height="16">
71,71,71,71,71,71,71,71,71,71,71,71,71,71,71,71,
71,71,71,71,71,71,71,71,71,71,71,71,71,71,71,71,
71,71,71,71,71,71,71,71,71,71,71,71,71,71,71,71,
71,71,71,71,71,71,71,71,71,71,71,71,71,71,71,71,
71,71,71,71,71,71,71,71,71,71,71,71,71,71,71,71,
71,71,71,71,71,71,71,71,71,71,71,71,71,71,71,71,
71,71,71,71,71,71,71,71,71,71,71,71,71,71,71,71,
71,71,71,71,71,71,71,71,71,71,71,71,71,71,71,71,
71,71,71,71,71,71,71,71,71,71,71,71,71,71,71,71,
71,71,71,71,71,71,71,71,71,71,71,71,71,71,71,71,
71,71,71,71,71,71,71,71,71,71,71,71,71,71,71,71,
71,71,71,71,71,71,71,71,71,71,71,71,71,71,71,71,
71,71,71,71,71,71,71,71,71,71,71,71,71,71,71,71,
71,71,71,71,71,71,71,71,71,71,71,71,71,71,71,71,
71,71,71,71,71,71,71,71,71,71,71,71,71,71,71,71,
71,71,71,71,71,71,71,71,71,71,71,71,71,71,71,71
</chunk>
   <chunk x="112" y="128" width="16" height="16">
71,71,71,71,71,71,71,71,71,71,71,71,71,71,71,71,
71,71,71,71,71,71,71,71,71,71,71,71,71,71,71,71,
71,71,71,71,71,71,71,71,71,71,71,71,71,71,71,71,
71,71,71,71,71,71,71,71,71,71,71,71,71,71,71,71,
71,71,71,71,71,71,71,71,71,71,71,71,71,71,71,71,
71,71,71,71,71,71,71,71,71,71,71,71,71,71,71,71,
71,71,71,71,71,71,71,71,71,71,71,71,71,71,71,71,
71,71,71,71,71,71,71,71,71,71,71,71,71,71,71,71,
71,71,71,71,71,71,71,71,71,71,71,71,71,71,71,71,
71,71,71,71,71,71,71,71,71,71,71,71,71,71,71,71,
71,71,71,71,71,71,71,71,71,71,71,71,71,71,71,71,
71,71,71,71,71,71,71,71,71,71,71,71,71,71,71,71,
71,71,71,71,71,71,71,71,71,71,71,71,71,71,71,71,
71,71,71,71,71,71,71,71,71,71,71,71,71,71,71,71,
71,71,71,71,71,71,71,71,71,71,71,71,71,71,71,71,
71,71,71,71,71,71,71,71,71,71,71,71,71,71,71,71
</chunk>
   <chunk x="128" y="128" width="16" height="16">
71,71,71,71,71,71,71,71,71,71,71,71,71,71,71,71,
71,71,71,71,71,71,71,71,71,71,71,71,71,71,71,71,
71,71,71,71,71,71,71,71,71,71,71,71,71,71,71,71,
71,71,71,71,71,71,71,71,71,71,71,71,71,71,71,71,
71,71,71,71,71,71,71,71,71,71,71,71,71,71,71,71,
71,71,71,71,71,71,71,71,71,71,71,71,71,71,71,71,
71,71,71,71,71,71,71,71,71,71,71,71,71,71,71,71,
71,71,71,71,71,71,71,71,71,71,71,71,71,71,71,71,
71,71,71,71,71,71,71,71,71,71,71,71,71,71,71,71,
71,71,71,71,71,71,71,71,71,71,71,71,71,71,71,71,
71,71,71,71,71,71,71,71,71,71,71,71,71,71,71,71,
71,71,71,71,71,71,71,71,71,71,71,71,71,71,71,71,
71,71,71,71,71,71,71,71,71,71,71,71,71,71,71,71,
71,71,71,71,71,71,71,71,71,71,71,71,71,71,71,71,
71,71,71,71,71,71,71,71,71,71,71,71,71,71,71,71,
71,71,71,71,71,71,71,71,71,71,71,71,71,71,71,71
</chunk>
   <chunk x="144" y="128" width="16" height="16">
71,71,71,71,71,71,71,71,71,71,71,71,71,71,71,71,
71,71,71,71,71,71,71,71,71,71,71,71,71,71,71,71,
71,71,71,71,71,71,71,71,71,71,71,71,71,71,71,71,
71,71,71,71,71,71,71,71,71,71,71,71,71,71,71,71,
71,71,71,71,71,71,71,71,71,71,71,71,71,71,71,71,
71,71,71,71,71,71,71,71,71,71,71,71,71,71,71,71,
71,71,71,71,71,71,71,71,71,71,71,71,71,71,71,71,
71,71,71,71,71,71,71,71,71,71,71,71,71,71,71,71,
71,71,71,71,71,71,71,71,71,71,71,71,71,71,71,71,
71,71,71,71,71,71,71,71,71,71,71,71,71,71,71,71,
71,71,71,71,71,71,71,71,71,71,71,71,71,71,71,71,
71,71,71,71,71,71,71,71,71,71,71,71,71,71,71,71,
71,71,71,71,71,71,71,71,71,71,71,71,71,71,71,71,
71,71,71,71,71,71,71,71,71,71,71,71,71,71,71,71,
71,71,71,71,71,71,71,71,71,71,71,71,71,71,71,71,
71,71,71,71,71,71,71,71,71,71,71,71,71,71,71,71
</chunk>
   <chunk x="160" y="128" width="16" height="16">
71,72,0,0,0,0,0,0,0,0,0,0,0,0,0,0,
71,72,0,0,0,0,0,0,0,0,0,0,0,0,0,0,
71,72,0,0,0,0,0,0,0,0,0,0,0,0,0,0,
71,72,0,0,0,0,0,0,0,0,0,0,0,0,0,0,
71,72,0,0,0,0,0,0,0,0,0,0,0,0,0,0,
71,72,0,0,0,0,0,0,0,0,0,0,0,0,0,0,
71,72,0,0,0,0,0,0,0,0,0,0,0,0,0,0,
71,72,0,0,0,0,0,0,0,0,0,0,0,0,0,0,
71,72,0,0,0,0,0,0,0,0,0,0,0,0,0,0,
71,72,0,0,0,0,0,0,0,0,0,0,0,0,0,0,
71,72,0,0,0,0,0,0,0,0,0,0,0,0,0,0,
71,72,0,0,0,0,0,0,0,0,0,0,0,0,0,0,
71,72,0,0,0,0,0,0,0,0,0,0,0,0,0,0,
71,72,0,0,0,0,0,0,0,0,0,0,0,0,0,0,
71,72,0,0,0,0,0,0,0,0,0,0,0,0,0,0,
71,72,0,0,0,0,0,0,0,0,0,0,0,0,0,0
</chunk>
  </data>
 </layer>
 <objectgroup color="#fffa61" id="8" name="lights">
  <object id="154" type="light" x="1724" y="544">
   <properties>
    <property name="angle" type="float" value="270"/>
    <property name="brightness" type="float" value="1.5"/>
    <property name="color" type="color" value="#ffdcddff"/>
    <property name="dirRadius" type="float" value="80"/>
    <property name="directional" type="bool" value="false"/>
    <property name="falloff" type="float" value="3.8"/>
    <property name="radius" type="float" value="1"/>
    <property name="shadows" type="bool" value="false"/>
    <property name="startActive" type="bool" value="true"/>
   </properties>
   <point/>
  </object>
  <object id="155" type="light" x="1243" y="520">
   <properties>
    <property name="angle" type="float" value="270"/>
    <property name="brightness" type="float" value="1.5"/>
    <property name="color" type="color" value="#ffdcddff"/>
    <property name="dirRadius" type="float" value="80"/>
    <property name="directional" type="bool" value="false"/>
    <property name="falloff" type="float" value="3.8"/>
    <property name="radius" type="float" value="1"/>
    <property name="shadows" type="bool" value="false"/>
    <property name="startActive" type="bool" value="true"/>
   </properties>
   <point/>
  </object>
  <object id="157" type="light" x="1256" y="924">
   <properties>
    <property name="angle" type="float" value="270"/>
    <property name="brightness" type="float" value="1.5"/>
    <property name="color" type="color" value="#ffdcddff"/>
    <property name="dirRadius" type="float" value="80"/>
    <property name="directional" type="bool" value="false"/>
    <property name="falloff" type="float" value="3.8"/>
    <property name="radius" type="float" value="1"/>
    <property name="shadows" type="bool" value="false"/>
    <property name="startActive" type="bool" value="true"/>
   </properties>
   <point/>
  </object>
  <object id="158" type="light" x="1686" y="924">
   <properties>
    <property name="angle" type="float" value="270"/>
    <property name="brightness" type="float" value="1.5"/>
    <property name="color" type="color" value="#ffdcddff"/>
    <property name="dirRadius" type="float" value="80"/>
    <property name="directional" type="bool" value="false"/>
    <property name="falloff" type="float" value="3.8"/>
    <property name="radius" type="float" value="1"/>
    <property name="shadows" type="bool" value="false"/>
    <property name="startActive" type="bool" value="true"/>
   </properties>
   <point/>
  </object>
  <object id="160" type="light" x="1267" y="1264">
   <properties>
    <property name="angle" type="float" value="270"/>
    <property name="brightness" type="float" value="1.5"/>
    <property name="color" type="color" value="#ffdcddff"/>
    <property name="dirRadius" type="float" value="80"/>
    <property name="directional" type="bool" value="false"/>
    <property name="falloff" type="float" value="3.8"/>
    <property name="radius" type="float" value="1"/>
    <property name="shadows" type="bool" value="false"/>
    <property name="startActive" type="bool" value="true"/>
   </properties>
   <point/>
  </object>
  <object id="161" type="light" x="1643" y="1224">
   <properties>
    <property name="angle" type="float" value="270"/>
    <property name="brightness" type="float" value="1.5"/>
    <property name="color" type="color" value="#ffdcddff"/>
    <property name="dirRadius" type="float" value="80"/>
    <property name="directional" type="bool" value="false"/>
    <property name="falloff" type="float" value="3.8"/>
    <property name="radius" type="float" value="1"/>
    <property name="shadows" type="bool" value="false"/>
    <property name="startActive" type="bool" value="true"/>
   </properties>
   <point/>
  </object>
  <object id="162" type="light_area" x="1287" y="480" width="376" height="701">
   <properties>
    <property name="brightness" type="float" value="0.8"/>
    <property name="color" type="color" value="#ffdcddff"/>
    <property name="radius" type="float" value="6"/>
    <property name="startActive" type="bool" value="true"/>
   </properties>
  </object>
  <object id="163" type="light" x="2295" y="689">
   <properties>
    <property name="angle" type="float" value="270"/>
    <property name="brightness" type="float" value="1.5"/>
    <property name="color" type="color" value="#ffdcddff"/>
    <property name="dirRadius" type="float" value="80"/>
    <property name="directional" type="bool" value="false"/>
    <property name="falloff" type="float" value="3.8"/>
    <property name="radius" type="float" value="1"/>
    <property name="shadows" type="bool" value="false"/>
    <property name="startActive" type="bool" value="true"/>
   </properties>
   <point/>
  </object>
  <object id="164" type="light" x="2320" y="943">
   <properties>
    <property name="angle" type="float" value="270"/>
    <property name="brightness" type="float" value="1.5"/>
    <property name="color" type="color" value="#ffdcddff"/>
    <property name="dirRadius" type="float" value="80"/>
    <property name="directional" type="bool" value="false"/>
    <property name="falloff" type="float" value="3.8"/>
    <property name="radius" type="float" value="1"/>
    <property name="shadows" type="bool" value="false"/>
    <property name="startActive" type="bool" value="true"/>
   </properties>
   <point/>
  </object>
  <object id="165" type="light" x="2304" y="1315">
   <properties>
    <property name="angle" type="float" value="270"/>
    <property name="brightness" type="float" value="1.5"/>
    <property name="color" type="color" value="#ffdcddff"/>
    <property name="dirRadius" type="float" value="80"/>
    <property name="directional" type="bool" value="false"/>
    <property name="falloff" type="float" value="3.8"/>
    <property name="radius" type="float" value="1"/>
    <property name="shadows" type="bool" value="false"/>
    <property name="startActive" type="bool" value="true"/>
   </properties>
   <point/>
  </object>
  <object id="166" type="light" x="2253" y="1519">
   <properties>
    <property name="angle" type="float" value="270"/>
    <property name="brightness" type="float" value="1.5"/>
    <property name="color" type="color" value="#ffdcddff"/>
    <property name="dirRadius" type="float" value="80"/>
    <property name="directional" type="bool" value="false"/>
    <property name="falloff" type="float" value="3.8"/>
    <property name="radius" type="float" value="1"/>
    <property name="shadows" type="bool" value="false"/>
    <property name="startActive" type="bool" value="true"/>
   </properties>
   <point/>
  </object>
  <object id="167" type="light_area" x="2368" y="385" width="828" height="1599">
   <properties>
    <property name="brightness" type="float" value="0.45"/>
    <property name="color" type="color" value="#ffdcddff"/>
    <property name="radius" type="float" value="6"/>
    <property name="startActive" type="bool" value="true"/>
   </properties>
  </object>
  <object id="168" type="light_area" x="2496" y="1728" width="448" height="576">
   <properties>
    <property name="brightness" type="float" value="0.45"/>
    <property name="color" type="color" value="#ffdcddff"/>
    <property name="radius" type="float" value="6"/>
    <property name="startActive" type="bool" value="true"/>
   </properties>
  </object>
  <object id="169" type="light_area" x="-112" y="1392" width="2624" height="592">
   <properties>
    <property name="brightness" type="float" value="0.65"/>
    <property name="color" type="color" value="#ffdcddff"/>
    <property name="radius" type="float" value="10"/>
    <property name="startActive" type="bool" value="true"/>
   </properties>
  </object>
  <object id="172" type="light_area" x="-112" y="1824" width="496" height="480">
   <properties>
    <property name="brightness" type="float" value="0.65"/>
    <property name="color" type="color" value="#ffdcddff"/>
    <property name="radius" type="float" value="10"/>
    <property name="startActive" type="bool" value="true"/>
   </properties>
  </object>
 </objectgroup>
 <objectgroup color="#ff8284" id="7" name="npcs">
  <object id="149" type="npc" x="2733" y="820">
   <properties>
    <property name="id" type="int" value="24"/>
    <property name="noticeDist" type="int" value="300"/>
    <property name="perma" type="bool" value="true"/>
    <property name="phantom" type="int" value="0"/>
    <property name="wanderDist" type="int" value="0"/>
   </properties>
   <point/>
  </object>
  <object id="150" type="npc" x="2403" y="1094">
   <properties>
    <property name="id" type="int" value="17"/>
    <property name="noticeDist" type="int" value="300"/>
    <property name="perma" type="bool" value="true"/>
    <property name="phantom" type="int" value="0"/>
    <property name="wanderDist" type="int" value="0"/>
   </properties>
   <point/>
  </object>
  <object id="175" name="bafixi" type="npc" x="565" y="1679">
   <properties>
    <property name="id" type="int" value="34"/>
    <property name="noticeDist" type="int" value="300"/>
    <property name="perma" type="bool" value="true"/>
    <property name="phantom" type="int" value="0"/>
    <property name="wanderDist" type="int" value="0"/>
   </properties>
   <point/>
  </object>
  <object id="176" type="npc" x="464" y="1792">
   <properties>
    <property name="id" type="int" value="26"/>
    <property name="noticeDist" type="int" value="300"/>
    <property name="perma" type="bool" value="true"/>
    <property name="phantom" type="int" value="0"/>
    <property name="wanderDist" type="int" value="0"/>
   </properties>
   <point/>
  </object>
  <object id="178" type="npc" x="454" y="1792">
   <properties>
    <property name="id" type="int" value="26"/>
    <property name="noticeDist" type="int" value="300"/>
    <property name="perma" type="bool" value="true"/>
    <property name="phantom" type="int" value="0"/>
    <property name="wanderDist" type="int" value="0"/>
   </properties>
   <point/>
  </object>
  <object id="179" type="npc" x="439" y="1792">
   <properties>
    <property name="id" type="int" value="26"/>
    <property name="noticeDist" type="int" value="300"/>
    <property name="perma" type="bool" value="true"/>
    <property name="phantom" type="int" value="0"/>
    <property name="wanderDist" type="int" value="0"/>
   </properties>
   <point/>
  </object>
  <object id="180" type="npc" x="423" y="1792">
   <properties>
    <property name="id" type="int" value="26"/>
    <property name="noticeDist" type="int" value="300"/>
    <property name="perma" type="bool" value="true"/>
    <property name="phantom" type="int" value="0"/>
    <property name="wanderDist" type="int" value="0"/>
   </properties>
   <point/>
  </object>
  <object id="181" type="npc" x="408" y="1792">
   <properties>
    <property name="id" type="int" value="26"/>
    <property name="noticeDist" type="int" value="300"/>
    <property name="perma" type="bool" value="true"/>
    <property name="phantom" type="int" value="0"/>
    <property name="wanderDist" type="int" value="0"/>
   </properties>
   <point/>
  </object>
  <object id="182" type="npc" x="402" y="1792">
   <properties>
    <property name="id" type="int" value="26"/>
    <property name="noticeDist" type="int" value="300"/>
    <property name="perma" type="bool" value="true"/>
    <property name="phantom" type="int" value="0"/>
    <property name="wanderDist" type="int" value="0"/>
   </properties>
   <point/>
  </object>
  <object id="183" name="complainer" type="npc" x="386" y="1792">
   <properties>
    <property name="id" type="int" value="26"/>
    <property name="noticeDist" type="int" value="300"/>
    <property name="perma" type="bool" value="true"/>
    <property name="phantom" type="int" value="0"/>
    <property name="wanderDist" type="int" value="0"/>
   </properties>
   <point/>
  </object>
  <object id="184" type="npc" x="368" y="1792">
   <properties>
    <property name="id" type="int" value="26"/>
    <property name="noticeDist" type="int" value="300"/>
    <property name="perma" type="bool" value="true"/>
    <property name="phantom" type="int" value="0"/>
    <property name="wanderDist" type="int" value="0"/>
   </properties>
   <point/>
  </object>
  <object id="185" type="npc" x="378" y="1792">
   <properties>
    <property name="id" type="int" value="26"/>
    <property name="noticeDist" type="int" value="300"/>
    <property name="perma" type="bool" value="true"/>
    <property name="phantom" type="int" value="0"/>
    <property name="wanderDist" type="int" value="0"/>
   </properties>
   <point/>
  </object>
  <object id="186" type="npc" x="346" y="1792">
   <properties>
    <property name="id" type="int" value="26"/>
    <property name="noticeDist" type="int" value="300"/>
    <property name="perma" type="bool" value="true"/>
    <property name="phantom" type="int" value="0"/>
    <property name="wanderDist" type="int" value="0"/>
   </properties>
   <point/>
  </object>
  <object id="187" type="npc" x="288" y="1792">
   <properties>
    <property name="id" type="int" value="26"/>
    <property name="noticeDist" type="int" value="300"/>
    <property name="perma" type="bool" value="true"/>
    <property name="phantom" type="int" value="0"/>
    <property name="wanderDist" type="int" value="0"/>
   </properties>
   <point/>
  </object>
 </objectgroup>
 <objectgroup color="#7de8b9" id="11" name="deco"/>
 <objectgroup color="#8aadff" id="9" name="puzzles">
  <object id="135" name="door1" type="door" x="1432" y="1760" width="16" height="64">
   <properties>
    <property name="draw" type="bool" value="true"/>
    <property name="skin" type="int" value="0"/>
    <property name="startActive" type="bool" value="false"/>
   </properties>
  </object>
  <object id="136" name="door2" type="door" x="536" y="1760" width="16" height="64">
   <properties>
    <property name="draw" type="bool" value="true"/>
    <property name="skin" type="int" value="0"/>
    <property name="startActive" type="bool" value="false"/>
   </properties>
  </object>
  <object id="147" name="door3" type="door" x="2192" y="1168" width="16" height="96">
   <properties>
    <property name="draw" type="bool" value="true"/>
    <property name="skin" type="int" value="0"/>
    <property name="startActive" type="bool" value="false"/>
   </properties>
  </object>
 </objectgroup>
 <objectgroup id="3" name="general">
  <object id="118" type="ladder" x="1328" y="448" width="16" height="192">
   <properties>
    <property name="draw" type="bool" value="true"/>
    <property name="skin" type="int" value="0"/>
    <property name="startActive" type="bool" value="true"/>
   </properties>
  </object>
  <object id="119" type="ladder" x="2336" y="1136" width="16" height="128">
   <properties>
    <property name="draw" type="bool" value="true"/>
    <property name="skin" type="int" value="0"/>
    <property name="startActive" type="bool" value="true"/>
   </properties>
  </object>
  <object id="120" type="ladder" x="2432" y="1248" width="16" height="208">
   <properties>
    <property name="draw" type="bool" value="true"/>
    <property name="skin" type="int" value="0"/>
    <property name="startActive" type="bool" value="true"/>
   </properties>
  </object>
  <object id="121" type="ladder" x="2352" y="1552" width="16" height="272">
   <properties>
    <property name="draw" type="bool" value="true"/>
    <property name="skin" type="int" value="0"/>
    <property name="startActive" type="bool" value="true"/>
   </properties>
  </object>
  <object id="123" type="spiralDoor" x="1824" y="688" width="16" height="32">
   <properties>
    <property name="startActive" type="bool" value="true"/>
    <property name="teleportTarget" value=""/>
   </properties>
  </object>
  <object id="124" type="collider" x="1904" y="304" width="352" height="272">
   <properties>
    <property name="tags" value=""/>
   </properties>
  </object>
  <object id="125" type="collider" x="1152" y="320" width="48" height="400">
   <properties>
    <property name="tags" value=""/>
   </properties>
  </object>
  <object id="126" type="collider" x="1104" y="704" width="48" height="576">
   <properties>
    <property name="tags" value=""/>
   </properties>
  </object>
  <object id="128" name="bossBarrier" type="collider" x="512" y="1312" width="32" height="320">
   <properties>
    <property name="tags" value=""/>
   </properties>
  </object>
  <object id="129" name="bossBarrier" type="collider" x="1440" y="1312" width="32" height="320">
   <properties>
    <property name="tags" value=""/>
   </properties>
  </object>
  <object id="130" name="bossBarrier" type="collider" x="528" y="1280" width="1184" height="32">
   <properties>
    <property name="tags" value=""/>
   </properties>
  </object>
  <object id="131" name="trig_fallPlain1" type="trigger" x="1105" y="1360" width="609" height="144">
   <properties>
    <property name="corpses" type="bool" value="false"/>
    <property name="npcs" type="bool" value="false"/>
    <property name="once" type="bool" value="true"/>
    <property name="player" type="bool" value="true"/>
    <property name="startActive" type="bool" value="true"/>
   </properties>
  </object>
  <object id="132" name="trig_fallPlain2" type="trigger" x="2592" y="1984" width="736" height="144">
   <properties>
    <property name="corpses" type="bool" value="false"/>
    <property name="npcs" type="bool" value="false"/>
    <property name="once" type="bool" value="true"/>
    <property name="player" type="bool" value="true"/>
    <property name="startActive" type="bool" value="true"/>
   </properties>
  </object>
  <object id="133" name="trig_ground" type="trigger" x="2224" y="1168" width="64" height="96">
   <properties>
    <property name="corpses" type="bool" value="false"/>
    <property name="npcs" type="bool" value="false"/>
    <property name="once" type="bool" value="true"/>
    <property name="player" type="bool" value="true"/>
    <property name="startActive" type="bool" value="true"/>
   </properties>
  </object>
  <object id="151" name="trig_feed" type="trigger" x="2733" y="820" width="104" height="458">
   <properties>
    <property name="corpses" type="bool" value="true"/>
    <property name="npcs" type="bool" value="false"/>
    <property name="once" type="bool" value="true"/>
    <property name="player" type="bool" value="false"/>
    <property name="startActive" type="bool" value="true"/>
   </properties>
  </object>
  <object id="152" name="trans_start" type="transition" x="1344" y="112" width="128" height="32">
   <properties>
    <property name="endTarget" value=""/>
    <property name="start" type="bool" value="true"/>
    <property name="targetLevel" type="int" value="0"/>
   </properties>
  </object>
  <object id="171" name="trig_blockBoosts" type="trigger" x="496" y="1728" width="32" height="96">
   <properties>
    <property name="corpses" type="bool" value="false"/>
    <property name="npcs" type="bool" value="false"/>
    <property name="once" type="bool" value="false"/>
    <property name="player" type="bool" value="true"/>
    <property name="startActive" type="bool" value="true"/>
   </properties>
  </object>
  <object id="174" type="transition" x="0" y="2096" width="224" height="80">
   <properties>
    <property name="endTarget" value="trans_start"/>
    <property name="start" type="bool" value="false"/>
    <property name="targetLevel" type="int" value="19"/>
   </properties>
  </object>
  <object id="177" name="trig_boss" type="trigger" x="656" y="1312" width="48" height="512">
   <properties>
    <property name="corpses" type="bool" value="false"/>
    <property name="npcs" type="bool" value="false"/>
    <property name="once" type="bool" value="true"/>
    <property name="player" type="bool" value="true"/>
    <property name="startActive" type="bool" value="true"/>
   </properties>
  </object>
  <object id="188" type="sceneBrain" x="624" y="1712">
   <properties>
    <property name="acts" value="7"/>
    <property name="scene" type="int" value="13"/>
   </properties>
  </object>
  <object id="189" name="trig_dia" type="trigger" x="1616" y="928" width="144" height="64">
   <properties>
    <property name="corpses" type="bool" value="false"/>
    <property name="npcs" type="bool" value="false"/>
    <property name="once" type="bool" value="false"/>
    <property name="player" type="bool" value="true"/>
    <property name="startActive" type="bool" value="true"/>
   </properties>
  </object>
  <object id="191" type="sceneBrain" x="656" y="1712">
   <properties>
    <property name="acts" value="3"/>
    <property name="scene" type="int" value="14"/>
   </properties>
  </object>
 </objectgroup>
 <objectgroup color="#00ff00" id="4" name="nodegraph">
  <object id="138" type="node" x="1184" y="1600">
   <point/>
  </object>
  <object id="139" type="node" x="1056" y="1664">
   <point/>
  </object>
  <object id="140" type="node" x="1136" y="1808">
   <point/>
  </object>
  <object id="141" type="node" x="1264" y="1600">
   <point/>
  </object>
  <object id="142" type="node" x="1344" y="1808">
   <point/>
  </object>
  <object id="143" type="node" x="896" y="1664">
   <point/>
  </object>
  <object id="144" type="node" x="800" y="1808">
   <point/>
  </object>
  <object id="145" type="node" x="608" y="1808">
   <point/>
  </object>
 </objectgroup>
 <objectgroup color="#ffffff" id="12" name="regions"/>
</map>
