<?xml version="1.0" encoding="UTF-8"?>
<map version="1.9" tiledversion="1.9.1" orientation="orthogonal" renderorder="right-down" width="64" height="32" tilewidth="16" tileheight="16" infinite="1" nextlayerid="14" nextobjectid="1797">
 <tileset firstgid="1" source="../til/devSet.tsx"/>
 <tileset firstgid="118" source="../til/props.tsx"/>
 <tileset firstgid="764" source="../til/r_tileset0.tsx"/>
 <layer id="5" name="background" width="64" height="32" tintcolor="#433b35">
  <data encoding="csv">
   <chunk x="0" y="0" width="16" height="16">
0,0,0,0,0,0,0,0,0,0,0,0,0,0,0,0,
0,0,0,0,0,0,0,0,0,0,0,71,71,71,71,71,
0,0,0,0,0,0,0,0,0,0,0,71,71,71,71,71,
0,0,0,0,0,0,0,0,0,0,0,71,71,71,71,71,
0,0,0,0,0,0,0,0,0,0,0,71,71,71,71,71,
0,0,0,0,0,0,0,0,0,0,0,71,71,71,71,71,
0,0,0,0,0,0,0,0,0,0,0,71,71,71,71,71,
0,0,0,0,0,0,0,0,71,71,71,71,71,71,71,71,
0,0,0,0,0,0,0,0,71,71,71,71,71,18,80,60,
0,0,0,0,0,0,0,0,71,71,71,71,18,81,0,70,
0,0,0,0,0,0,0,0,71,71,71,18,81,0,0,79,
0,0,0,0,0,0,0,0,71,71,71,72,0,0,0,0,
0,0,0,0,0,0,0,0,71,71,71,72,0,0,0,0,
0,0,0,0,0,0,0,0,71,71,71,72,0,0,0,61,
0,0,0,0,0,0,0,0,71,71,71,14,15,62,62,69,
0,0,0,0,0,0,0,0,71,71,71,71,71,71,71,71
</chunk>
   <chunk x="16" y="0" width="16" height="16">
0,0,0,0,0,0,0,0,0,0,0,0,0,0,0,0,
71,0,0,0,0,0,0,0,0,0,0,71,71,71,71,71,
71,0,0,0,0,0,0,0,0,0,0,71,71,71,71,71,
71,0,0,0,0,0,0,0,0,0,0,71,71,71,71,71,
71,0,0,0,0,0,0,0,0,0,0,71,71,71,71,71,
71,0,0,0,0,0,0,0,0,0,0,71,71,71,71,71,
71,0,0,0,0,0,0,0,0,0,0,71,71,71,71,71,
71,71,71,0,0,0,0,0,0,0,0,71,71,71,71,71,
71,71,71,71,0,0,0,0,0,0,0,71,71,71,71,71,
71,71,71,71,71,0,0,0,0,0,0,71,71,71,71,71,
60,71,71,71,71,71,71,0,0,0,0,71,71,71,71,71,
70,71,71,71,71,71,71,71,71,0,0,0,0,0,0,0,
70,71,71,71,71,71,71,71,71,0,0,0,0,0,0,0,
69,71,71,71,71,71,71,71,71,71,71,71,71,71,0,0,
71,71,71,71,71,71,71,71,71,71,71,71,71,71,0,0,
71,71,71,71,71,71,71,71,71,71,71,71,71,71,0,0
</chunk>
   <chunk x="32" y="0" width="16" height="16">
0,0,0,0,0,0,0,0,0,0,0,0,0,0,0,0,
71,71,71,0,0,0,0,0,0,0,0,0,0,0,0,0,
71,71,71,0,0,0,0,0,0,0,0,0,0,0,0,0,
71,71,71,0,0,0,0,0,0,0,0,0,0,0,0,0,
71,71,71,71,71,71,71,71,71,71,71,71,71,71,71,71,
71,71,71,71,71,71,71,71,71,71,71,71,71,71,71,71,
71,71,71,71,71,71,71,71,71,71,71,71,71,71,71,71,
71,71,71,71,71,71,71,71,71,71,71,71,71,71,71,71,
71,71,71,71,71,71,71,71,71,71,71,71,71,71,71,71,
71,71,71,71,71,71,71,71,71,71,71,71,71,71,71,71,
71,71,71,71,71,71,71,71,71,71,71,71,71,71,71,71,
0,0,71,71,71,71,71,71,71,71,71,71,71,71,71,71,
0,0,0,0,0,0,0,0,0,0,0,0,0,0,0,0,
0,0,0,0,0,0,0,0,0,0,0,0,0,0,0,0,
0,0,0,0,0,0,0,0,0,0,0,0,0,0,0,0,
0,0,0,0,0,0,0,0,0,0,0,0,0,0,0,0
</chunk>
   <chunk x="48" y="0" width="16" height="16">
0,0,0,0,0,0,0,0,0,0,0,0,0,0,0,0,
0,0,0,0,0,0,0,0,0,0,0,0,0,0,0,0,
0,0,0,0,0,0,0,0,0,0,0,0,0,0,0,0,
0,0,0,0,0,0,0,0,0,0,0,0,0,0,0,0,
71,71,71,71,71,71,71,71,0,0,0,0,0,0,0,0,
71,71,71,71,71,71,71,71,0,0,0,0,0,0,0,0,
71,71,71,71,71,71,71,71,0,0,0,0,0,0,0,0,
71,71,71,71,71,71,71,71,71,71,71,71,71,71,71,71,
71,71,71,71,71,71,71,71,71,71,71,71,71,71,71,71,
71,71,71,71,71,71,71,71,71,71,71,71,71,71,71,71,
71,71,71,71,71,71,71,71,71,71,71,71,71,71,71,71,
71,71,71,71,71,71,71,71,71,71,71,71,71,71,71,71,
0,0,0,0,0,0,0,0,0,0,0,0,0,0,0,0,
0,0,0,0,0,0,0,0,0,0,0,0,0,0,0,0,
0,0,0,0,0,0,0,0,0,0,0,0,0,0,0,0,
0,0,0,0,0,0,0,0,0,0,0,0,0,0,0,0
</chunk>
   <chunk x="64" y="0" width="16" height="16">
0,0,0,0,0,0,0,0,0,0,0,0,0,0,0,0,
0,0,0,0,0,0,0,0,0,0,0,0,0,0,0,0,
0,0,0,0,0,0,0,0,0,0,0,0,0,0,0,0,
0,0,0,0,0,0,0,0,0,0,0,0,0,0,0,0,
0,0,0,0,0,0,0,0,0,0,0,0,0,0,0,0,
0,0,0,0,0,0,0,0,0,0,0,0,0,0,0,0,
0,0,0,0,0,0,0,0,0,0,0,0,0,0,0,0,
71,71,71,71,71,71,71,71,71,71,71,71,71,71,71,71,
71,71,71,71,71,71,71,71,71,71,71,71,71,71,71,71,
71,71,71,71,71,71,71,71,71,71,71,71,71,71,71,71,
71,71,71,71,71,71,71,71,71,71,71,71,71,71,71,71,
71,71,71,71,71,71,71,71,71,71,71,71,71,71,71,71,
0,0,0,0,0,0,0,0,0,0,0,0,0,0,0,71,
0,0,0,0,0,0,0,0,0,0,0,0,0,0,0,71,
0,0,0,0,0,0,0,0,0,0,0,0,0,0,0,71,
0,0,0,0,0,0,0,0,0,0,0,0,0,0,0,71
</chunk>
   <chunk x="80" y="0" width="16" height="16">
0,0,0,0,0,0,0,0,0,0,0,0,0,0,0,0,
0,0,0,0,0,0,0,0,0,0,0,0,0,0,0,0,
0,0,0,0,0,0,0,0,0,0,0,0,0,0,0,0,
0,0,0,0,0,0,0,0,0,0,0,0,0,0,0,0,
0,0,0,0,0,0,0,0,0,0,0,0,0,0,0,0,
0,0,0,0,0,0,0,0,0,0,0,0,0,0,0,0,
0,0,0,0,0,0,0,0,0,0,0,0,0,0,0,0,
71,71,71,71,71,0,0,0,0,0,0,0,0,0,0,0,
71,71,71,71,71,0,0,0,0,0,0,0,0,0,0,0,
71,71,71,71,71,0,0,0,0,0,0,0,0,0,0,0,
71,71,71,71,71,0,0,0,0,0,0,0,0,0,0,0,
71,71,71,71,71,0,0,0,0,0,0,0,0,0,0,0,
71,71,71,71,71,0,0,0,0,0,0,0,0,0,0,0,
71,71,71,71,71,0,0,0,0,0,0,0,0,0,0,0,
71,71,71,71,71,71,71,71,71,71,71,71,71,0,0,0,
71,71,71,71,71,71,71,71,71,71,71,71,71,0,0,0
</chunk>
   <chunk x="0" y="16" width="16" height="16">
0,0,0,0,0,0,0,0,71,71,71,71,71,71,71,71,
0,0,0,0,0,0,0,0,0,0,0,0,0,0,0,0,
0,0,0,0,0,0,0,0,0,0,0,0,0,0,0,0,
0,0,0,0,0,0,0,0,0,0,0,0,0,0,0,0,
0,0,0,0,0,0,0,0,0,0,0,0,0,0,0,0,
0,0,0,0,0,0,0,0,0,0,0,0,0,0,0,0,
0,0,0,0,0,0,0,0,0,0,0,0,0,0,0,0,
0,0,0,0,0,0,0,0,0,0,0,0,0,0,0,0,
0,0,0,0,0,0,0,0,0,0,0,0,0,0,0,0,
0,0,0,0,0,0,0,0,0,0,0,0,0,0,0,0,
0,0,0,0,0,0,0,0,0,0,0,0,0,0,0,0,
0,0,0,0,0,0,0,0,0,0,0,0,0,0,0,0,
0,0,0,0,0,0,0,0,0,0,0,0,0,0,0,0,
0,0,0,0,0,0,0,0,0,0,0,0,0,0,0,0,
0,0,0,0,0,0,0,0,0,0,0,0,0,0,0,0,
0,0,0,0,0,0,0,0,0,0,0,0,0,0,0,0
</chunk>
   <chunk x="16" y="16" width="16" height="16">
71,71,71,71,71,71,71,71,71,71,71,71,71,71,71,71,
0,0,71,71,71,71,71,71,71,71,71,71,71,71,71,71,
0,0,0,0,0,0,71,71,71,71,71,71,71,71,71,71,
0,0,0,0,0,0,71,71,71,71,71,71,71,71,71,71,
0,0,0,0,0,0,71,71,71,71,71,71,71,71,71,71,
0,0,0,0,0,0,0,0,0,0,0,0,0,0,71,71,
0,0,0,0,0,0,0,0,0,0,0,0,0,0,71,71,
0,0,0,0,0,0,0,0,0,0,0,0,0,0,0,0,
0,0,0,0,0,0,0,0,0,0,0,0,0,0,0,0,
0,0,0,0,0,0,0,0,0,0,0,0,0,0,0,0,
0,0,0,0,0,0,0,0,0,0,0,0,0,0,0,0,
0,0,0,0,0,0,0,0,0,0,0,0,0,0,0,0,
0,0,0,0,0,0,0,0,0,0,0,0,0,0,0,0,
0,0,0,0,0,0,0,0,0,0,0,0,0,0,0,0,
0,0,0,0,0,0,0,0,0,0,0,0,0,0,0,0,
0,0,0,0,0,0,0,0,0,0,0,0,0,0,0,0
</chunk>
   <chunk x="32" y="16" width="16" height="16">
71,71,71,71,71,71,71,71,71,71,71,71,71,71,71,71,
71,71,71,71,71,71,71,71,71,71,71,71,71,71,71,71,
71,71,71,71,71,71,71,71,71,71,71,71,71,71,71,71,
71,71,71,71,71,71,71,71,71,71,71,71,71,71,71,71,
71,71,71,71,71,71,71,71,71,71,71,71,71,71,71,71,
71,71,71,71,71,71,71,71,71,71,71,71,71,71,71,71,
71,71,71,71,71,71,71,71,71,71,71,71,71,71,71,71,
0,0,0,0,0,0,0,0,0,0,0,0,0,0,0,0,
0,0,0,0,0,0,0,0,0,0,0,0,0,0,0,0,
0,0,71,71,71,71,71,71,71,71,71,71,71,71,71,71,
0,0,71,71,71,71,71,71,71,71,71,71,71,71,71,71,
0,0,71,71,71,71,71,71,71,71,71,71,71,71,71,71,
0,0,71,71,71,71,71,71,71,71,71,71,71,71,71,71,
0,0,71,71,71,71,71,71,71,71,71,71,71,71,71,71,
0,0,71,71,71,71,71,71,71,71,71,71,71,71,71,71,
0,0,71,71,71,71,71,71,71,71,71,71,71,71,71,71
</chunk>
   <chunk x="48" y="16" width="16" height="16">
71,71,71,71,71,71,71,71,71,71,71,71,71,71,71,71,
71,71,71,71,71,71,71,71,71,71,71,71,71,71,71,71,
71,71,71,71,71,71,71,71,71,71,71,71,71,71,71,71,
71,71,71,71,71,71,71,71,71,71,71,71,71,71,71,71,
71,71,71,71,71,71,71,71,71,71,71,71,71,71,71,71,
71,71,71,71,71,71,71,71,71,71,71,71,71,71,71,71,
71,71,71,71,71,71,71,71,71,71,71,71,71,71,71,71,
0,0,0,0,0,0,0,0,0,0,0,0,0,71,71,71,
0,0,0,0,0,0,0,0,0,0,0,0,0,71,71,71,
71,71,71,71,71,71,71,71,71,71,71,71,71,71,71,71,
71,71,71,71,71,71,71,71,71,71,71,71,71,71,71,71,
71,71,71,71,71,71,71,71,71,71,71,71,71,71,71,71,
71,71,71,71,71,71,71,71,71,71,71,71,71,71,71,71,
71,71,71,71,71,71,71,71,71,71,71,71,71,71,71,71,
71,71,71,71,71,71,71,71,71,71,71,71,71,71,71,71,
71,71,71,71,71,71,71,71,71,71,71,71,71,71,71,71
</chunk>
   <chunk x="64" y="16" width="16" height="16">
71,71,71,71,71,71,71,71,71,71,0,0,0,0,0,71,
71,71,71,71,71,71,71,71,71,71,0,0,0,0,0,71,
71,71,71,71,71,71,71,71,71,71,0,0,0,0,0,71,
71,71,71,71,71,71,71,71,71,71,0,0,0,0,0,71,
71,71,71,71,71,71,71,71,71,71,0,0,0,0,0,71,
71,71,71,71,71,71,71,71,71,71,0,0,0,0,0,71,
71,71,71,71,71,71,71,71,71,71,0,0,0,0,0,71,
71,71,71,71,71,71,71,71,71,71,0,0,0,0,0,71,
71,71,71,71,71,71,71,71,71,71,0,0,0,0,0,71,
71,71,71,71,71,71,71,71,71,71,0,0,0,0,0,71,
71,71,71,71,71,71,71,71,71,71,0,0,0,0,0,71,
71,71,71,71,71,71,71,71,71,71,0,0,0,0,0,0,
71,71,71,71,71,71,71,71,71,71,0,0,0,0,0,0,
71,71,71,71,71,71,71,71,71,71,0,0,0,0,0,0,
71,71,71,71,71,71,71,71,71,71,0,0,0,0,0,0,
71,71,71,71,71,71,71,71,71,71,0,0,0,0,0,0
</chunk>
   <chunk x="80" y="16" width="16" height="16">
71,71,71,71,71,71,71,71,71,71,71,71,71,0,0,0,
71,71,71,71,71,71,71,71,71,71,71,71,71,0,0,0,
71,71,71,71,71,71,71,71,71,71,71,71,71,0,0,0,
71,71,71,71,71,71,71,71,71,71,71,71,71,0,0,0,
71,71,71,71,71,71,71,71,71,71,71,71,71,71,71,71,
71,71,71,71,71,71,71,71,71,71,71,71,71,71,71,71,
71,71,71,71,71,71,71,71,71,71,71,71,71,71,71,71,
71,71,71,71,71,71,71,71,71,71,71,71,71,71,71,71,
71,71,71,71,71,71,71,71,71,71,71,71,71,71,71,71,
71,71,71,71,71,71,71,71,71,71,71,71,71,71,71,71,
71,71,71,71,71,71,71,71,71,71,71,71,71,71,71,71,
0,0,0,0,0,0,0,0,0,0,0,0,0,0,0,71,
0,0,0,0,0,0,0,0,0,0,0,0,0,0,0,71,
0,0,0,0,0,0,0,0,0,0,0,0,0,0,0,71,
0,0,0,0,0,0,0,0,0,0,0,0,0,0,0,71,
0,0,0,0,0,0,0,0,0,0,0,0,0,0,0,71
</chunk>
   <chunk x="96" y="16" width="16" height="16">
0,0,0,0,0,0,0,0,0,0,0,0,0,0,0,0,
0,0,0,0,0,0,0,0,0,0,0,0,0,0,0,0,
0,0,0,0,0,0,0,0,0,0,0,0,0,0,0,0,
0,0,0,0,0,0,0,0,0,0,0,0,0,0,0,0,
71,71,71,71,71,71,71,71,71,71,71,71,71,71,71,71,
71,71,71,71,71,71,71,71,71,71,71,71,71,71,71,71,
71,71,71,71,71,71,71,71,71,71,71,71,71,71,71,71,
71,71,71,71,71,71,71,71,71,71,71,71,71,71,71,71,
71,71,71,71,71,71,71,71,71,71,71,71,71,71,71,71,
71,71,71,71,71,71,71,71,71,71,71,71,71,71,71,71,
71,71,71,71,71,71,71,71,71,71,71,71,71,71,71,71,
71,71,71,71,71,71,71,71,71,71,71,71,71,71,71,71,
71,71,71,71,71,0,0,0,0,0,0,0,0,0,0,0,
71,71,71,71,71,0,0,0,0,0,0,0,0,0,0,0,
71,71,71,71,71,0,0,0,0,0,0,0,0,0,0,0,
71,71,71,71,71,0,0,0,0,0,0,0,0,0,0,0
</chunk>
   <chunk x="112" y="16" width="16" height="16">
0,0,0,0,0,0,0,0,0,0,0,0,0,0,0,0,
0,0,0,0,0,0,0,0,0,0,0,0,0,0,0,0,
0,0,0,0,0,0,0,0,0,0,0,0,0,0,0,0,
0,0,0,0,0,0,0,0,0,0,0,0,0,0,0,0,
71,71,71,71,71,71,71,71,71,71,71,71,71,71,71,71,
71,71,71,71,71,71,71,18,80,80,80,80,60,71,71,71,
71,71,71,71,18,80,80,81,0,0,0,0,79,80,60,71,
71,71,71,71,72,0,0,0,0,0,0,0,0,0,70,71,
71,71,71,71,68,62,62,63,0,0,0,0,0,0,70,71,
71,71,71,71,71,71,71,11,62,62,62,62,62,62,10,71,
71,71,71,71,71,71,71,71,71,71,71,71,71,71,71,71,
71,71,71,71,71,71,71,71,71,71,71,71,71,71,71,71,
0,0,0,0,0,0,0,0,0,0,0,0,71,71,71,71,
0,0,0,0,0,0,0,0,0,0,0,0,0,71,71,71,
0,0,0,0,0,0,0,0,0,0,0,0,0,71,71,71,
0,0,0,0,0,0,0,0,0,0,0,0,0,71,71,71
</chunk>
   <chunk x="128" y="16" width="16" height="16">
0,0,0,0,0,0,0,0,0,0,0,0,0,0,0,0,
0,0,0,0,0,0,0,0,0,0,0,0,0,0,0,0,
0,0,0,0,0,0,0,0,0,0,0,0,0,0,0,0,
0,0,0,0,0,0,0,0,0,0,0,0,0,0,0,0,
71,71,71,71,71,0,0,0,0,0,0,0,0,0,0,0,
71,71,71,71,71,0,0,0,0,0,0,0,0,0,0,0,
71,71,71,71,71,0,0,0,0,0,0,0,0,0,0,0,
71,71,71,71,71,0,0,0,0,0,0,0,0,0,0,0,
71,71,71,71,71,0,0,0,0,0,0,0,0,0,0,0,
71,71,71,71,71,0,0,0,0,0,0,0,0,0,0,0,
71,71,71,71,71,0,0,0,0,0,0,0,0,0,0,0,
71,71,71,71,71,0,0,0,0,0,0,0,0,0,0,0,
71,71,71,71,71,0,0,0,0,0,0,0,0,0,0,0,
71,71,71,71,71,0,0,0,0,0,0,0,0,0,0,0,
71,71,71,71,71,0,0,0,0,0,0,0,0,0,0,0,
71,71,71,71,71,0,0,0,0,0,0,0,0,0,0,0
</chunk>
   <chunk x="0" y="32" width="16" height="16">
0,0,71,71,71,71,71,71,71,71,71,71,71,71,71,71,
0,0,71,71,71,71,71,71,71,71,71,71,71,71,71,71,
0,0,71,71,71,71,71,71,71,71,71,71,71,71,71,71,
0,0,71,71,71,71,71,71,71,71,71,71,71,71,71,71,
0,0,71,71,71,71,71,71,71,71,71,71,71,71,71,71,
0,0,71,71,71,71,71,71,18,80,60,71,71,71,71,71,
0,0,71,71,71,71,71,18,81,0,70,71,71,71,71,71,
0,0,71,71,71,71,18,81,0,0,79,60,71,71,71,71,
0,0,71,71,71,71,72,0,0,0,0,70,71,71,71,71,
0,0,71,71,71,71,68,63,0,0,0,70,71,71,71,71,
0,0,71,71,71,71,71,11,63,0,0,70,71,71,71,71,
0,0,71,71,71,71,71,71,68,62,62,69,71,71,71,71,
0,0,71,71,71,71,71,71,71,71,71,71,71,71,71,71,
0,0,71,71,71,71,71,71,71,71,71,71,71,71,71,71,
0,0,71,71,71,71,71,71,71,71,71,71,71,71,71,71,
0,0,71,71,71,71,71,71,71,71,71,71,71,71,71,71
</chunk>
   <chunk x="16" y="32" width="16" height="16">
71,0,0,0,0,0,0,0,0,0,0,0,0,0,0,0,
71,0,0,0,0,0,0,0,0,0,0,0,0,0,0,0,
71,0,0,0,0,0,0,0,0,0,0,0,0,0,0,0,
71,0,0,0,0,0,0,0,0,0,0,0,0,0,0,0,
71,0,0,0,0,0,0,0,0,0,0,0,0,0,0,0,
71,71,71,71,71,71,71,71,71,71,71,0,0,0,0,0,
71,71,71,71,71,71,71,71,71,71,71,0,0,0,0,0,
71,71,71,71,71,71,71,71,71,71,71,0,0,0,0,0,
71,71,71,71,71,71,71,71,71,71,71,0,0,0,0,0,
71,71,71,71,71,71,71,71,71,71,71,0,0,0,0,0,
71,71,71,71,71,71,71,71,71,71,71,0,0,0,0,0,
71,71,71,71,71,71,71,71,71,71,71,71,71,71,71,71,
71,0,0,0,0,71,71,71,71,71,71,71,71,71,71,71,
71,0,0,0,0,71,71,71,71,71,71,71,71,71,71,71,
71,0,0,0,0,71,71,71,71,71,71,71,71,71,71,18,
71,0,0,0,0,71,71,71,71,71,71,71,71,71,59,81
</chunk>
   <chunk x="32" y="32" width="16" height="16">
0,0,71,71,71,71,71,71,71,71,71,71,71,71,71,71,
0,0,71,71,71,71,71,71,71,71,71,71,71,71,71,71,
0,0,71,71,71,71,71,71,71,71,71,71,71,71,71,71,
0,0,71,71,71,71,71,71,71,71,71,71,71,71,71,71,
0,0,71,71,71,71,71,71,71,71,71,71,71,71,71,71,
0,0,71,71,71,71,71,71,71,71,71,71,71,71,71,71,
0,0,71,71,71,71,71,71,71,71,71,71,71,71,71,71,
0,0,0,0,0,71,71,71,71,71,71,71,71,0,0,0,
0,0,0,0,0,71,71,71,71,71,71,71,71,0,0,0,
0,0,0,0,0,71,71,71,71,71,71,71,71,0,0,0,
0,0,0,0,0,71,71,71,71,71,71,71,71,0,0,0,
71,71,71,71,71,71,71,71,71,71,71,71,71,71,71,71,
71,71,71,71,71,71,71,71,71,71,71,71,71,71,71,71,
59,60,71,71,71,71,71,71,71,71,71,71,71,71,71,71,
81,79,60,71,71,71,71,71,71,71,71,71,71,71,71,71,
0,0,70,71,71,71,71,71,71,71,71,71,71,71,71,71
</chunk>
   <chunk x="48" y="32" width="16" height="16">
71,71,71,71,71,71,71,71,71,71,71,71,71,71,71,71,
71,71,71,71,71,71,71,71,71,71,71,71,71,71,71,71,
71,71,71,71,71,71,71,71,71,71,71,71,71,71,71,71,
71,71,71,71,71,71,71,71,71,71,71,71,0,0,0,0,
71,71,71,71,71,71,71,71,71,71,71,71,0,0,0,0,
71,71,71,71,71,71,71,71,71,71,71,71,0,0,0,0,
71,71,71,71,71,71,71,71,71,71,71,71,0,0,0,71,
0,0,0,0,0,0,0,0,0,0,0,0,0,0,0,71,
0,0,0,0,0,0,0,0,0,0,0,0,0,0,0,71,
0,0,0,0,0,0,0,0,0,0,0,0,0,0,0,71,
0,0,0,0,0,0,0,0,0,0,0,0,0,0,0,71,
71,71,71,71,71,71,71,0,0,0,0,0,0,0,0,71,
71,71,71,71,71,71,71,0,0,0,0,0,0,0,0,71,
71,71,71,71,71,71,71,71,71,71,71,71,71,71,71,71,
71,71,71,71,71,71,71,71,71,71,71,71,71,71,71,71,
71,71,71,71,71,71,71,71,71,71,71,71,71,71,71,71
</chunk>
   <chunk x="64" y="32" width="16" height="16">
71,0,0,0,0,0,0,0,0,0,0,0,0,0,0,0,
71,0,0,0,0,0,0,0,0,0,0,0,0,0,0,0,
71,0,0,0,0,0,0,0,0,0,0,0,0,0,0,0,
0,0,0,0,0,0,0,0,0,0,0,0,0,0,0,0,
0,0,0,0,0,0,0,0,0,0,0,0,0,0,0,0,
0,0,0,0,0,0,0,0,0,0,0,0,0,0,0,0,
71,71,71,71,71,71,71,71,71,71,71,71,71,71,0,0,
71,71,71,71,71,71,71,71,71,71,71,71,71,71,0,0,
71,71,71,71,71,71,71,71,71,71,71,71,71,71,0,0,
71,71,71,71,71,71,71,71,71,71,71,71,71,71,0,0,
71,71,71,71,71,71,71,71,71,71,71,71,71,71,0,0,
71,71,71,71,71,71,71,71,71,71,71,71,71,71,0,0,
71,71,71,71,71,71,71,71,71,71,71,71,71,71,71,71,
71,71,71,71,71,71,71,71,71,71,71,71,71,71,71,71,
71,71,71,71,71,0,0,0,71,71,71,71,71,71,71,71,
71,71,71,71,71,0,0,0,71,71,71,71,71,71,71,71
</chunk>
   <chunk x="80" y="32" width="16" height="16">
0,0,0,0,0,0,0,0,0,0,0,0,0,0,0,71,
0,0,0,0,0,0,0,0,0,0,0,0,0,0,0,71,
0,0,0,0,0,0,0,0,0,0,0,0,0,0,0,71,
0,0,0,0,0,0,0,0,0,0,0,0,0,0,0,71,
0,0,0,0,0,0,0,0,0,0,0,0,0,0,0,71,
0,0,0,0,0,0,0,0,0,0,0,0,0,0,0,71,
0,0,0,0,0,0,0,0,0,0,0,0,0,0,0,71,
0,0,0,0,0,0,0,0,0,0,0,0,0,0,0,71,
0,0,0,0,0,0,0,0,0,0,0,0,0,0,0,71,
0,0,0,0,0,0,0,0,0,0,0,0,0,0,0,71,
0,0,0,0,0,0,0,0,0,0,0,0,0,0,0,71,
0,0,0,0,0,0,0,0,0,0,0,0,0,0,0,71,
71,71,71,71,71,71,71,71,71,71,71,71,71,71,71,71,
71,71,71,71,71,71,71,71,71,71,71,71,71,71,71,71,
71,71,71,71,71,71,71,71,71,71,71,71,71,71,71,71,
71,71,71,71,71,71,71,71,71,71,71,71,71,71,71,71
</chunk>
   <chunk x="96" y="32" width="16" height="16">
71,71,71,71,71,0,0,0,0,0,0,0,0,0,0,0,
71,71,71,71,71,0,0,0,0,0,0,0,0,0,0,0,
71,71,71,71,71,0,0,0,0,0,0,0,0,0,0,0,
71,71,71,71,71,0,0,0,0,0,0,0,0,0,0,0,
71,71,71,71,71,0,0,0,0,0,0,0,0,0,0,0,
71,71,71,71,71,0,0,0,0,0,0,0,0,0,0,0,
71,71,71,71,71,0,0,0,0,0,0,0,0,0,0,0,
71,71,71,71,71,0,0,0,0,0,0,0,0,0,0,0,
71,71,71,71,71,0,0,0,0,0,0,0,0,0,0,0,
71,71,71,71,71,0,0,0,0,0,0,0,0,0,0,0,
71,71,71,71,71,71,71,71,71,71,71,71,71,71,71,71,
71,71,71,71,71,71,71,71,71,71,71,71,71,71,71,71,
71,71,71,71,71,71,71,71,71,71,71,71,71,71,71,71,
71,71,71,71,71,71,71,71,71,71,71,71,71,71,71,71,
71,71,71,71,71,71,71,71,71,71,71,71,71,71,71,71,
71,71,71,71,71,71,71,71,71,71,71,71,71,71,71,71
</chunk>
   <chunk x="112" y="32" width="16" height="16">
0,0,0,0,0,0,0,0,0,0,0,0,0,71,71,71,
0,0,0,0,0,0,0,0,0,0,0,0,0,71,71,71,
0,0,0,0,0,0,0,0,0,0,0,0,0,71,71,71,
0,0,0,0,0,0,0,0,0,0,0,0,0,71,71,71,
0,0,0,0,0,0,0,0,0,0,0,0,0,71,71,71,
0,0,0,0,0,0,0,0,0,0,0,0,0,71,71,71,
0,0,0,0,0,0,0,0,0,0,0,0,0,71,71,71,
0,0,0,0,0,0,0,0,0,0,0,0,0,71,71,71,
0,0,0,0,0,0,0,0,0,0,0,0,0,71,71,71,
0,0,0,0,0,0,0,0,0,0,0,0,0,71,71,71,
71,71,71,71,71,71,71,71,71,71,71,71,71,71,71,18,
71,71,71,71,71,71,71,71,71,71,71,71,71,71,18,72,
71,71,71,71,71,71,71,71,71,71,71,71,71,71,71,72,
71,71,71,71,71,71,71,71,71,71,71,71,71,71,18,81,
71,71,71,71,71,71,71,71,71,71,71,71,59,80,81,0,
71,71,71,71,71,71,71,71,71,71,71,71,72,0,0,0
</chunk>
   <chunk x="128" y="32" width="16" height="16">
71,71,71,71,71,0,0,0,0,0,0,0,0,0,0,0,
71,71,71,71,71,0,0,0,0,0,0,0,0,0,0,0,
71,71,71,71,71,0,0,0,0,0,0,0,0,0,0,0,
71,71,71,71,71,0,0,0,0,0,0,0,0,0,0,0,
71,71,71,71,71,0,0,0,0,0,0,0,0,0,0,0,
71,71,71,71,71,0,0,0,0,0,0,0,0,0,0,0,
71,71,71,71,71,0,0,0,0,0,0,0,0,0,0,0,
71,71,71,71,71,0,0,0,0,0,0,0,0,0,0,0,
71,71,71,71,71,0,0,0,0,0,0,0,0,0,0,0,
71,71,71,71,71,0,0,0,0,0,0,0,0,0,0,0,
80,80,60,71,71,0,0,0,0,0,0,0,0,0,0,0,
0,0,70,71,71,0,0,0,0,0,0,0,0,0,0,0,
0,0,79,60,71,0,0,0,0,0,0,0,0,0,0,0,
0,0,0,70,71,0,0,0,0,0,0,0,0,0,0,0,
0,0,0,70,71,0,0,0,0,0,0,0,0,0,0,0,
0,61,62,69,71,0,0,0,0,0,0,0,0,0,0,0
</chunk>
   <chunk x="0" y="48" width="16" height="16">
0,0,71,71,71,71,71,71,71,71,71,71,71,71,71,71,
0,0,71,71,71,71,71,71,71,71,71,71,71,71,71,71,
0,0,71,71,71,71,71,71,71,71,71,71,71,71,71,71,
0,0,71,71,71,71,71,71,71,71,71,71,71,71,71,71,
0,0,0,0,0,0,0,0,0,0,0,0,0,0,0,0,
0,0,0,0,0,0,0,0,0,0,0,0,0,0,0,0,
0,0,0,0,0,0,0,0,0,0,0,0,0,0,0,0,
0,0,0,0,0,0,0,0,0,0,0,0,0,0,0,0,
0,0,0,0,0,0,0,0,0,0,0,0,0,0,0,0,
0,0,0,0,0,0,0,0,0,0,0,0,0,0,0,0,
0,0,0,0,0,0,0,0,0,0,0,0,0,0,0,0,
0,0,0,0,0,0,0,0,0,0,0,0,0,0,0,0,
0,0,0,0,0,0,0,0,0,0,0,0,0,0,0,0,
0,0,0,0,0,0,0,0,0,0,0,0,0,0,0,0,
0,0,0,0,0,0,0,0,0,0,0,0,0,0,0,0,
0,0,0,0,0,0,0,0,0,0,0,0,0,0,0,0
</chunk>
   <chunk x="16" y="48" width="16" height="16">
71,0,0,0,0,71,71,71,71,71,71,71,71,71,72,0,
71,0,0,0,0,71,71,71,71,71,71,71,71,71,72,0,
71,0,0,0,0,71,71,71,71,71,71,71,71,71,68,63,
71,0,0,0,0,71,71,71,71,71,71,71,71,71,71,68,
0,0,0,0,0,71,71,71,71,71,71,71,71,71,71,71,
0,0,0,0,0,0,0,0,0,0,0,0,0,0,0,0,
0,0,0,0,0,0,0,0,0,0,0,0,0,0,0,0,
0,0,0,0,0,0,0,0,0,0,0,0,0,0,0,0,
0,0,0,0,0,0,0,0,0,0,0,0,0,0,0,0,
0,0,0,0,0,0,0,0,0,0,0,0,0,0,0,0,
0,0,0,0,0,0,0,0,0,0,0,0,0,0,0,0,
0,0,0,0,0,0,0,0,0,0,0,0,0,0,0,0,
0,0,0,0,0,0,0,0,0,0,0,0,0,0,0,0,
0,0,0,0,0,0,0,0,0,0,0,0,0,0,0,0,
0,0,0,0,0,0,0,0,0,0,0,0,0,0,0,0,
0,0,0,0,0,0,0,0,0,0,0,0,0,0,0,0
</chunk>
   <chunk x="32" y="48" width="16" height="16">
0,0,70,71,71,71,71,71,71,71,71,71,71,71,71,71,
0,0,70,71,71,71,71,71,71,71,71,71,71,71,71,71,
0,61,10,71,71,71,71,71,71,71,71,71,71,71,71,71,
62,69,71,71,71,71,71,71,71,71,71,71,71,71,71,71,
71,71,71,71,71,71,71,71,71,71,71,71,71,71,71,71,
0,0,0,0,0,71,71,71,71,71,71,71,71,0,0,0,
0,0,0,0,0,71,71,71,71,71,71,71,71,0,0,0,
0,0,0,0,0,71,71,71,71,71,71,71,71,0,0,0,
0,0,0,0,0,71,71,71,71,71,71,71,71,0,0,0,
0,0,0,0,0,71,71,71,71,71,71,71,71,0,0,0,
0,0,0,0,0,71,71,71,71,71,71,71,71,0,0,0,
0,0,0,0,0,71,71,71,71,71,71,71,71,0,0,0,
0,0,0,0,0,71,71,71,71,71,71,71,71,0,0,0,
0,0,0,0,0,71,71,71,71,71,71,71,71,71,71,71,
0,0,0,0,0,71,71,71,71,71,71,71,71,71,71,71,
0,0,0,0,0,71,71,71,71,71,71,71,71,71,71,71
</chunk>
   <chunk x="48" y="48" width="16" height="16">
71,71,71,71,71,71,71,71,71,71,71,71,71,71,71,71,
71,71,71,71,71,71,71,71,71,71,71,71,71,71,71,71,
71,71,71,71,71,71,71,71,71,71,71,71,71,71,71,71,
71,71,71,71,71,71,71,71,71,71,71,71,71,71,71,71,
71,71,71,71,71,71,71,71,71,71,71,71,71,71,71,71,
0,0,0,0,0,0,0,0,0,0,0,0,0,0,0,0,
0,0,0,0,0,0,0,0,0,0,0,0,0,0,0,0,
0,0,0,0,0,0,0,0,0,0,0,0,0,0,0,0,
0,0,0,0,0,0,0,0,0,0,0,0,0,0,0,0,
0,0,0,0,0,0,0,0,0,0,0,0,0,0,0,0,
0,0,0,0,0,0,0,0,0,0,0,0,0,0,0,0,
0,0,0,0,0,0,0,0,0,0,0,0,0,0,0,0,
0,0,0,0,0,0,0,0,0,0,0,0,0,0,0,0,
71,71,71,71,71,71,71,71,71,71,71,71,71,71,71,71,
71,71,71,71,71,71,71,71,71,71,71,71,71,71,71,71,
71,71,71,71,71,71,71,71,71,71,71,71,71,71,71,71
</chunk>
   <chunk x="64" y="48" width="16" height="16">
71,71,71,71,71,0,0,0,71,71,71,71,71,71,71,71,
71,71,71,71,71,0,0,0,71,71,71,71,71,71,71,71,
71,71,71,71,71,0,0,0,71,71,71,71,71,71,71,71,
71,71,71,71,71,0,0,0,71,71,71,71,71,71,71,71,
71,71,71,71,71,0,0,0,71,71,71,71,71,71,71,71,
0,0,0,0,0,0,0,0,71,71,71,71,71,71,71,71,
0,0,0,0,0,0,0,0,71,71,71,71,71,71,71,71,
0,0,0,0,0,0,0,0,71,71,71,71,71,71,71,71,
0,0,0,0,0,0,0,0,71,71,71,71,71,71,71,71,
0,0,0,0,0,0,0,0,71,71,71,71,71,71,71,71,
0,0,0,0,0,0,0,0,0,0,0,0,0,0,0,0,
0,0,0,0,0,0,0,0,0,0,0,0,0,0,0,0,
0,0,0,0,0,0,0,0,0,0,0,0,0,0,0,0,
71,71,71,71,71,71,71,71,71,71,71,71,71,71,71,71,
71,71,71,71,71,71,71,71,71,71,71,71,71,71,71,71,
71,71,71,71,71,71,71,71,71,71,71,71,71,71,71,71
</chunk>
   <chunk x="80" y="48" width="16" height="16">
71,71,71,71,71,71,71,71,71,71,71,71,71,71,71,71,
71,71,71,71,71,71,71,71,71,71,71,71,71,71,71,71,
71,71,71,71,71,71,71,71,71,71,71,71,71,71,71,71,
71,71,71,71,71,71,71,71,71,71,71,71,71,71,71,71,
71,71,71,71,71,71,71,71,71,71,71,71,71,71,71,71,
71,71,71,71,71,71,71,71,71,71,71,71,71,71,71,71,
71,71,71,71,71,71,71,71,71,71,71,71,71,71,71,71,
71,71,71,71,71,71,71,71,71,71,71,71,71,71,71,71,
71,71,71,71,71,71,71,71,71,71,71,71,71,71,71,71,
71,71,71,71,71,71,71,71,71,71,71,71,71,71,71,71,
0,0,0,0,0,0,0,0,0,0,0,0,0,0,0,0,
0,0,0,0,0,0,0,0,0,0,0,0,0,0,0,0,
0,0,0,0,0,0,0,0,0,0,0,0,0,0,0,0,
71,71,71,71,71,71,71,71,71,71,71,71,71,71,71,71,
71,71,71,71,71,71,71,71,71,71,71,71,71,71,71,71,
71,71,71,71,71,71,71,71,71,71,71,71,71,71,71,71
</chunk>
   <chunk x="96" y="48" width="16" height="16">
71,71,71,71,71,71,71,71,71,71,71,71,71,71,71,71,
71,71,71,71,71,71,71,71,71,71,71,71,71,71,71,71,
71,71,71,71,71,71,71,71,71,71,71,71,71,71,71,71,
0,0,0,0,0,0,0,0,0,0,0,0,0,0,0,0,
0,0,0,0,0,0,0,0,0,0,0,0,0,0,0,0,
0,0,0,0,0,0,0,0,0,0,0,0,0,0,0,0,
0,0,0,0,0,0,0,0,0,0,0,0,0,0,0,0,
0,0,0,0,0,0,0,0,0,0,0,0,0,0,0,0,
0,0,0,0,0,0,0,0,0,0,0,0,0,0,0,0,
0,0,0,0,0,0,0,0,0,0,0,0,0,0,0,0,
0,0,0,0,0,0,0,0,0,0,0,0,0,0,0,0,
0,0,0,0,0,0,0,0,0,0,0,0,0,0,0,0,
0,0,0,0,0,0,0,0,0,0,0,0,0,0,0,0,
0,0,0,0,0,0,0,0,0,0,0,0,0,0,0,0,
0,0,0,0,0,0,0,0,0,0,0,0,0,0,0,0,
0,0,0,0,0,0,0,0,0,0,0,0,0,0,0,0
</chunk>
   <chunk x="112" y="48" width="16" height="16">
71,71,71,71,71,71,71,71,71,71,71,71,68,62,62,62,
71,71,71,71,71,71,71,71,71,71,71,71,71,71,71,71,
71,71,71,71,71,71,71,71,71,71,71,71,71,71,71,71,
0,0,0,0,0,0,0,0,0,0,0,0,0,0,0,0,
0,0,0,0,0,0,0,0,0,0,0,0,0,0,0,0,
0,0,0,0,0,0,0,0,0,0,0,0,0,0,0,0,
0,0,0,0,0,0,0,0,0,0,0,0,0,0,0,0,
0,0,0,0,0,0,0,0,0,0,0,0,0,0,0,0,
0,0,0,0,0,0,0,0,0,0,0,0,0,0,0,0,
0,0,0,0,0,0,0,0,0,0,0,0,0,0,0,0,
0,0,0,0,0,0,0,0,0,0,0,0,0,0,0,0,
0,0,0,0,0,0,0,0,0,0,0,0,0,0,0,0,
0,0,0,0,0,0,0,0,0,0,0,0,0,0,0,0,
0,0,0,0,0,0,0,0,0,0,0,0,0,0,0,0,
0,0,0,0,0,0,0,0,0,0,0,0,0,0,0,0,
0,0,0,0,0,0,0,0,0,0,0,0,0,0,0,0
</chunk>
   <chunk x="128" y="48" width="16" height="16">
62,10,71,71,71,0,0,0,0,0,0,0,0,0,0,0,
71,71,71,71,71,0,0,0,0,0,0,0,0,0,0,0,
71,71,71,71,71,0,0,0,0,0,0,0,0,0,0,0,
0,0,0,0,0,0,0,0,0,0,0,0,0,0,0,0,
0,0,0,0,0,0,0,0,0,0,0,0,0,0,0,0,
0,0,0,0,0,0,0,0,0,0,0,0,0,0,0,0,
0,0,0,0,0,0,0,0,0,0,0,0,0,0,0,0,
0,0,0,0,0,0,0,0,0,0,0,0,0,0,0,0,
0,0,0,0,0,0,0,0,0,0,0,0,0,0,0,0,
0,0,0,0,0,0,0,0,0,0,0,0,0,0,0,0,
0,0,0,0,0,0,0,0,0,0,0,0,0,0,0,0,
0,0,0,0,0,0,0,0,0,0,0,0,0,0,0,0,
0,0,0,0,0,0,0,0,0,0,0,0,0,0,0,0,
0,0,0,0,0,0,0,0,0,0,0,0,0,0,0,0,
0,0,0,0,0,0,0,0,0,0,0,0,0,0,0,0,
0,0,0,0,0,0,0,0,0,0,0,0,0,0,0,0
</chunk>
   <chunk x="32" y="64" width="16" height="16">
0,0,0,0,0,71,71,71,71,71,71,71,71,71,71,71,
0,0,0,0,0,71,71,71,71,71,71,71,71,71,71,71,
0,0,0,0,0,71,71,71,71,71,71,71,71,71,71,71,
0,0,0,0,0,0,71,71,71,71,71,71,71,71,71,71,
0,0,0,0,0,0,71,71,71,71,71,71,71,71,71,71,
0,0,0,0,0,0,71,71,71,71,71,71,71,71,71,71,
0,0,0,0,0,0,0,0,0,0,0,0,0,0,0,0,
0,0,0,0,0,0,0,0,0,0,0,0,0,0,0,0,
0,0,0,0,0,0,0,0,0,0,0,0,0,0,0,0,
0,0,0,0,0,0,0,0,0,0,0,0,0,0,0,0,
0,0,0,0,0,0,0,0,0,0,0,0,0,0,0,0,
0,0,0,0,0,0,0,0,0,0,0,0,0,0,0,0,
0,0,0,0,0,0,0,0,0,0,0,0,0,0,0,0,
0,0,0,0,0,0,0,0,0,0,0,0,0,0,0,0,
0,0,0,0,0,0,0,0,0,0,0,0,0,0,0,0,
0,0,0,0,0,0,0,0,0,0,0,0,0,0,0,0
</chunk>
   <chunk x="48" y="64" width="16" height="16">
71,71,71,71,71,71,71,71,71,71,71,71,71,71,71,71,
71,71,71,71,71,71,71,71,71,71,71,71,71,71,71,71,
71,71,71,71,71,71,71,71,71,71,71,71,71,71,71,71,
71,71,71,71,71,71,71,71,71,71,71,71,71,71,71,71,
71,71,71,71,71,71,71,71,71,71,71,71,71,71,71,71,
71,71,71,71,71,71,71,71,71,71,71,71,71,71,71,71,
0,0,0,0,0,0,0,0,0,71,71,71,71,71,71,71,
0,0,0,0,0,0,0,0,0,71,71,71,71,71,71,71,
0,0,0,0,0,0,0,0,0,71,71,71,71,71,71,71,
0,0,0,0,0,0,0,0,0,71,71,71,71,71,71,71,
0,0,0,0,0,0,0,0,0,0,0,0,0,0,0,0,
0,0,0,0,0,0,0,0,0,0,0,0,0,0,0,0,
0,0,0,0,0,0,0,0,0,0,0,0,0,0,0,0,
0,0,0,0,0,0,0,0,0,0,0,0,0,0,0,0,
0,0,0,0,0,0,0,0,0,0,0,0,0,0,0,0,
0,0,0,0,0,0,0,0,0,0,0,0,0,0,0,0
</chunk>
   <chunk x="64" y="64" width="16" height="16">
71,71,71,71,71,71,71,71,71,71,71,71,71,71,71,71,
71,71,71,71,71,71,71,71,71,71,71,71,71,71,71,71,
71,71,71,71,71,71,71,71,71,71,71,71,71,71,71,71,
71,71,71,71,71,71,71,71,71,71,71,71,71,71,71,71,
71,71,71,71,71,71,71,71,71,71,71,71,71,71,71,71,
71,71,71,71,71,71,71,71,71,71,71,71,71,71,71,71,
71,71,71,71,71,71,71,71,71,71,71,71,71,71,71,71,
71,71,71,71,71,71,71,71,71,71,71,71,71,71,71,71,
71,71,71,71,71,71,71,71,71,71,71,71,71,71,71,71,
71,71,71,71,71,71,71,71,71,71,71,71,71,71,71,71,
0,0,0,0,0,0,0,0,0,0,0,0,0,0,0,0,
0,0,0,0,0,0,0,0,0,0,0,0,0,0,0,0,
0,0,0,0,0,0,0,0,0,0,0,0,0,0,0,0,
0,0,0,0,0,0,0,0,0,0,0,0,0,0,0,0,
0,0,0,0,0,0,0,0,0,0,0,0,0,0,0,0,
0,0,0,0,0,0,0,0,0,0,0,0,0,0,0,0
</chunk>
   <chunk x="80" y="64" width="16" height="16">
71,71,71,71,71,71,71,71,71,71,71,71,71,71,71,71,
71,71,71,71,71,71,71,71,71,71,71,71,71,71,71,71,
71,71,71,71,71,71,71,71,71,71,71,71,71,71,71,71,
71,71,71,71,71,71,71,71,71,71,71,71,71,71,71,71,
71,71,71,71,71,71,71,71,0,0,0,71,71,71,71,71,
71,71,71,71,71,71,71,71,0,0,0,71,71,71,71,71,
71,71,71,71,71,71,71,71,0,0,0,71,71,71,71,71,
71,71,71,71,71,71,71,71,0,0,0,71,71,71,71,71,
71,71,71,71,71,71,71,71,0,0,0,71,71,71,71,71,
71,71,71,71,71,71,71,71,0,0,0,71,71,71,71,71,
0,0,0,0,0,0,0,0,0,0,0,71,71,71,71,71,
0,0,0,0,0,0,0,0,0,0,0,71,71,71,71,71,
0,0,0,0,0,0,0,0,0,0,0,71,71,71,71,71,
0,0,0,0,0,0,0,0,0,0,0,71,71,71,71,71,
0,0,0,0,0,0,0,0,0,0,0,71,71,71,71,71,
0,0,0,0,0,0,0,0,0,0,0,0,0,0,0,0
</chunk>
  </data>
 </layer>
 <layer id="1" name="ground" width="64" height="32">
  <data encoding="csv">
   <chunk x="0" y="0" width="16" height="16">
0,0,0,0,0,0,0,0,0,0,0,0,0,0,0,0,
0,0,0,0,0,0,0,0,0,0,0,0,0,0,0,0,
0,0,0,0,0,0,0,0,0,0,0,0,0,0,0,0,
0,0,0,0,0,0,0,0,0,0,0,0,0,0,0,0,
0,0,0,0,0,0,0,0,0,0,0,0,0,0,0,0,
0,0,0,0,0,0,0,0,0,0,0,0,0,0,0,0,
0,0,0,0,0,0,0,0,0,0,0,0,0,0,0,0,
0,0,0,0,0,0,0,0,0,0,0,0,0,0,0,0,
0,0,0,0,0,0,0,0,0,0,0,0,0,0,0,0,
0,0,0,0,0,0,0,0,0,0,0,0,0,0,0,0,
0,0,0,0,0,0,0,0,0,0,0,0,0,0,0,0,
0,0,0,0,0,0,0,0,0,0,0,0,0,0,0,0,
0,0,0,0,0,0,0,0,0,0,0,0,0,0,0,0,
0,0,0,0,0,0,0,0,0,0,0,0,0,0,0,0,
0,0,0,0,0,0,0,0,0,0,0,0,0,0,0,0,
0,0,0,0,0,0,0,0,0,1155,1156,1157,1156,1157,1155,1155
</chunk>
   <chunk x="16" y="0" width="16" height="16">
0,0,0,0,0,0,0,0,0,0,0,0,0,0,0,0,
0,0,0,0,0,0,0,0,0,0,0,0,0,0,0,0,
0,0,0,0,0,0,0,0,0,0,0,0,0,0,0,0,
0,0,0,0,0,0,0,0,0,0,0,0,0,0,0,0,
0,0,0,0,0,0,0,0,0,0,0,0,0,0,0,0,
0,0,0,0,0,0,0,0,0,0,0,0,0,0,0,0,
0,0,0,0,0,0,0,0,0,0,0,0,0,0,0,0,
0,0,0,0,0,0,0,0,0,0,0,0,0,0,0,0,
0,0,0,0,0,0,0,0,0,0,0,0,0,0,0,0,
0,0,0,0,0,0,0,0,0,0,0,0,0,0,0,0,
0,0,0,0,0,0,0,0,0,0,0,0,1155,1156,1157,1156,
0,0,0,0,0,0,0,0,0,0,0,0,0,0,0,0,
0,0,0,0,0,0,0,0,0,0,0,0,0,0,0,0,
0,0,0,0,0,0,0,0,0,0,0,0,0,0,0,0,
0,0,0,0,0,0,0,0,0,0,0,0,0,0,0,0,
1156,1157,1156,1157,1163,0,0,0,0,0,0,0,0,0,0,0
</chunk>
   <chunk x="32" y="0" width="16" height="16">
0,0,0,0,0,0,0,0,0,0,0,0,0,0,0,0,
0,0,0,0,0,0,0,0,0,0,0,0,0,0,0,0,
0,0,0,0,0,0,0,0,0,0,0,0,0,0,0,0,
0,0,0,0,0,0,0,0,0,0,0,0,0,0,0,0,
0,0,0,0,0,0,0,0,0,0,0,0,0,0,0,0,
0,0,0,0,0,0,0,0,0,0,0,0,0,0,0,0,
0,0,0,0,0,0,0,0,0,0,0,0,0,0,0,0,
0,0,0,0,0,0,0,0,0,0,0,0,0,0,0,0,
0,0,0,0,0,0,0,0,0,0,0,0,0,0,0,0,
0,0,0,0,0,0,0,0,0,0,0,0,0,0,0,0,
1157,1156,1157,1155,1156,1157,1155,1156,1157,1155,1156,1157,1155,1156,1155,1156,
0,0,0,0,0,0,0,0,0,0,0,0,0,0,0,0,
0,0,0,0,0,0,0,0,0,0,0,0,0,0,0,0,
0,0,0,0,0,0,0,0,0,0,0,0,0,0,0,0,
0,0,0,0,0,0,0,0,0,0,0,0,0,0,0,0,
0,0,0,0,0,0,0,0,0,0,0,0,0,0,0,0
</chunk>
   <chunk x="48" y="0" width="16" height="16">
0,0,0,0,0,0,0,0,0,0,0,0,0,0,0,0,
0,0,0,0,0,0,0,0,0,0,0,0,0,0,0,0,
0,0,0,0,0,0,0,0,0,0,0,0,0,0,0,0,
0,0,0,0,0,0,0,0,0,0,0,0,0,0,0,0,
0,0,0,0,0,0,0,0,0,0,0,0,0,0,0,0,
0,0,0,0,0,0,0,0,0,0,0,0,0,0,0,0,
0,0,0,0,0,0,0,0,0,0,0,0,0,0,0,0,
0,0,0,0,0,0,0,0,0,0,0,0,0,0,0,0,
0,0,0,0,0,0,0,0,0,0,0,0,0,0,0,0,
0,0,0,0,0,0,0,0,0,0,0,0,0,0,0,0,
1157,1156,1157,1156,1157,1155,1156,1155,1156,1157,1156,1157,1156,1157,1155,1156,
0,0,0,0,0,0,0,0,0,0,0,0,0,0,0,0,
0,0,0,0,0,0,0,0,0,0,0,0,0,0,0,0,
0,0,0,0,0,0,0,0,0,0,0,0,0,0,0,0,
0,0,0,0,0,0,0,0,0,0,0,0,0,0,0,0,
0,0,0,0,0,0,0,0,0,0,0,0,0,0,0,0
</chunk>
   <chunk x="64" y="0" width="16" height="16">
0,0,0,0,0,0,0,0,0,0,0,0,0,0,0,0,
0,0,0,0,0,0,0,0,0,0,0,0,0,0,0,0,
0,0,0,0,0,0,0,0,0,0,0,0,0,0,0,0,
0,0,0,0,0,0,0,0,0,0,0,0,0,0,0,0,
0,0,0,0,0,0,0,0,0,0,0,0,0,0,0,0,
0,0,0,0,0,0,0,0,0,0,0,0,0,0,0,0,
0,0,0,0,0,0,0,0,0,0,0,0,0,0,0,0,
0,0,0,0,0,0,0,0,0,0,0,0,0,0,0,0,
0,0,0,0,0,0,0,0,0,0,0,0,0,0,0,0,
0,0,0,0,0,0,0,0,0,0,0,0,0,0,0,0,
1157,1156,1157,1156,1155,1155,1156,1157,1155,1155,1156,1157,1156,1157,1155,1156,
0,0,0,0,0,0,0,0,0,0,0,0,0,0,0,0,
0,0,0,0,0,0,0,0,0,0,0,0,0,0,0,0,
0,0,0,0,0,0,0,0,0,0,0,0,0,0,0,0,
0,0,0,0,0,0,0,0,0,0,0,0,0,0,0,0,
0,0,0,0,0,0,0,0,0,0,0,0,0,0,0,0
</chunk>
   <chunk x="80" y="0" width="16" height="16">
0,0,0,0,0,0,0,0,0,0,0,0,0,0,0,0,
0,0,0,0,0,0,0,0,0,0,0,0,0,0,0,0,
0,0,0,0,0,0,0,0,0,0,0,0,0,0,0,0,
0,0,0,0,0,0,0,0,0,0,0,0,0,0,0,0,
0,0,0,0,0,0,0,0,0,0,0,0,0,0,0,0,
0,0,0,0,0,0,0,0,0,0,0,0,0,0,0,0,
0,0,0,0,0,0,0,0,0,0,0,0,0,0,0,0,
0,0,0,0,0,0,0,0,0,0,0,0,0,0,0,0,
0,0,0,0,0,0,0,0,0,0,0,0,0,0,0,0,
0,0,0,0,0,0,0,0,0,0,0,0,0,0,0,0,
1158,0,0,0,0,0,0,0,0,0,0,0,0,0,0,0,
0,0,0,0,0,0,0,0,0,0,0,0,0,0,0,0,
0,0,0,0,0,0,0,0,0,0,0,0,0,0,0,0,
0,0,0,0,0,0,0,0,0,0,0,0,0,0,0,0,
0,0,0,0,0,0,0,0,0,0,0,0,0,0,0,0,
0,0,0,0,0,0,0,0,0,0,0,0,0,0,0,0
</chunk>
   <chunk x="16" y="16" width="16" height="16">
0,0,0,0,0,0,1163,0,0,0,0,0,0,0,0,0,
0,0,0,0,0,0,0,0,1163,0,0,0,0,0,0,0,
0,0,0,0,0,0,0,0,0,0,1163,0,0,0,0,0,
0,0,0,0,0,0,0,0,0,0,0,0,1163,0,0,0,
0,0,0,0,0,0,0,0,0,0,0,0,0,0,1163,0,
0,0,0,0,0,0,0,0,0,0,0,0,0,0,0,0,
0,0,0,0,0,0,0,0,0,0,0,0,0,0,0,0,
0,0,0,0,0,0,0,0,0,0,0,0,0,0,0,0,
0,0,0,0,0,0,0,0,0,0,0,0,0,0,0,0,
0,0,0,0,0,0,0,0,0,0,0,0,0,0,0,0,
0,0,0,0,0,0,0,0,0,0,0,0,0,0,0,0,
0,0,0,0,0,0,0,0,0,0,0,0,0,0,0,0,
0,0,0,0,0,0,0,0,0,0,0,0,0,0,0,0,
0,0,0,0,0,0,0,0,0,0,0,0,0,0,0,0,
0,0,0,0,0,0,0,0,0,0,0,0,0,0,0,0,
0,0,0,0,0,0,0,0,0,0,0,0,0,0,0,0
</chunk>
   <chunk x="32" y="16" width="16" height="16">
0,0,0,0,0,0,0,0,0,0,0,0,0,0,0,0,
0,0,0,0,0,0,0,0,0,0,0,0,0,0,0,0,
0,0,0,0,0,0,0,0,0,0,0,0,0,0,0,0,
0,0,0,0,0,0,0,0,0,0,0,0,0,0,0,0,
0,0,0,0,0,0,0,0,0,0,0,0,0,0,0,0,
1155,1156,1157,1155,1156,1155,1156,1157,1156,1157,1156,1155,1156,1157,1156,1157,
0,0,0,0,0,0,0,0,0,0,0,0,0,0,0,0,
0,0,0,0,0,0,0,0,0,0,0,0,0,0,0,0,
0,0,0,0,0,0,0,0,0,0,0,0,0,0,0,0,
0,0,0,0,0,0,0,0,0,0,0,0,0,0,0,0,
0,0,0,0,0,0,0,0,0,0,0,0,0,0,0,0,
0,0,0,0,0,0,0,0,0,0,0,0,0,0,0,0,
0,0,0,0,0,0,0,0,0,0,0,0,0,0,0,0,
0,0,0,0,0,0,0,0,0,0,0,0,0,0,0,0,
0,0,0,0,0,0,0,1154,1155,1156,1157,1158,0,0,0,0,
0,0,0,0,0,0,0,0,0,0,0,0,0,0,0,0
</chunk>
   <chunk x="48" y="16" width="16" height="16">
0,0,0,0,0,0,0,0,0,0,0,0,0,0,0,0,
0,0,0,0,0,0,0,0,0,0,0,0,0,0,0,0,
0,0,0,0,0,0,0,0,0,0,0,0,0,0,0,0,
0,0,0,0,0,0,0,0,0,0,0,0,0,0,0,0,
0,0,0,0,0,0,0,0,0,0,0,0,0,0,0,0,
1155,1156,1157,1155,1156,1157,1157,1155,1156,1157,1155,1156,1157,1158,0,0,
0,0,0,0,0,0,0,0,0,0,0,0,0,0,0,0,
0,0,0,0,0,0,0,0,0,0,0,0,0,0,0,0,
0,0,0,0,0,0,0,0,0,0,0,0,0,0,0,0,
0,0,0,0,0,0,0,0,0,0,0,0,0,0,0,0,
0,0,0,0,0,0,0,0,0,0,0,0,0,0,0,0,
0,0,0,0,0,0,0,0,0,0,0,0,0,0,0,0,
0,0,0,0,0,0,0,0,0,0,0,0,0,0,0,0,
0,0,0,0,0,0,0,0,0,0,0,0,0,0,0,0,
0,0,0,0,0,0,0,0,0,0,0,0,0,0,0,0,
0,0,0,0,0,0,0,0,0,0,0,0,0,0,0,0
</chunk>
   <chunk x="64" y="16" width="16" height="16">
0,0,0,0,0,0,0,0,0,0,0,0,0,0,0,0,
0,0,0,0,0,0,0,0,0,0,0,0,0,0,0,0,
0,0,0,0,0,0,0,0,0,0,0,0,0,0,0,0,
0,0,0,0,0,0,0,0,0,0,0,0,0,0,0,0,
0,0,0,0,0,0,0,0,0,0,0,0,0,0,0,0,
0,0,0,0,0,0,0,0,0,0,0,0,0,0,0,0,
0,0,0,0,0,0,0,0,0,0,0,0,0,0,0,0,
0,0,0,0,0,0,0,0,0,0,0,0,0,0,0,0,
0,0,0,0,0,0,0,0,0,0,0,0,0,0,0,0,
0,0,0,0,0,0,0,0,0,0,0,0,0,0,0,0,
0,0,0,0,0,0,0,0,0,0,0,0,0,0,0,0,
0,0,0,0,0,0,0,0,0,0,0,0,0,0,0,0,
0,0,0,0,0,0,0,0,0,0,0,0,0,0,0,0,
0,0,0,0,0,0,0,0,0,0,0,0,0,0,0,0,
1162,1155,1156,1157,1157,1155,1156,1157,1157,0,0,0,0,0,0,0,
0,0,0,0,0,0,0,0,0,0,0,0,0,0,0,0
</chunk>
   <chunk x="80" y="16" width="16" height="16">
0,0,0,0,0,0,0,0,0,0,0,0,0,0,0,0,
0,0,0,0,0,0,0,0,0,0,0,0,0,0,0,0,
0,0,0,0,0,0,0,0,0,0,0,0,0,0,0,0,
0,0,0,0,0,0,0,0,0,0,0,0,0,0,0,0,
0,1341,1342,1343,1163,0,0,0,0,0,0,0,0,0,0,0,
0,0,0,0,0,0,0,0,0,0,0,0,0,0,0,0,
0,0,0,0,0,0,1163,0,0,0,0,0,0,0,0,0,
0,0,0,0,0,0,0,0,1163,0,0,0,0,0,0,0,
0,0,0,0,0,0,0,0,0,0,1163,0,0,0,0,0,
0,0,0,0,0,0,0,0,0,0,0,0,1155,1156,1157,1158,
0,0,0,0,0,0,0,0,0,0,0,0,0,0,0,0,
0,0,0,0,0,0,0,0,0,0,0,0,0,0,0,0,
0,0,0,0,0,0,0,0,0,0,0,0,0,0,0,0,
0,0,0,0,0,0,0,0,0,0,0,0,0,0,0,0,
0,0,0,0,0,0,0,0,0,0,0,0,0,0,0,0,
0,0,0,0,0,0,0,0,0,0,0,0,0,0,0,0
</chunk>
   <chunk x="96" y="16" width="16" height="16">
0,0,0,0,0,0,0,0,0,0,0,0,0,0,0,0,
0,0,0,0,0,0,0,0,0,0,0,0,0,0,0,0,
0,0,0,0,0,0,0,0,0,0,0,0,0,0,0,0,
0,0,0,0,0,0,0,0,0,0,0,0,0,0,0,0,
0,0,0,0,0,0,0,0,0,0,0,0,0,0,0,0,
0,0,0,0,0,0,0,0,0,0,0,0,0,0,0,0,
0,0,0,0,0,0,0,0,0,0,0,0,0,0,0,0,
0,0,0,0,0,0,0,0,0,0,0,0,0,0,0,0,
0,0,0,0,0,0,0,0,0,0,0,0,0,0,0,0,
0,0,0,0,1154,1155,1156,1157,1155,1156,1157,1155,1156,1157,1155,1156,
0,0,0,0,0,0,0,0,0,0,0,0,0,0,0,0,
0,0,0,0,0,0,0,0,0,0,0,0,0,0,0,0,
0,0,0,0,0,0,0,0,0,0,0,0,0,0,0,0,
0,0,0,0,0,0,0,0,0,0,0,0,0,0,0,0,
0,0,0,0,0,0,0,0,0,0,0,0,0,0,0,0,
0,0,0,0,0,0,0,0,0,0,0,0,0,0,0,0
</chunk>
   <chunk x="112" y="16" width="16" height="16">
0,0,0,0,0,0,0,0,0,0,0,0,0,0,0,0,
0,0,0,0,0,0,0,0,0,0,0,0,0,0,0,0,
0,0,0,0,0,0,0,0,0,0,0,0,0,0,0,0,
0,0,0,0,0,0,0,0,0,0,0,0,0,0,0,0,
0,0,0,0,0,0,0,0,0,0,0,0,0,0,0,0,
0,0,0,0,0,0,0,0,0,0,0,0,0,0,0,0,
0,0,0,0,0,0,0,0,0,0,0,0,0,0,0,0,
0,0,0,0,0,0,0,0,0,0,0,0,0,0,0,0,
0,0,0,0,0,0,0,0,0,0,0,0,0,0,0,0,
1157,1155,1156,1157,1155,1155,1155,1156,1157,1163,0,0,0,0,0,0,
0,0,0,0,0,0,0,0,0,0,1163,0,0,0,0,0,
0,0,0,0,0,0,0,0,0,0,0,0,1163,0,0,0,
0,0,0,0,0,0,0,0,0,0,0,0,0,0,0,0,
0,0,0,0,0,0,0,0,0,0,0,0,0,0,0,0,
0,0,0,0,0,0,0,0,0,0,0,0,0,0,0,0,
0,0,0,0,0,0,0,0,0,0,0,0,0,0,0,0
</chunk>
   <chunk x="16" y="32" width="16" height="16">
0,0,0,0,0,0,0,0,0,0,0,0,0,0,0,0,
0,0,0,0,0,0,0,0,0,0,0,0,0,0,0,0,
0,0,0,0,0,0,0,0,0,0,0,0,0,0,0,0,
0,0,0,0,0,0,0,0,0,0,0,0,0,0,0,0,
0,0,0,0,0,0,0,0,0,0,0,0,0,0,0,0,
0,0,0,0,0,0,0,0,0,0,0,0,0,0,0,0,
0,0,0,0,0,0,0,0,0,0,0,0,0,0,0,0,
0,0,0,0,0,0,0,0,0,0,0,0,0,0,0,0,
0,0,0,0,0,0,0,0,0,0,0,0,0,0,0,0,
0,0,0,0,0,0,0,0,0,0,0,0,0,0,0,0,
1155,1156,1157,1155,1156,1157,0,0,0,0,0,0,0,0,0,0,
0,0,0,0,0,0,0,0,0,0,0,0,0,0,0,0,
0,0,0,0,0,0,0,0,0,0,0,0,0,0,0,0,
0,0,0,0,0,0,0,0,0,0,0,0,0,0,0,0,
0,0,0,0,0,0,0,0,0,0,0,0,0,0,0,0,
0,0,0,0,0,0,0,0,0,0,0,0,0,0,0,0
</chunk>
   <chunk x="32" y="32" width="16" height="16">
0,0,0,0,0,0,0,0,0,0,0,0,0,0,0,0,
0,0,0,0,0,0,0,0,0,0,0,0,0,0,0,0,
0,0,0,0,0,0,0,0,0,0,0,0,0,0,0,0,
0,0,0,0,0,0,0,0,0,0,0,0,0,0,0,0,
0,0,0,0,0,0,0,0,0,0,0,0,0,0,0,0,
0,0,0,1155,1156,1158,0,0,0,0,0,0,1154,1156,1157,1155,
0,0,0,0,0,0,0,0,0,0,0,0,0,0,0,0,
0,0,0,0,0,0,0,0,0,0,0,0,0,0,0,0,
0,0,0,0,0,0,0,0,0,0,0,0,0,0,0,0,
0,0,0,0,0,0,0,0,0,0,0,0,0,0,0,0,
0,0,0,0,0,0,0,0,0,0,0,0,0,0,0,0,
0,0,0,0,0,0,0,0,0,0,0,0,0,0,0,0,
0,0,0,0,0,0,0,0,0,0,0,0,0,0,0,0,
0,0,0,0,0,0,0,0,0,0,0,0,0,0,0,0,
0,0,0,0,0,0,0,0,0,0,0,0,0,0,0,0,
0,0,0,0,0,0,0,0,0,0,0,0,0,0,0,0
</chunk>
   <chunk x="48" y="32" width="16" height="16">
0,0,0,0,0,0,0,0,0,0,0,0,0,0,0,0,
0,0,0,0,0,0,0,0,0,0,0,1162,1155,1155,1156,1157,
0,0,0,0,0,0,0,0,0,0,0,0,0,0,0,0,
0,0,0,0,0,0,0,0,0,0,0,0,0,0,0,0,
0,0,0,0,0,0,0,0,0,0,0,0,0,0,0,0,
1156,1155,1156,1157,1156,1155,1156,1157,1157,0,0,0,0,0,0,0,
0,0,0,0,0,0,0,0,0,0,0,0,0,0,0,0,
0,0,0,0,0,0,0,0,0,0,0,0,0,0,0,0,
0,0,0,0,0,0,0,0,0,0,0,0,0,0,0,0,
0,0,0,0,0,0,0,0,0,0,0,0,0,0,0,0,
0,0,0,0,0,0,0,0,0,0,0,0,0,0,0,0,
0,0,0,0,0,0,0,0,0,0,0,0,0,0,0,0,
0,0,0,0,0,0,0,0,0,0,0,0,0,0,0,0,
0,0,0,0,0,0,0,0,0,0,0,0,0,0,0,0,
0,0,0,0,0,0,0,0,0,0,0,0,0,0,0,0,
0,0,0,0,0,0,0,0,0,0,0,0,0,0,0,0
</chunk>
   <chunk x="64" y="32" width="16" height="16">
0,0,0,0,0,0,0,0,0,0,0,0,0,0,0,0,
0,0,0,0,0,0,0,0,0,0,0,0,0,0,0,0,
0,0,0,0,0,0,0,0,0,0,0,0,0,0,0,0,
0,0,0,0,0,0,0,0,0,0,0,0,0,0,0,0,
0,0,0,0,0,0,0,0,0,0,0,0,0,0,0,0,
0,0,0,0,0,0,0,0,0,0,0,0,0,0,0,0,
0,0,0,0,0,0,0,0,0,0,0,0,0,0,0,0,
0,0,0,0,0,0,0,0,0,0,0,0,0,0,0,0,
0,0,0,0,0,0,0,0,0,0,0,0,0,0,0,0,
0,0,0,0,0,0,0,0,0,0,0,0,0,0,0,0,
0,0,0,0,0,0,0,0,0,0,0,0,0,0,0,0,
0,0,0,0,0,0,0,0,0,0,0,0,0,0,0,0,
0,0,0,0,0,1155,1156,1157,0,0,0,0,0,0,0,0,
0,0,0,0,0,0,0,0,0,0,0,0,0,0,0,0,
0,0,0,0,0,0,0,0,0,0,0,0,0,0,0,0,
0,0,0,0,0,0,0,0,0,0,0,0,0,0,0,0
</chunk>
   <chunk x="0" y="48" width="16" height="16">
0,0,0,0,0,0,0,0,0,0,0,0,0,0,0,0,
0,0,0,0,0,0,0,0,0,0,0,0,0,0,0,0,
0,0,0,1155,1156,1157,1157,1155,1155,1155,1156,1157,1156,1157,1156,1157,
0,0,0,0,0,0,0,0,0,0,0,0,0,0,0,0,
0,0,0,0,0,0,0,0,0,0,0,0,0,0,0,0,
0,0,0,0,0,0,0,0,0,0,0,0,0,0,0,0,
0,0,0,0,0,0,0,0,0,0,0,0,0,0,0,0,
0,0,0,0,0,0,0,0,0,0,0,0,0,0,0,0,
0,0,0,0,0,0,0,0,0,0,0,0,0,0,0,0,
0,0,0,0,0,0,0,0,0,0,0,0,0,0,0,0,
0,0,0,0,0,0,0,0,0,0,0,0,0,0,0,0,
0,0,0,0,0,0,0,0,0,0,0,0,0,0,0,0,
0,0,0,0,0,0,0,0,0,0,0,0,0,0,0,0,
0,0,0,0,0,0,0,0,0,0,0,0,0,0,0,0,
0,0,0,0,0,0,0,0,0,0,0,0,0,0,0,0,
0,0,0,0,0,0,0,0,0,0,0,0,0,0,0,0
</chunk>
   <chunk x="16" y="48" width="16" height="16">
0,0,0,0,0,0,0,0,0,0,0,0,0,0,0,0,
0,0,0,0,0,0,0,0,0,0,0,0,0,0,0,0,
0,0,0,0,0,0,0,0,0,0,0,0,0,0,0,0,
0,0,0,0,0,0,1155,1156,1157,1155,1156,1155,1156,1157,1156,1157,
0,0,0,0,0,0,0,0,0,0,0,0,0,0,0,0,
0,0,0,0,0,0,0,0,0,0,0,0,0,0,0,0,
0,0,0,0,0,0,0,0,0,0,0,0,0,0,0,0,
0,0,0,0,0,0,0,0,0,0,0,0,0,0,0,0,
0,0,0,0,0,0,0,0,0,0,0,0,0,0,0,0,
0,0,0,0,0,0,0,0,0,0,0,0,0,0,0,0,
0,0,0,0,0,0,0,0,0,0,0,0,0,0,0,0,
0,0,0,0,0,0,0,0,0,0,0,0,0,0,0,0,
0,0,0,0,0,0,0,0,0,0,0,0,0,0,0,0,
0,0,0,0,0,0,0,0,0,0,0,0,0,0,0,0,
0,0,0,0,0,0,0,0,0,0,0,0,0,0,0,0,
0,0,0,0,0,0,0,0,0,0,0,0,0,0,0,0
</chunk>
   <chunk x="32" y="48" width="16" height="16">
0,0,0,0,0,0,0,0,0,0,0,0,0,0,0,0,
0,0,0,0,0,0,0,0,0,0,0,0,0,0,0,0,
0,0,0,0,0,0,0,0,0,0,0,0,0,0,0,0,
1155,1155,1156,1157,1157,1158,0,0,0,0,0,0,1154,1156,1157,1156,
0,0,0,0,0,0,0,0,0,0,0,0,0,0,0,0,
0,0,0,0,0,0,0,0,0,0,0,0,0,0,0,0,
0,0,0,0,0,0,0,0,0,0,0,0,0,0,0,0,
0,0,0,0,0,0,1158,0,0,0,0,1154,0,0,0,0,
0,0,0,0,0,0,0,0,0,0,0,0,0,0,0,0,
0,0,0,0,0,0,0,0,0,0,0,0,0,0,0,0,
0,0,0,0,0,0,0,0,0,0,0,0,0,0,0,0,
0,0,0,0,0,0,0,0,0,0,0,0,0,0,0,0,
0,0,0,0,0,0,0,0,0,0,0,0,0,0,0,0,
0,0,0,0,0,0,0,0,0,0,0,0,0,0,0,0,
0,0,0,0,0,0,0,0,0,0,0,0,0,0,0,0,
0,0,0,0,0,0,0,0,0,0,0,0,0,0,0,0
</chunk>
   <chunk x="48" y="48" width="16" height="16">
0,0,0,0,0,0,0,0,0,0,0,0,0,0,0,0,
0,0,0,0,0,0,0,0,0,0,0,0,0,0,0,0,
0,0,0,0,0,0,0,0,0,0,0,0,0,0,0,0,
1155,1156,1157,1157,1155,1155,1156,1157,1156,1157,1157,1155,1156,1157,1155,1155,
0,0,0,0,0,0,0,0,0,0,0,0,0,0,0,0,
0,0,0,0,0,0,0,0,0,0,0,0,0,0,0,0,
0,0,0,0,0,0,0,0,0,0,0,0,0,0,0,0,
0,0,0,0,0,0,0,0,0,0,0,0,0,0,0,0,
0,0,0,0,0,0,0,0,0,0,0,0,0,0,0,0,
0,0,0,0,0,0,0,0,0,0,0,0,0,0,0,0,
0,0,0,0,0,0,0,0,0,0,0,0,0,0,0,0,
0,0,0,0,0,0,0,0,0,0,0,0,0,0,0,0,
0,0,0,0,0,0,0,0,0,0,0,0,0,0,0,0,
0,0,0,0,0,0,0,0,0,0,0,0,0,0,0,0,
0,0,0,0,0,0,0,0,0,0,0,0,0,0,0,0,
0,0,0,0,0,0,0,0,0,0,0,0,0,0,0,0
</chunk>
   <chunk x="64" y="48" width="16" height="16">
0,0,0,0,0,0,0,0,0,0,0,0,0,0,0,0,
0,0,0,0,0,0,0,0,0,0,0,0,0,0,0,0,
0,0,0,0,0,0,0,0,0,0,0,0,0,0,0,0,
1156,1157,1156,1157,0,0,0,0,0,0,0,0,0,0,0,0,
0,0,0,0,0,0,0,0,0,0,0,0,0,0,0,0,
0,0,0,0,0,0,0,0,0,0,0,0,0,0,0,0,
0,0,0,0,0,0,0,0,0,0,0,0,0,0,0,0,
0,0,0,0,0,0,0,0,0,0,1163,0,0,0,0,0,
0,0,0,0,0,0,0,0,0,0,0,0,1155,1156,1157,1157,
0,0,0,0,0,0,0,0,0,0,0,0,0,0,0,0,
0,0,0,0,0,0,0,0,0,0,0,0,0,0,0,0,
0,0,0,0,0,0,0,0,0,0,0,0,0,0,0,0,
0,0,0,0,0,0,0,0,0,0,0,0,0,0,0,0,
0,0,0,0,0,0,0,0,0,0,0,0,0,0,0,0,
0,0,0,0,0,0,0,0,0,0,0,0,0,0,0,0,
0,0,0,0,0,0,0,0,0,0,0,0,0,0,0,0
</chunk>
   <chunk x="80" y="48" width="16" height="16">
0,0,0,0,0,0,0,0,0,0,0,0,0,0,0,0,
0,0,0,0,0,0,0,0,0,0,0,0,0,1162,1156,1155,
0,0,0,0,0,0,0,0,0,0,0,0,0,0,0,0,
0,0,0,0,0,0,0,0,0,0,0,0,0,0,0,0,
0,0,0,0,0,0,0,0,0,0,0,0,0,0,0,0,
0,0,0,0,0,0,0,0,0,0,0,0,0,0,0,0,
0,0,0,0,0,0,0,0,0,0,0,0,0,0,0,0,
0,0,0,0,0,0,0,0,0,0,1162,0,0,0,0,0,
1155,1156,1155,1156,1157,1157,1155,1156,1157,0,0,0,0,0,0,0,
0,0,0,0,0,0,0,0,0,0,0,0,0,0,0,0,
0,0,0,0,0,0,0,0,0,0,0,0,0,0,0,0,
0,0,0,0,0,0,0,0,0,0,0,0,0,0,0,0,
0,0,0,0,0,0,0,0,0,0,0,0,0,0,0,0,
0,0,0,0,0,0,0,0,0,0,0,0,0,0,0,0,
0,0,0,0,0,0,0,0,0,0,0,0,0,0,0,0,
0,0,0,0,0,0,0,0,0,0,0,0,0,0,0,0
</chunk>
   <chunk x="96" y="48" width="16" height="16">
0,0,0,0,0,0,0,0,0,0,0,0,0,0,0,0,
1156,1155,1156,1157,1156,1157,1156,1157,1156,1157,1155,1156,1157,1155,1155,1156,
0,0,0,0,0,0,0,0,0,0,0,0,0,0,0,0,
0,0,0,0,0,0,0,0,0,0,0,0,0,0,0,0,
0,0,0,0,0,0,0,0,0,0,0,0,0,0,0,0,
0,0,0,0,0,0,0,0,0,0,0,0,0,0,0,0,
0,0,0,0,0,0,0,0,0,0,0,0,0,0,0,0,
0,0,0,0,0,0,0,0,0,0,0,0,0,0,0,0,
0,0,0,0,0,0,0,0,0,0,0,0,0,0,0,0,
0,0,0,0,0,0,0,0,0,0,0,0,0,0,0,0,
0,0,0,0,0,0,0,0,0,0,0,0,0,0,0,0,
0,0,0,0,0,0,0,0,0,0,0,0,0,0,0,0,
0,0,0,0,0,0,0,0,0,0,0,0,0,0,0,0,
0,0,0,0,0,0,0,0,0,0,0,0,0,0,0,0,
0,0,0,0,0,0,0,0,0,0,0,0,0,0,0,0,
0,0,0,0,0,0,0,0,0,0,0,0,0,0,0,0
</chunk>
   <chunk x="112" y="48" width="16" height="16">
0,0,0,0,0,0,0,0,0,0,0,0,0,0,0,0,
1157,1156,1157,1155,1156,1157,1155,1156,1157,1157,1155,1155,1156,1157,1155,1156,
0,0,0,0,0,0,0,0,0,0,0,0,0,0,0,0,
0,0,0,0,0,0,0,0,0,0,0,0,0,0,0,0,
0,0,0,0,0,0,0,0,0,0,0,0,0,0,0,0,
0,0,0,0,0,0,0,0,0,0,0,0,0,0,0,0,
0,0,0,0,0,0,0,0,0,0,0,0,0,0,0,0,
0,0,0,0,0,0,0,0,0,0,0,0,0,0,0,0,
0,0,0,0,0,0,0,0,0,0,0,0,0,0,0,0,
0,0,0,0,0,0,0,0,0,0,0,0,0,0,0,0,
0,0,0,0,0,0,0,0,0,0,0,0,0,0,0,0,
0,0,0,0,0,0,0,0,0,0,0,0,0,0,0,0,
0,0,0,0,0,0,0,0,0,0,0,0,0,0,0,0,
0,0,0,0,0,0,0,0,0,0,0,0,0,0,0,0,
0,0,0,0,0,0,0,0,0,0,0,0,0,0,0,0,
0,0,0,0,0,0,0,0,0,0,0,0,0,0,0,0
</chunk>
   <chunk x="128" y="48" width="16" height="16">
0,0,0,1162,0,0,0,0,0,0,0,0,0,0,0,0,
1157,1157,0,0,0,0,0,0,0,0,0,0,0,0,0,0,
0,0,0,0,0,0,0,0,0,0,0,0,0,0,0,0,
0,0,0,0,0,0,0,0,0,0,0,0,0,0,0,0,
0,0,0,0,0,0,0,0,0,0,0,0,0,0,0,0,
0,0,0,0,0,0,0,0,0,0,0,0,0,0,0,0,
0,0,0,0,0,0,0,0,0,0,0,0,0,0,0,0,
0,0,0,0,0,0,0,0,0,0,0,0,0,0,0,0,
0,0,0,0,0,0,0,0,0,0,0,0,0,0,0,0,
0,0,0,0,0,0,0,0,0,0,0,0,0,0,0,0,
0,0,0,0,0,0,0,0,0,0,0,0,0,0,0,0,
0,0,0,0,0,0,0,0,0,0,0,0,0,0,0,0,
0,0,0,0,0,0,0,0,0,0,0,0,0,0,0,0,
0,0,0,0,0,0,0,0,0,0,0,0,0,0,0,0,
0,0,0,0,0,0,0,0,0,0,0,0,0,0,0,0,
0,0,0,0,0,0,0,0,0,0,0,0,0,0,0,0
</chunk>
   <chunk x="32" y="64" width="16" height="16">
0,0,0,0,0,0,0,0,0,0,0,0,0,0,0,0,
0,0,0,0,0,0,0,0,0,0,0,0,0,0,0,0,
0,0,0,0,0,0,0,0,0,0,0,0,0,0,0,0,
0,0,0,0,0,0,0,0,0,0,0,0,0,0,0,0,
0,0,0,0,0,0,0,1155,1156,1155,1156,1157,1156,1157,1155,1156,
0,0,0,0,0,0,0,0,0,0,0,0,0,0,0,0,
0,0,0,0,0,0,0,0,0,0,0,0,0,0,0,0,
0,0,0,0,0,0,0,0,0,0,0,0,0,0,0,0,
0,0,0,0,0,0,0,0,0,0,0,0,0,0,0,0,
0,0,0,0,0,0,0,0,0,0,0,0,0,0,0,0,
0,0,0,0,0,0,0,0,0,0,0,0,0,0,0,0,
0,0,0,0,0,0,0,0,0,0,0,0,0,0,0,0,
0,0,0,0,0,0,0,0,0,0,0,0,0,0,0,0,
0,0,0,0,0,0,0,0,0,0,0,0,0,0,0,0,
0,0,0,0,0,0,0,0,0,0,0,0,0,0,0,0,
0,0,0,0,0,0,0,0,0,0,0,0,0,0,0,0
</chunk>
   <chunk x="48" y="64" width="16" height="16">
0,0,0,0,0,0,0,0,0,0,0,0,0,0,0,0,
0,0,0,0,0,0,0,0,0,0,0,0,0,0,0,0,
0,0,0,0,0,0,0,0,0,0,0,0,0,0,0,0,
0,0,0,0,0,0,0,0,0,0,0,0,0,0,0,0,
1157,1155,1156,1157,1155,1156,1157,1156,1157,0,0,0,0,0,0,0,
0,0,0,0,0,0,0,0,0,0,0,0,0,0,0,0,
0,0,0,0,0,0,0,0,0,0,0,0,0,0,0,0,
0,0,0,0,0,0,0,0,0,0,0,0,1163,0,0,0,
0,0,0,0,0,0,0,0,0,0,0,0,0,0,1155,1156,
0,0,0,0,0,0,0,0,0,0,0,0,0,0,0,0,
0,0,0,0,0,0,0,0,0,0,0,0,0,0,0,0,
0,0,0,0,0,0,0,0,0,0,0,0,0,0,0,0,
0,0,0,0,0,0,0,0,0,0,0,0,0,0,0,0,
0,0,0,0,0,0,0,0,0,0,0,0,0,0,0,0,
0,0,0,0,0,0,0,0,0,0,0,0,0,0,0,0,
0,0,0,0,0,0,0,0,0,0,0,0,0,0,0,0
</chunk>
   <chunk x="64" y="64" width="16" height="16">
0,0,0,0,0,0,0,0,0,0,0,0,0,0,0,0,
0,0,0,0,0,0,0,0,0,0,0,0,0,0,0,0,
0,0,0,0,0,0,0,0,0,0,0,0,0,0,0,0,
0,0,0,0,0,0,0,0,0,0,0,0,0,0,0,0,
0,0,0,0,0,0,0,0,0,0,0,0,0,0,0,0,
0,0,0,0,0,0,0,0,0,0,0,0,0,0,0,0,
0,0,0,0,0,0,0,0,0,0,0,0,0,0,0,0,
0,0,0,0,0,0,0,0,0,0,0,0,0,0,0,0,
1155,1155,1156,1157,1155,1156,1157,1155,1155,1156,1157,1155,1156,1157,1155,1155,
0,0,0,0,0,0,0,0,0,0,0,0,0,0,0,0,
0,0,0,0,0,0,0,0,0,0,0,0,0,0,0,0,
0,0,0,0,0,0,0,0,0,0,0,0,0,0,0,0,
0,0,0,0,0,0,0,0,0,0,0,0,0,0,0,0,
0,0,0,0,0,0,0,0,0,0,0,0,0,0,0,0,
0,0,0,0,0,0,0,0,0,0,0,0,0,0,0,0,
0,0,0,0,0,0,0,0,0,0,0,0,0,0,0,0
</chunk>
   <chunk x="80" y="64" width="16" height="16">
0,0,0,0,0,0,0,0,0,0,0,0,0,0,0,0,
0,0,0,0,0,0,0,0,0,0,0,0,0,0,0,0,
0,0,0,0,0,0,0,1154,1155,1156,1157,1158,0,0,0,0,
0,0,0,0,0,0,0,0,0,0,0,0,0,0,0,0,
0,0,0,0,0,0,0,0,0,0,0,0,0,0,0,0,
0,0,0,0,0,0,0,0,0,0,0,0,0,0,0,0,
0,0,0,0,0,0,0,0,0,0,0,0,0,0,0,0,
0,0,0,0,0,0,0,0,0,0,0,0,0,0,0,0,
1156,1157,1155,1156,1157,1156,1157,0,0,0,0,0,0,0,0,0,
0,0,0,0,0,0,0,0,0,0,0,0,0,0,0,0,
0,0,0,0,0,0,0,0,0,0,0,0,0,0,0,0,
0,0,0,0,0,0,0,0,0,0,0,0,0,0,0,0,
0,0,0,0,0,0,0,0,0,0,0,0,0,0,0,0,
0,0,0,0,0,0,0,0,0,0,0,0,0,0,0,0,
0,0,0,0,0,0,0,0,0,0,0,0,0,0,0,0,
0,0,0,0,0,0,0,0,0,0,0,0,0,0,0,0
</chunk>
  </data>
 </layer>
 <layer id="13" name="foreground" width="64" height="32">
  <data encoding="csv"/>
 </layer>
 <layer id="2" name="collision" width="64" height="32">
  <data encoding="csv">
   <chunk x="0" y="0" width="16" height="16">
71,71,71,71,71,71,71,71,71,71,71,71,71,71,71,71,
71,71,71,71,71,71,71,71,71,71,71,59,80,80,80,80,
71,71,71,71,71,71,71,71,71,71,71,72,0,0,0,0,
71,71,71,71,71,71,71,71,71,71,71,72,0,0,0,0,
71,71,71,71,71,71,71,71,71,71,71,72,0,0,0,0,
71,71,71,71,71,71,71,71,71,71,71,72,0,0,0,0,
71,71,71,71,71,71,71,71,71,71,71,72,0,0,0,0,
71,71,71,71,71,71,71,71,71,71,59,18,0,0,0,0,
71,71,71,71,71,71,71,71,71,59,18,0,0,0,0,0,
71,71,71,71,71,71,71,71,59,18,0,0,0,0,0,0,
71,71,71,71,71,71,71,71,72,0,0,0,0,0,0,0,
71,71,71,71,71,71,71,71,72,0,0,0,0,0,0,0,
71,71,71,71,71,71,71,71,72,0,0,0,0,0,0,0,
71,71,71,71,71,71,71,71,72,0,0,0,0,0,0,0,
71,71,71,71,71,71,71,71,72,0,0,0,0,0,0,0,
71,71,71,71,71,71,71,71,72,0,0,0,0,0,0,0
</chunk>
   <chunk x="16" y="0" width="16" height="16">
71,71,71,71,71,71,71,71,71,71,71,71,71,71,71,71,
60,71,71,71,71,71,71,71,71,71,71,59,80,80,80,60,
70,71,71,71,71,71,71,71,71,71,71,72,0,0,0,70,
70,71,71,71,71,71,71,71,71,71,71,72,0,0,0,70,
70,71,71,71,71,71,71,71,71,71,71,72,0,0,0,70,
70,71,71,71,71,71,71,71,71,71,71,72,0,0,0,70,
70,71,71,71,71,71,71,71,71,71,71,72,0,0,0,79,
27,60,71,71,71,71,71,71,71,71,71,72,0,0,0,0,
0,27,60,71,71,71,71,71,71,71,71,72,0,0,0,0,
0,0,27,60,71,71,71,71,71,71,71,72,0,0,0,0,
0,0,0,70,71,71,71,71,71,71,71,72,0,0,0,0,
0,0,0,27,80,80,60,71,71,71,71,68,62,62,62,62,
0,0,0,0,0,0,82,83,60,71,71,71,71,71,71,71,
0,0,0,0,0,0,0,0,82,83,60,71,71,71,71,71,
0,0,0,0,0,0,0,0,0,0,82,83,60,71,71,71,
0,0,0,0,0,0,0,0,0,0,0,0,82,83,60,71
</chunk>
   <chunk x="32" y="0" width="16" height="16">
71,71,71,71,71,71,71,71,71,71,71,71,71,71,71,71,
71,71,71,71,71,71,71,71,71,71,71,71,71,71,71,71,
71,71,71,71,71,71,71,71,71,71,71,71,71,71,71,71,
71,71,71,71,71,71,71,71,71,71,71,71,71,71,71,71,
71,71,71,71,71,71,71,59,80,80,80,80,80,60,71,71,
71,71,71,71,71,59,80,18,0,0,0,0,0,82,83,80,
80,80,80,80,80,18,0,0,0,0,0,0,0,0,0,0,
0,0,0,0,0,0,0,0,0,0,0,0,0,0,0,0,
0,0,0,0,0,0,0,0,0,0,0,0,0,0,0,0,
0,0,0,0,0,0,0,0,0,0,0,0,0,0,0,0,
0,0,0,0,0,0,0,0,0,0,0,0,0,0,0,0,
62,62,62,62,62,62,62,62,62,62,62,62,62,62,62,62,
71,71,71,71,71,71,71,71,71,71,71,71,71,71,71,71,
71,71,71,71,71,71,71,71,71,71,71,71,71,71,71,71,
71,71,71,71,71,71,71,71,71,71,71,71,71,71,71,71,
71,71,71,71,71,71,71,71,71,71,71,71,71,71,71,71
</chunk>
   <chunk x="48" y="0" width="16" height="16">
71,71,71,71,71,71,71,71,71,71,71,71,71,71,71,71,
71,71,71,71,71,71,71,71,71,71,71,71,71,71,71,71,
71,71,71,71,71,71,71,71,71,71,71,71,71,71,71,71,
71,71,71,71,71,71,71,71,71,71,71,71,71,71,71,71,
71,71,71,71,71,71,71,71,71,71,71,71,71,71,71,71,
80,80,80,80,60,71,71,71,71,71,71,71,71,71,71,71,
0,0,0,0,27,60,71,71,71,71,71,71,71,71,71,71,
0,0,0,0,0,27,80,80,80,80,80,80,80,80,80,80,
0,0,0,0,0,0,0,0,0,0,0,0,0,0,0,0,
0,0,0,0,0,0,0,0,0,0,0,0,0,0,0,0,
0,0,0,0,0,0,0,0,0,0,0,0,0,0,0,0,
62,62,62,62,62,62,62,62,62,62,62,62,62,62,62,62,
71,71,71,71,71,71,71,71,71,71,71,71,71,71,71,71,
71,71,71,71,71,71,71,71,71,71,71,71,71,71,71,71,
71,71,71,71,71,71,71,71,71,71,71,71,71,71,71,71,
71,71,71,71,71,71,71,71,71,71,71,71,71,71,71,71
</chunk>
   <chunk x="64" y="0" width="16" height="16">
71,71,71,71,71,71,71,71,71,71,71,71,71,71,71,71,
71,71,71,71,71,71,71,71,71,71,71,71,71,71,71,71,
71,71,71,71,71,71,71,71,71,71,71,71,71,71,71,71,
71,71,71,71,71,71,71,71,71,71,71,71,71,71,71,71,
71,71,71,71,71,71,71,71,71,71,71,71,71,71,71,71,
71,71,71,71,71,71,71,71,71,71,71,71,71,71,71,71,
71,71,71,71,71,71,71,71,71,71,71,71,71,71,71,71,
80,80,80,80,80,80,80,80,80,80,80,80,80,80,80,80,
0,0,0,0,0,0,0,0,0,0,0,0,0,0,0,0,
0,0,0,0,0,0,0,0,0,0,0,0,0,0,0,0,
0,0,0,0,0,0,0,0,0,0,0,0,0,0,0,0,
62,62,62,62,62,62,62,62,62,62,62,62,62,62,62,62,
71,71,71,71,71,71,71,71,71,71,71,71,71,71,71,71,
71,71,71,71,71,71,71,71,71,71,71,71,71,71,71,71,
71,71,71,71,71,71,71,71,71,71,71,71,71,71,71,71,
71,71,71,71,71,71,71,71,71,71,71,71,71,71,71,71
</chunk>
   <chunk x="80" y="0" width="16" height="16">
71,71,71,71,71,71,71,71,71,71,71,71,71,71,71,71,
71,71,71,71,71,71,71,71,71,71,71,71,71,71,71,71,
71,71,71,71,71,71,71,71,71,71,71,71,71,71,71,71,
71,71,71,71,71,71,71,71,71,71,71,71,71,71,71,71,
71,71,71,71,71,71,71,71,71,71,71,71,71,71,71,71,
71,71,71,71,71,71,71,71,71,71,71,71,71,71,71,71,
71,71,71,71,71,71,71,71,71,71,71,71,71,71,71,71,
80,80,80,60,71,71,71,71,71,71,71,71,71,71,71,71,
0,0,0,70,71,71,71,71,71,71,71,71,71,71,71,71,
0,0,0,70,71,71,71,71,71,71,71,71,71,71,71,71,
0,0,0,70,71,71,71,71,71,71,71,71,71,71,71,71,
63,0,0,70,71,71,71,71,71,71,71,71,71,71,71,71,
72,0,0,70,71,71,71,71,71,71,71,71,71,71,71,71,
72,0,0,70,71,71,71,71,71,71,71,71,71,71,71,71,
72,0,0,79,80,80,60,71,71,71,71,71,71,71,71,71,
72,0,0,0,0,0,27,60,71,71,71,71,71,71,71,71
</chunk>
   <chunk x="96" y="0" width="16" height="16">
71,71,71,71,71,71,71,71,71,71,71,71,71,71,71,71,
71,71,71,71,71,71,71,71,71,71,71,71,71,71,71,71,
71,71,71,71,71,71,71,71,71,71,71,71,71,71,71,71,
71,71,71,71,71,71,71,71,71,71,71,71,71,71,71,71,
71,71,71,71,71,71,71,71,71,71,71,71,71,71,71,71,
71,71,71,71,71,71,71,71,71,71,71,71,71,71,71,71,
71,71,71,71,71,71,71,71,71,71,71,71,71,71,71,71,
71,71,71,71,71,71,71,71,71,71,71,71,71,71,71,71,
71,71,71,71,71,71,71,71,71,71,71,71,71,71,71,71,
71,71,71,71,71,71,71,71,71,71,71,71,71,71,71,71,
71,71,71,71,71,71,71,71,71,71,71,71,71,71,71,71,
71,71,71,71,71,71,71,71,71,71,71,71,71,71,71,71,
71,71,71,71,71,71,71,71,71,71,71,71,71,71,71,71,
71,71,71,71,71,71,71,71,71,71,71,71,71,71,71,71,
71,71,71,71,71,71,71,71,71,71,71,71,71,71,71,71,
71,71,71,71,71,71,71,71,71,71,71,71,71,71,71,71
</chunk>
   <chunk x="112" y="0" width="16" height="16">
71,71,71,71,71,71,71,71,71,71,71,71,71,71,71,71,
71,71,71,71,71,71,71,71,71,71,71,71,71,71,71,71,
71,71,71,71,71,71,71,71,71,71,71,71,71,71,71,71,
71,71,71,71,71,71,71,71,71,71,71,71,71,71,71,71,
71,71,71,71,71,71,71,71,71,71,71,71,71,71,71,71,
71,71,71,71,71,71,71,71,71,71,71,71,71,71,71,71,
71,71,71,71,71,71,71,71,71,71,71,71,71,71,71,71,
71,71,71,71,71,71,71,71,71,71,71,71,71,71,71,71,
71,71,71,71,71,71,71,71,71,71,71,71,71,71,71,71,
71,71,71,71,71,71,71,71,71,71,71,71,71,71,71,71,
71,71,71,71,71,71,71,71,71,71,71,71,71,71,71,71,
71,71,71,71,71,71,71,71,71,71,71,71,71,71,71,71,
71,71,71,71,71,71,71,71,71,71,71,71,71,71,71,71,
71,71,71,71,71,71,71,71,71,71,71,71,71,71,71,71,
71,71,71,71,71,71,71,71,71,71,71,71,71,71,71,71,
71,71,71,71,71,71,71,71,71,71,71,71,71,71,71,71
</chunk>
   <chunk x="128" y="0" width="16" height="16">
71,71,71,71,71,71,71,71,71,71,71,71,71,71,71,71,
71,71,71,71,71,71,71,71,71,71,71,71,71,71,71,71,
71,71,71,71,71,71,71,71,71,71,71,71,71,71,71,71,
71,71,71,71,71,71,71,71,71,71,71,71,71,71,71,71,
71,71,71,71,71,71,71,71,71,71,71,71,71,71,71,71,
71,71,71,71,71,71,71,71,71,71,71,71,71,71,71,71,
71,71,71,71,71,71,71,71,71,71,71,71,71,71,71,71,
71,71,71,71,71,71,71,71,71,71,71,71,71,71,71,71,
71,71,71,71,71,71,71,71,71,71,71,71,71,71,71,71,
71,71,71,71,71,71,71,71,71,71,71,71,71,71,71,71,
71,71,71,71,71,71,71,71,71,71,71,71,71,71,71,71,
71,71,71,71,71,71,71,71,71,71,71,71,71,71,71,71,
71,71,71,71,71,71,71,71,71,71,71,71,71,71,71,71,
71,71,71,71,71,71,71,71,71,71,71,71,71,71,71,71,
71,71,71,71,71,71,71,71,71,71,71,71,71,71,71,71,
71,71,71,71,71,71,71,71,71,71,71,71,71,71,71,71
</chunk>
   <chunk x="0" y="16" width="16" height="16">
71,71,71,71,71,71,71,71,68,62,62,62,62,62,62,62,
71,71,71,71,71,71,71,71,71,71,71,71,71,71,71,71,
71,71,71,71,71,71,71,71,71,71,71,71,71,71,71,71,
71,71,71,71,71,71,71,71,71,71,71,71,71,71,71,71,
71,71,71,71,71,71,71,71,71,71,71,71,71,71,71,71,
71,71,71,71,71,71,71,71,71,71,71,71,71,71,71,71,
71,71,71,71,71,71,71,71,71,71,71,71,71,71,71,71,
71,71,71,71,71,71,71,71,71,71,71,71,71,71,71,71,
71,71,71,71,71,71,71,71,71,71,71,71,71,71,71,71,
71,71,71,71,71,71,71,71,71,71,71,71,71,71,71,71,
71,71,71,71,71,71,71,71,71,71,71,71,71,71,71,71,
71,71,71,71,71,71,71,71,71,71,71,71,71,71,71,71,
71,71,71,71,71,71,71,71,71,71,71,71,71,71,71,71,
71,71,71,71,71,71,71,71,71,71,71,71,71,71,71,71,
71,71,71,71,71,71,71,71,71,71,71,71,71,71,71,71,
71,71,71,71,71,71,71,71,71,71,71,71,71,71,71,71
</chunk>
   <chunk x="16" y="16" width="16" height="16">
62,62,62,62,14,15,0,0,0,0,0,0,0,0,82,83,
71,71,71,71,71,68,14,15,0,0,0,0,0,0,0,0,
71,71,71,71,71,71,71,68,14,15,0,0,0,0,0,0,
71,71,71,71,71,71,71,71,71,68,14,15,0,0,0,0,
71,71,71,71,71,71,71,71,71,71,71,68,14,15,0,0,
71,71,71,71,71,71,71,71,71,71,71,71,71,68,14,15,
71,71,71,71,71,71,71,71,71,71,71,71,71,71,71,68,
71,71,71,71,71,71,71,71,71,71,71,71,71,71,71,71,
71,71,71,71,71,71,71,71,71,71,71,71,71,71,71,71,
71,71,71,71,71,71,71,71,71,71,71,71,71,71,71,71,
71,71,71,71,71,71,71,71,71,71,71,71,71,71,71,71,
71,71,71,71,71,71,71,71,71,71,71,71,71,71,71,71,
71,71,71,71,71,71,71,71,71,71,71,71,71,71,71,71,
71,71,71,71,71,71,71,71,71,71,71,71,71,71,71,71,
71,71,71,71,71,71,71,71,71,71,71,71,71,71,71,71,
71,71,71,71,71,71,71,71,71,71,71,71,71,71,71,71
</chunk>
   <chunk x="32" y="16" width="16" height="16">
80,80,80,80,80,80,80,80,80,80,80,80,80,80,80,80,
0,0,0,0,0,0,0,0,0,0,0,0,0,0,0,0,
0,0,0,0,0,0,0,0,0,0,0,0,0,0,0,0,
0,0,0,0,0,0,0,0,0,0,0,0,0,0,0,0,
0,0,0,0,0,0,0,0,0,0,0,0,0,0,0,0,
0,0,0,0,0,0,0,0,0,0,0,0,0,0,0,0,
62,62,62,62,62,62,62,62,62,62,62,62,62,62,62,62,
71,71,71,71,71,71,71,71,71,71,71,71,71,71,71,71,
71,71,71,71,71,71,71,71,71,71,71,71,71,71,71,71,
71,71,59,80,80,80,80,80,80,80,80,80,80,80,80,80,
71,71,72,0,0,0,0,0,0,0,0,0,0,0,0,0,
71,71,72,0,0,0,0,0,0,0,0,0,0,0,0,0,
71,71,72,0,0,0,0,0,0,0,0,0,0,0,0,0,
71,71,72,0,0,0,0,0,0,0,0,0,0,0,0,0,
71,71,72,0,0,0,0,0,0,0,0,0,0,0,0,0,
71,71,72,0,0,0,0,61,62,62,62,63,0,0,0,0
</chunk>
   <chunk x="48" y="16" width="16" height="16">
80,80,80,80,80,80,80,80,80,80,80,80,80,80,80,80,
0,0,0,0,0,0,0,0,0,0,0,0,0,0,0,0,
0,0,0,0,0,0,0,0,0,0,0,0,0,0,0,0,
0,0,0,0,0,0,0,0,0,0,0,0,0,0,0,0,
0,0,0,0,0,0,0,0,0,0,0,0,0,0,0,0,
0,0,0,0,0,0,0,0,0,0,0,0,0,0,0,0,
62,62,62,62,62,62,62,62,62,62,62,62,62,63,25,25,
71,71,71,71,71,71,71,71,71,71,71,71,71,72,0,0,
71,71,71,71,71,71,71,71,71,71,71,71,71,72,0,0,
80,80,80,80,80,80,80,80,80,80,80,80,80,81,0,0,
0,0,0,0,0,0,0,0,0,0,0,0,0,0,0,0,
0,0,0,0,0,0,0,0,0,0,0,0,0,0,0,0,
0,0,0,0,0,0,0,0,0,0,0,0,0,0,0,0,
0,0,0,0,0,0,0,0,0,0,0,0,0,0,0,0,
0,0,0,0,0,0,0,0,0,0,0,0,0,0,0,0,
0,0,0,0,0,0,0,0,0,0,0,0,0,0,0,0
</chunk>
   <chunk x="64" y="16" width="16" height="16">
80,80,80,80,80,80,80,80,80,60,71,71,71,71,71,71,
0,0,0,0,0,0,0,0,0,70,71,71,71,71,71,71,
0,0,0,0,0,0,0,0,0,70,71,71,71,71,71,71,
0,0,0,0,0,0,0,0,0,70,71,71,71,71,71,71,
0,0,0,0,0,0,0,0,0,70,71,71,71,71,71,71,
0,0,0,0,0,0,0,0,0,70,71,71,71,71,71,71,
25,25,25,0,0,0,0,0,0,70,71,71,71,71,71,71,
0,0,0,0,0,0,0,0,0,70,71,71,71,71,71,71,
0,0,0,0,0,0,0,0,0,70,71,71,71,71,71,71,
0,0,0,0,0,0,0,0,0,70,71,71,71,71,71,71,
0,0,0,0,0,0,0,0,0,70,71,71,71,71,71,71,
0,0,0,0,0,0,0,0,0,70,71,71,71,71,71,71,
0,0,0,0,0,0,0,0,0,70,71,71,71,71,71,71,
0,0,0,0,0,0,0,0,0,70,71,71,71,71,71,71,
0,0,0,0,0,0,0,0,0,70,71,71,71,71,71,71,
10,62,62,62,62,62,62,62,62,69,71,71,71,71,71,71
</chunk>
   <chunk x="80" y="16" width="16" height="16">
72,0,0,0,0,0,0,27,60,71,71,71,71,71,71,71,
72,0,0,0,0,0,0,0,27,60,71,71,71,71,71,71,
72,0,0,0,0,0,0,0,0,27,60,71,71,71,71,71,
72,0,0,0,0,0,0,0,0,0,82,83,60,71,71,71,
72,0,0,0,0,0,0,0,0,0,0,0,82,83,80,80,
68,62,62,62,11,0,0,0,0,0,0,0,0,0,0,0,
71,71,71,71,68,11,0,0,0,0,0,0,0,0,0,0,
71,71,71,71,71,68,14,15,0,0,0,0,0,0,0,0,
71,71,71,71,71,71,71,68,14,15,0,0,0,0,0,0,
71,71,71,71,71,71,71,71,71,68,14,15,0,0,0,0,
71,71,71,71,71,71,71,71,71,71,71,68,62,62,62,63,
71,71,71,71,71,71,71,71,71,71,71,71,71,71,71,72,
71,71,71,71,71,71,71,71,71,71,71,71,71,71,71,72,
71,71,71,71,71,71,71,71,71,71,71,71,71,71,71,72,
71,71,71,71,71,71,71,71,71,71,71,71,71,71,71,72,
71,71,71,71,71,71,71,71,71,71,71,71,71,71,71,72
</chunk>
   <chunk x="96" y="16" width="16" height="16">
71,71,71,71,71,71,71,71,71,71,71,71,71,71,71,71,
71,71,71,71,71,71,71,71,71,71,71,71,71,71,71,71,
71,71,71,71,71,71,71,71,71,71,71,71,71,71,71,71,
71,71,71,71,71,71,71,71,71,71,71,71,71,71,71,71,
80,80,80,80,80,80,80,80,80,80,80,80,80,80,80,80,
0,0,0,0,0,0,0,0,0,0,0,0,0,0,0,0,
0,0,0,0,0,0,0,0,0,0,0,0,0,0,0,0,
0,0,0,0,0,0,0,0,0,0,0,0,0,0,0,0,
0,0,0,0,0,0,0,0,0,0,0,0,0,0,0,0,
0,0,0,0,0,0,0,0,0,0,0,0,0,0,0,0,
0,0,0,25,61,62,62,62,62,62,62,62,62,62,62,62,
0,0,0,0,70,71,71,71,71,71,71,71,71,71,71,71,
0,0,0,0,70,71,71,71,71,71,71,71,71,71,71,71,
0,0,0,0,70,71,71,71,71,71,71,71,71,71,71,71,
0,0,0,0,70,71,71,71,71,71,71,71,71,71,71,71,
0,0,0,0,70,71,71,71,71,71,71,71,71,71,71,71
</chunk>
   <chunk x="112" y="16" width="16" height="16">
71,71,71,71,71,71,71,71,71,71,71,71,71,71,71,71,
71,71,71,71,71,71,71,71,71,71,71,71,71,71,71,71,
71,71,71,71,71,71,71,71,71,71,71,71,71,71,71,71,
71,71,71,71,71,71,71,71,71,71,71,71,71,71,71,71,
80,80,80,80,80,80,80,80,80,80,80,80,80,80,80,80,
0,0,0,0,0,0,0,0,0,0,0,0,0,0,0,0,
0,0,0,0,0,0,0,0,0,0,0,0,0,0,0,0,
0,0,0,0,0,0,0,0,0,0,0,0,0,0,0,0,
0,0,0,0,0,0,0,0,0,0,0,0,0,0,0,0,
0,0,0,0,0,0,0,0,0,0,0,0,0,0,0,0,
62,62,62,62,62,62,62,62,62,11,0,0,0,0,0,0,
71,71,71,71,71,71,71,71,71,68,14,15,0,0,0,0,
71,71,71,71,71,71,71,71,71,71,71,68,14,15,0,0,
71,71,71,71,71,71,71,71,71,71,71,71,71,72,0,0,
71,71,71,71,71,71,71,71,71,71,71,71,71,72,0,0,
71,71,71,71,71,71,71,71,71,71,71,71,71,72,0,0
</chunk>
   <chunk x="128" y="16" width="16" height="16">
71,71,71,71,71,71,71,71,71,71,71,71,71,71,71,71,
71,71,71,71,71,71,71,71,71,71,71,71,71,71,71,71,
71,71,71,71,71,71,71,71,71,71,71,71,71,71,71,71,
71,71,71,71,71,71,71,71,71,71,71,71,71,71,71,71,
80,60,71,71,71,71,71,71,71,71,71,71,71,71,71,71,
0,27,60,71,71,71,71,71,71,71,71,71,71,71,71,71,
0,0,27,60,71,71,71,71,71,71,71,71,71,71,71,71,
0,0,0,27,60,71,71,71,71,71,71,71,71,71,71,71,
0,0,0,0,70,71,71,71,71,71,71,71,71,71,71,71,
0,0,0,0,70,71,71,71,71,71,71,71,71,71,71,71,
0,0,0,0,70,71,71,71,71,71,71,71,71,71,71,71,
0,0,0,0,70,71,71,71,71,71,71,71,71,71,71,71,
0,0,0,0,70,71,71,71,71,71,71,71,71,71,71,71,
0,0,0,0,70,71,71,71,71,71,71,71,71,71,71,71,
0,0,0,0,70,71,71,71,71,71,71,71,71,71,71,71,
0,0,0,0,70,71,71,71,71,71,71,71,71,71,71,71
</chunk>
   <chunk x="0" y="32" width="16" height="16">
71,71,71,71,71,71,71,71,59,80,60,71,71,71,71,71,
71,71,71,71,71,71,71,59,18,0,27,60,71,71,71,71,
71,71,71,71,71,71,59,18,0,0,0,82,83,60,71,71,
71,71,71,71,71,71,72,0,0,0,0,0,0,27,60,71,
71,71,71,71,59,80,18,0,0,0,0,0,0,0,82,83,
71,71,71,59,18,0,0,0,0,0,0,0,0,0,0,0,
71,71,71,72,0,0,0,0,0,0,0,0,0,0,0,0,
71,71,59,18,0,0,0,0,0,0,0,0,0,0,0,0,
71,71,72,0,0,0,0,0,0,0,0,0,0,0,0,0,
71,71,72,0,0,0,0,0,0,0,0,0,0,0,0,0,
71,71,72,0,0,0,0,0,0,0,0,0,0,0,0,0,
71,71,72,0,0,0,0,0,0,0,0,0,25,25,25,25,
71,71,72,0,0,0,0,0,0,0,0,0,0,0,0,0,
71,71,72,0,0,0,0,0,0,0,0,0,0,0,0,0,
71,71,72,0,0,0,0,0,0,0,0,0,0,0,0,0,
71,71,72,0,0,0,0,0,0,0,0,0,0,0,0,0
</chunk>
   <chunk x="16" y="32" width="16" height="16">
71,71,71,71,71,71,71,71,71,71,71,71,71,71,71,71,
71,71,71,71,71,71,71,71,71,71,71,71,71,71,71,71,
71,71,71,71,71,71,71,71,71,71,71,71,71,71,71,71,
71,71,71,71,71,71,71,71,71,71,71,71,71,71,71,71,
60,71,71,71,71,71,71,71,71,71,71,71,71,71,71,71,
79,80,80,80,80,80,80,80,80,80,60,71,71,71,71,71,
0,0,0,0,0,0,0,0,0,0,70,71,71,71,71,71,
0,0,0,0,0,0,0,0,0,0,70,71,71,71,71,71,
0,0,0,0,0,0,0,0,0,0,70,71,71,71,71,71,
0,0,0,0,0,0,0,0,0,0,70,71,71,71,71,71,
0,0,0,0,0,0,0,0,0,0,70,71,71,71,71,71,
61,62,62,62,62,63,0,0,0,0,79,80,80,80,80,80,
70,71,71,71,71,72,0,0,0,0,0,0,0,0,0,0,
70,71,71,71,71,72,0,0,0,0,0,0,0,0,0,0,
70,71,71,71,71,72,0,0,0,0,0,0,0,0,0,0,
70,71,71,71,71,72,0,0,0,0,0,0,0,0,0,0
</chunk>
   <chunk x="32" y="32" width="16" height="16">
71,71,72,0,0,0,0,70,71,71,71,72,0,0,0,0,
71,71,72,0,0,0,0,79,80,80,80,81,0,0,0,0,
71,71,72,0,0,0,0,0,0,0,0,0,0,0,0,0,
71,71,72,0,0,0,0,0,0,0,0,0,0,0,0,0,
71,71,72,0,0,0,0,0,0,0,0,0,0,0,0,0,
71,71,72,0,0,0,0,0,0,0,0,0,0,0,0,0,
71,71,68,62,62,63,0,0,0,0,0,0,61,62,62,62,
71,71,71,71,71,72,0,0,0,0,0,0,70,71,71,71,
71,71,71,71,71,72,0,0,0,0,0,0,70,71,71,71,
71,71,71,71,71,72,0,0,0,0,0,0,70,71,71,71,
71,71,71,71,71,72,0,0,0,0,0,0,70,71,71,71,
80,80,80,80,80,81,0,0,0,0,0,0,79,80,80,80,
0,0,0,0,0,0,0,0,0,0,0,0,0,0,0,0,
0,0,0,0,0,0,0,0,0,0,0,0,0,0,0,0,
0,0,0,0,0,0,0,0,0,0,0,0,0,0,0,0,
0,0,0,0,0,0,0,0,0,0,0,0,0,0,0,0
</chunk>
   <chunk x="48" y="32" width="16" height="16">
0,0,0,0,0,0,0,0,0,0,0,0,0,0,0,0,
0,0,0,0,0,0,0,0,0,0,0,0,0,0,0,0,
0,0,0,0,0,0,0,0,0,0,12,13,62,62,62,62,
0,0,0,0,0,0,0,0,0,0,70,71,71,71,71,71,
0,0,0,0,0,0,0,0,0,0,70,71,71,71,71,71,
0,0,0,0,0,0,0,0,0,10,69,71,71,71,71,71,
62,62,62,62,62,62,62,62,62,69,71,71,71,71,71,71,
71,71,71,71,71,71,71,71,71,71,71,71,71,71,71,71,
71,71,71,71,71,71,71,71,71,71,71,71,71,71,71,59,
71,71,71,71,71,71,71,71,71,71,71,71,71,71,71,72,
71,71,71,71,71,71,71,71,71,71,71,71,71,71,71,72,
80,80,80,80,80,80,60,71,71,71,71,71,71,71,71,72,
0,0,0,0,0,0,70,71,71,71,71,71,71,71,71,72,
0,0,0,0,0,0,79,80,80,80,80,80,80,80,80,18,
0,0,0,0,0,0,0,0,0,0,0,0,0,0,0,0,
0,0,0,0,0,0,0,0,0,0,0,0,0,0,0,0
</chunk>
   <chunk x="64" y="32" width="16" height="16">
70,71,71,71,71,71,71,71,71,71,71,71,71,71,71,71,
70,71,71,71,71,71,71,71,71,71,71,71,71,71,71,71,
69,71,71,71,71,71,71,71,71,71,71,71,71,71,71,71,
71,71,71,71,71,71,71,71,71,71,71,71,71,71,71,71,
71,71,71,71,71,71,71,71,71,71,71,71,71,71,71,71,
71,71,71,71,71,71,71,71,71,71,71,71,71,71,71,71,
71,71,59,80,80,80,80,80,80,80,80,80,60,71,71,71,
59,84,85,0,0,0,0,0,0,0,0,0,27,60,71,71,
18,0,0,0,0,0,0,0,0,0,0,0,0,70,71,71,
0,0,0,0,0,0,0,0,0,0,0,0,0,70,71,71,
0,0,0,0,0,0,0,0,0,0,0,0,0,70,71,71,
0,0,0,0,0,0,0,0,0,0,0,0,0,70,71,71,
0,0,0,0,0,0,0,0,0,0,0,0,0,27,60,71,
0,0,0,0,10,62,62,62,11,0,0,0,0,0,82,83,
0,0,0,0,70,71,71,71,72,0,0,0,0,0,0,0,
0,0,0,0,70,71,71,71,72,0,0,0,0,0,0,0
</chunk>
   <chunk x="80" y="32" width="16" height="16">
71,71,71,71,71,71,71,71,71,71,71,71,71,71,71,72,
71,71,71,71,71,71,71,71,71,71,71,71,71,71,71,72,
71,71,71,71,71,71,71,71,71,71,71,71,71,71,71,72,
71,71,71,71,71,71,71,71,71,71,71,71,71,71,71,72,
71,71,71,71,71,71,71,71,71,71,71,71,71,71,71,72,
71,71,71,71,71,71,71,71,71,71,71,71,71,71,71,72,
71,71,71,71,71,71,71,71,71,71,71,71,71,71,71,72,
71,71,71,71,71,71,71,71,71,71,71,71,71,71,71,72,
71,71,71,71,71,71,71,71,71,71,71,71,71,71,71,72,
71,71,71,71,71,71,71,71,71,71,71,71,71,71,71,72,
71,71,71,71,71,71,71,71,71,71,71,71,71,71,71,72,
71,71,71,71,71,71,71,71,71,71,71,71,71,71,71,72,
71,71,71,71,71,71,71,71,71,59,80,80,80,80,80,18,
60,71,71,71,71,71,71,59,80,81,0,0,0,0,0,0,
27,60,71,71,71,71,59,18,0,0,0,0,0,0,0,0,
0,27,80,80,80,80,81,0,0,0,0,0,0,0,0,0
</chunk>
   <chunk x="96" y="32" width="16" height="16">
0,0,0,0,70,71,71,71,71,71,71,71,71,71,71,71,
0,0,0,0,70,71,71,71,71,71,71,71,71,71,71,71,
0,0,0,0,70,71,71,71,71,71,71,71,71,71,71,71,
0,0,0,0,70,71,71,71,71,71,71,71,71,71,71,71,
25,25,0,0,70,71,71,71,71,71,71,71,71,71,71,71,
0,0,0,0,70,71,71,71,71,71,71,71,71,71,71,71,
0,0,0,0,70,71,71,71,71,71,71,71,71,71,71,71,
0,0,0,0,70,71,71,71,71,71,71,71,71,71,71,71,
0,0,0,0,70,71,71,71,71,71,71,71,71,71,71,71,
0,0,0,0,70,71,71,71,71,71,71,71,71,71,71,71,
0,0,0,0,70,71,71,71,71,71,71,71,71,71,71,71,
0,0,0,0,27,80,80,80,80,80,80,80,80,80,80,80,
0,0,0,0,0,0,0,0,0,0,0,0,0,0,0,0,
0,0,0,0,0,0,0,0,0,0,0,0,0,0,0,0,
0,0,0,0,0,0,0,0,0,0,0,0,0,0,0,0,
0,0,0,0,0,0,0,0,0,0,0,0,0,0,0,0
</chunk>
   <chunk x="112" y="32" width="16" height="16">
71,71,71,71,71,71,71,71,71,71,71,71,71,72,0,0,
71,71,71,71,71,71,71,71,71,71,71,71,71,72,0,0,
71,71,71,71,71,71,71,71,71,71,71,71,71,72,0,0,
71,71,71,71,71,71,71,71,71,71,71,71,71,72,0,0,
71,71,71,71,71,71,71,71,71,71,71,71,71,72,0,0,
71,71,71,71,71,71,71,71,71,71,71,71,71,72,0,0,
71,71,71,71,71,71,71,71,71,71,71,71,71,72,0,0,
71,71,71,71,71,71,71,71,71,71,71,71,71,72,0,0,
71,71,71,71,71,71,71,71,71,71,71,71,71,72,0,0,
71,71,71,71,71,71,71,71,71,71,71,71,71,72,0,0,
71,71,71,71,71,71,71,71,71,71,71,71,71,72,0,0,
80,80,80,80,80,80,80,80,80,80,80,80,80,18,0,0,
0,0,0,0,0,0,0,0,0,0,0,0,0,0,0,0,
0,0,0,0,0,0,0,0,0,0,0,0,0,0,0,0,
0,0,0,0,0,0,0,0,0,0,0,0,0,0,0,0,
0,0,0,0,0,0,0,0,0,0,0,0,0,0,0,0
</chunk>
   <chunk x="128" y="32" width="16" height="16">
0,0,0,0,70,71,71,71,71,71,71,71,71,71,71,71,
0,0,0,0,70,71,71,71,71,71,71,71,71,71,71,71,
0,0,0,0,70,71,71,71,71,71,71,71,71,71,71,71,
0,0,0,0,70,71,71,71,71,71,71,71,71,71,71,71,
0,0,0,0,70,71,71,71,71,71,71,71,71,71,71,71,
0,0,0,0,70,71,71,71,71,71,71,71,71,71,71,71,
0,0,0,0,70,71,71,71,71,71,71,71,71,71,71,71,
0,0,0,0,70,71,71,71,71,71,71,71,71,71,71,71,
0,0,0,0,70,71,71,71,71,71,71,71,71,71,71,71,
0,0,0,0,70,71,71,71,71,71,71,71,71,71,71,71,
0,0,0,0,70,71,71,71,71,71,71,71,71,71,71,71,
0,0,0,0,70,71,71,71,71,71,71,71,71,71,71,71,
0,0,0,0,70,71,71,71,71,71,71,71,71,71,71,71,
0,0,0,0,70,71,71,71,71,71,71,71,71,71,71,71,
0,0,0,0,70,71,71,71,71,71,71,71,71,71,71,71,
0,0,0,0,70,71,71,71,71,71,71,71,71,71,71,71
</chunk>
   <chunk x="0" y="48" width="16" height="16">
71,71,72,0,0,0,0,0,0,0,0,0,0,0,0,0,
71,71,72,0,0,0,0,0,0,0,0,0,0,0,0,0,
71,71,72,0,0,0,0,0,0,0,0,0,0,0,0,0,
71,71,68,62,62,62,62,62,62,62,62,62,62,62,62,62,
71,71,71,71,71,71,71,71,71,71,71,71,71,71,71,71,
71,71,71,71,71,71,71,71,71,71,71,71,71,71,71,71,
71,71,71,71,71,71,71,71,71,71,71,71,71,71,71,71,
71,71,71,71,71,71,71,71,71,71,71,71,71,71,71,71,
71,71,71,71,71,71,71,71,71,71,71,71,71,71,71,71,
71,71,71,71,71,71,71,71,71,71,71,71,71,71,71,71,
71,71,71,71,71,71,71,71,71,71,71,71,71,71,71,71,
71,71,71,71,71,71,71,71,71,71,71,71,71,71,71,71,
71,71,71,71,71,71,71,71,71,71,71,71,71,71,71,71,
71,71,71,71,71,71,71,71,71,71,71,71,71,71,71,71,
71,71,71,71,71,71,71,71,71,71,71,71,71,71,71,71,
71,71,71,71,71,71,71,71,71,71,71,71,71,71,71,71
</chunk>
   <chunk x="16" y="48" width="16" height="16">
70,71,71,71,71,72,0,0,0,0,0,0,0,0,0,0,
70,71,71,71,71,72,0,0,0,0,0,0,0,0,0,0,
70,71,71,71,71,72,0,0,0,0,0,0,0,0,0,0,
69,71,71,71,71,72,0,0,0,0,0,0,0,0,0,0,
71,71,71,71,71,68,62,62,62,62,62,62,62,62,62,62,
71,71,71,71,71,71,71,71,71,71,71,71,71,71,71,71,
71,71,71,71,71,71,71,71,71,71,71,71,71,71,71,71,
71,71,71,71,71,71,71,71,71,71,71,71,71,71,71,71,
71,71,71,71,71,71,71,71,71,71,71,71,71,71,71,71,
71,71,71,71,71,71,71,71,71,71,71,71,71,71,71,71,
71,71,71,71,71,71,71,71,71,71,71,71,71,71,71,71,
71,71,71,71,71,71,71,71,71,71,71,71,71,71,71,71,
71,71,71,71,71,71,71,71,71,71,71,71,71,71,71,71,
71,71,71,71,71,71,71,71,71,71,71,71,71,71,71,71,
71,71,71,71,71,71,71,71,71,71,71,71,71,71,71,71,
71,71,71,71,71,71,71,71,71,71,71,71,71,71,71,71
</chunk>
   <chunk x="32" y="48" width="16" height="16">
0,0,0,0,0,0,0,0,0,0,0,0,0,0,0,0,
0,0,0,0,0,0,0,0,0,0,0,0,0,0,0,0,
0,0,0,0,0,0,0,0,0,0,0,0,0,0,0,0,
0,0,0,0,0,0,0,0,0,0,0,0,0,0,0,0,
62,62,62,62,62,63,0,0,0,0,0,0,61,62,62,62,
71,71,71,71,71,72,0,0,0,0,0,0,70,71,71,71,
71,71,71,71,71,72,0,0,0,0,0,0,70,71,71,71,
71,71,71,71,71,72,0,0,0,0,0,0,70,71,71,71,
71,71,71,71,71,68,63,0,0,0,0,61,69,71,71,71,
71,71,71,71,71,71,72,0,0,0,0,70,71,71,71,71,
71,71,71,71,71,71,72,0,0,0,0,70,71,71,71,71,
71,71,71,71,71,71,72,0,0,0,0,70,71,71,71,71,
71,71,71,71,71,71,72,0,0,0,0,70,71,71,71,71,
71,71,71,71,71,71,72,0,0,0,0,79,80,80,80,80,
71,71,71,71,71,71,72,0,0,0,0,0,0,0,0,0,
71,71,71,71,71,71,72,0,0,0,0,0,0,0,0,0
</chunk>
   <chunk x="48" y="48" width="16" height="16">
0,0,0,0,0,0,0,0,0,0,0,0,0,0,0,0,
0,0,0,0,0,0,0,0,0,0,0,0,0,0,0,0,
0,0,0,0,0,0,0,0,0,0,0,0,0,0,0,0,
0,0,0,0,0,0,0,0,0,0,0,0,0,0,0,0,
62,62,62,62,62,62,62,62,62,62,62,62,62,62,62,62,
71,71,71,71,71,71,71,71,71,71,71,71,71,71,71,71,
71,71,71,71,71,71,71,71,71,71,71,71,71,71,71,71,
71,71,71,71,71,71,71,71,71,71,71,71,71,71,71,71,
71,71,71,71,71,71,71,71,71,71,71,71,71,71,71,71,
71,71,71,71,71,71,71,71,71,71,71,71,71,71,71,71,
71,71,71,71,71,71,71,71,71,71,71,71,71,71,71,71,
71,71,71,71,71,71,71,71,71,71,71,71,71,71,71,71,
71,71,71,71,71,71,71,71,71,71,71,71,71,71,71,71,
80,80,80,80,80,80,80,80,80,80,80,80,80,80,80,80,
0,0,0,0,0,0,0,0,0,0,0,0,0,0,0,0,
0,0,0,0,0,0,0,0,0,0,0,0,0,0,0,0
</chunk>
   <chunk x="64" y="48" width="16" height="16">
0,0,0,0,70,71,71,71,72,0,0,0,0,0,0,0,
0,0,0,0,70,71,71,71,72,0,0,0,0,0,0,0,
0,0,0,0,70,71,71,71,72,0,0,0,0,0,0,0,
0,0,0,0,70,71,71,71,72,0,0,0,0,0,0,0,
62,62,62,62,69,71,71,71,72,0,0,0,0,0,0,0,
71,71,71,71,71,71,71,71,72,0,0,0,0,0,0,0,
71,71,71,71,71,71,71,71,72,0,0,0,0,0,0,0,
71,71,71,71,71,71,71,71,68,11,0,0,0,0,0,0,
71,71,71,71,71,71,71,71,71,68,14,15,0,0,0,0,
71,71,71,71,71,71,71,71,71,71,71,68,62,62,62,62,
71,71,71,71,71,71,71,71,71,71,71,71,71,71,71,71,
71,71,71,71,71,71,71,71,71,71,71,71,71,71,71,71,
71,71,71,71,71,71,71,71,71,71,71,71,71,71,71,71,
80,80,80,80,80,80,80,80,80,80,80,80,80,80,80,80,
0,0,0,0,0,0,0,0,0,0,0,0,0,0,0,0,
0,0,0,0,0,0,0,0,0,0,0,0,0,0,0,0
</chunk>
   <chunk x="80" y="48" width="16" height="16">
0,0,0,0,0,0,0,0,0,0,0,0,0,0,0,0,
0,0,0,0,0,0,0,0,0,0,0,0,0,0,0,0,
0,0,0,0,0,0,0,0,0,0,0,0,12,13,62,62,
0,0,0,0,0,0,0,0,0,0,0,0,70,71,71,71,
0,0,0,0,0,0,0,0,0,0,0,0,70,71,71,71,
0,0,0,0,0,0,0,0,0,0,0,0,70,71,71,71,
0,0,0,0,0,0,0,0,0,0,0,0,70,71,71,71,
0,0,0,0,0,0,0,0,0,0,0,10,69,71,71,71,
0,0,0,0,0,0,0,0,0,12,13,69,71,71,71,71,
62,62,62,62,62,62,62,62,62,69,71,71,71,71,71,71,
71,71,71,71,71,71,71,71,71,71,71,71,71,71,71,71,
71,71,71,71,71,71,71,71,71,71,71,71,71,71,71,71,
71,71,71,71,71,71,71,71,71,71,71,71,71,71,71,71,
80,80,80,80,80,80,80,80,80,80,80,80,80,80,80,60,
0,0,0,0,0,0,0,0,0,0,0,0,0,0,0,70,
0,0,0,0,0,0,0,0,0,0,0,0,0,0,0,70
</chunk>
   <chunk x="96" y="48" width="16" height="16">
0,0,0,0,0,0,0,0,0,0,0,0,0,0,0,0,
0,0,0,0,0,0,0,0,0,0,0,0,0,0,0,0,
62,62,62,62,62,62,62,62,62,62,62,62,62,62,62,62,
71,71,71,71,71,71,71,71,71,71,71,71,71,71,71,71,
71,71,71,71,71,71,71,71,71,71,71,71,71,71,71,71,
71,71,71,71,71,71,71,71,71,71,71,71,71,71,71,71,
71,71,71,71,71,71,71,71,71,71,71,71,71,71,71,71,
71,71,71,71,71,71,71,71,71,71,71,71,71,71,71,71,
71,71,71,71,71,71,71,71,71,71,71,71,71,71,71,71,
71,71,71,71,71,71,71,71,71,71,71,71,71,71,71,71,
71,71,71,71,71,71,71,71,71,71,71,71,71,71,71,71,
71,71,71,71,71,71,71,71,71,71,71,71,71,71,71,71,
71,71,71,71,71,71,71,71,71,71,71,71,71,71,71,71,
71,71,71,71,71,71,71,71,71,71,71,71,71,71,71,71,
71,71,71,71,71,71,71,71,71,71,71,71,71,71,71,71,
71,71,71,71,71,71,71,71,71,71,71,71,71,71,71,71
</chunk>
   <chunk x="112" y="48" width="16" height="16">
0,0,0,0,0,0,0,0,0,0,0,0,0,0,0,0,
0,0,0,0,0,0,0,0,0,0,0,0,0,0,0,0,
62,62,62,62,62,62,62,62,62,62,62,62,62,62,62,62,
71,71,71,71,71,71,71,71,71,71,71,71,71,71,71,71,
71,71,71,71,71,71,71,71,71,71,71,71,71,71,71,71,
71,71,71,71,71,71,71,71,71,71,71,71,71,71,71,71,
71,71,71,71,71,71,71,71,71,71,71,71,71,71,71,71,
71,71,71,71,71,71,71,71,71,71,71,71,71,71,71,71,
71,71,71,71,71,71,71,71,71,71,71,71,71,71,71,71,
71,71,71,71,71,71,71,71,71,71,71,71,71,71,71,71,
71,71,71,71,71,71,71,71,71,71,71,71,71,71,71,71,
71,71,71,71,71,71,71,71,71,71,71,71,71,71,71,71,
71,71,71,71,71,71,71,71,71,71,71,71,71,71,71,71,
71,71,71,71,71,71,71,71,71,71,71,71,71,71,71,71,
71,71,71,71,71,71,71,71,71,71,71,71,71,71,71,71,
71,71,71,71,71,71,71,71,71,71,71,71,71,71,71,71
</chunk>
   <chunk x="128" y="48" width="16" height="16">
0,0,0,0,70,71,71,71,71,71,71,71,71,71,71,71,
0,0,12,13,69,71,71,71,71,71,71,71,71,71,71,71,
62,62,69,71,71,71,71,71,71,71,71,71,71,71,71,71,
71,71,71,71,71,71,71,71,71,71,71,71,71,71,71,71,
71,71,71,71,71,71,71,71,71,71,71,71,71,71,71,71,
71,71,71,71,71,71,71,71,71,71,71,71,71,71,71,71,
71,71,71,71,71,71,71,71,71,71,71,71,71,71,71,71,
71,71,71,71,71,71,71,71,71,71,71,71,71,71,71,71,
71,71,71,71,71,71,71,71,71,71,71,71,71,71,71,71,
71,71,71,71,71,71,71,71,71,71,71,71,71,71,71,71,
71,71,71,71,71,71,71,71,71,71,71,71,71,71,71,71,
71,71,71,71,71,71,71,71,71,71,71,71,71,71,71,71,
71,71,71,71,71,71,71,71,71,71,71,71,71,71,71,71,
71,71,71,71,71,71,71,71,71,71,71,71,71,71,71,71,
71,71,71,71,71,71,71,71,71,71,71,71,71,71,71,71,
71,71,71,71,71,71,71,71,71,71,71,71,71,71,71,71
</chunk>
   <chunk x="0" y="64" width="16" height="16">
71,71,71,71,71,71,71,71,71,71,71,71,71,71,71,71,
71,71,71,71,71,71,71,71,71,71,71,71,71,71,71,71,
71,71,71,71,71,71,71,71,71,71,71,71,71,71,71,71,
71,71,71,71,71,71,71,71,71,71,71,71,71,71,71,71,
71,71,71,71,71,71,71,71,71,71,71,71,71,71,71,71,
71,71,71,71,71,71,71,71,71,71,71,71,71,71,71,71,
71,71,71,71,71,71,71,71,71,71,71,71,71,71,71,71,
71,71,71,71,71,71,71,71,71,71,71,71,71,71,71,71,
71,71,71,71,71,71,71,71,71,71,71,71,71,71,71,71,
71,71,71,71,71,71,71,71,71,71,71,71,71,71,71,71,
71,71,71,71,71,71,71,71,71,71,71,71,71,71,71,71,
71,71,71,71,71,71,71,71,71,71,71,71,71,71,71,71,
71,71,71,71,71,71,71,71,71,71,71,71,71,71,71,71,
71,71,71,71,71,71,71,71,71,71,71,71,71,71,71,71,
71,71,71,71,71,71,71,71,71,71,71,71,71,71,71,71,
71,71,71,71,71,71,71,71,71,71,71,71,71,71,71,71
</chunk>
   <chunk x="16" y="64" width="16" height="16">
71,71,71,71,71,71,71,71,71,71,71,71,71,71,71,71,
71,71,71,71,71,71,71,71,71,71,71,71,71,71,71,71,
71,71,71,71,71,71,71,71,71,71,71,71,71,71,71,71,
71,71,71,71,71,71,71,71,71,71,71,71,71,71,71,71,
71,71,71,71,71,71,71,71,71,71,71,71,71,71,71,71,
71,71,71,71,71,71,71,71,71,71,71,71,71,71,71,71,
71,71,71,71,71,71,71,71,71,71,71,71,71,71,71,71,
71,71,71,71,71,71,71,71,71,71,71,71,71,71,71,71,
71,71,71,71,71,71,71,71,71,71,71,71,71,71,71,71,
71,71,71,71,71,71,71,71,71,71,71,71,71,71,71,71,
71,71,71,71,71,71,71,71,71,71,71,71,71,71,71,71,
71,71,71,71,71,71,71,71,71,71,71,71,71,71,71,71,
71,71,71,71,71,71,71,71,71,71,71,71,71,71,71,71,
71,71,71,71,71,71,71,71,71,71,71,71,71,71,71,71,
71,71,71,71,71,71,71,71,71,71,71,71,71,71,71,71,
71,71,71,71,71,71,71,71,71,71,71,71,71,71,71,71
</chunk>
   <chunk x="32" y="64" width="16" height="16">
71,71,71,71,71,71,72,0,0,0,0,0,0,0,0,0,
71,71,71,71,71,71,72,0,0,0,0,0,0,0,0,0,
71,71,71,71,71,71,72,0,0,0,0,0,0,0,0,0,
71,71,71,71,71,71,72,0,0,0,0,0,0,0,0,0,
71,71,71,71,71,71,72,0,0,0,0,0,0,0,0,0,
71,71,71,71,71,71,68,62,62,62,62,62,62,62,62,62,
71,71,71,71,71,71,71,71,71,71,71,71,71,71,71,71,
71,71,71,71,71,71,71,71,71,71,71,71,71,71,71,71,
71,71,71,71,71,71,71,71,71,71,71,71,71,71,71,71,
71,71,71,71,71,71,71,71,71,71,71,71,71,71,71,71,
71,71,71,71,71,71,71,71,71,71,71,71,71,71,71,71,
71,71,71,71,71,71,71,71,71,71,71,71,71,71,71,71,
71,71,71,71,71,71,71,71,71,71,71,71,71,71,71,71,
71,71,71,71,71,71,71,71,71,71,71,71,71,71,71,71,
71,71,71,71,71,71,71,71,71,71,71,71,71,71,71,71,
71,71,71,71,71,71,71,71,71,71,71,71,71,71,71,71
</chunk>
   <chunk x="48" y="64" width="16" height="16">
0,0,0,0,0,0,0,0,0,0,0,0,0,0,0,0,
0,0,0,0,0,0,0,0,0,0,0,0,0,0,0,0,
0,0,0,0,0,0,0,0,0,0,0,0,0,0,0,0,
0,0,0,0,0,0,0,0,0,0,0,0,0,0,0,0,
0,0,0,0,0,0,0,0,0,0,0,0,0,0,0,0,
62,62,62,62,62,62,62,62,62,11,0,0,0,0,0,0,
71,71,71,71,71,71,71,71,71,68,11,0,0,0,0,0,
71,71,71,71,71,71,71,71,71,71,68,11,0,0,0,0,
71,71,71,71,71,71,71,71,71,71,71,68,14,15,0,0,
71,71,71,71,71,71,71,71,71,71,71,71,71,68,62,62,
71,71,71,71,71,71,71,71,71,71,71,71,71,71,71,71,
71,71,71,71,71,71,71,71,71,71,71,71,71,71,71,71,
71,71,71,71,71,71,71,71,71,71,71,71,71,71,71,71,
71,71,71,71,71,71,71,71,71,71,71,71,71,71,71,71,
71,71,71,71,71,71,71,71,71,71,71,71,71,71,71,71,
71,71,71,71,71,71,71,71,71,71,71,71,71,71,71,71
</chunk>
   <chunk x="64" y="64" width="16" height="16">
0,0,0,0,0,0,0,0,0,0,0,0,0,0,0,0,
0,0,0,0,0,0,0,0,0,0,0,0,0,0,0,0,
0,0,0,0,0,0,0,0,0,0,0,0,0,0,0,0,
0,0,0,0,0,0,0,0,0,0,0,0,0,0,0,25,
0,0,0,0,0,0,0,0,0,0,0,0,0,0,0,0,
0,0,0,0,0,0,0,0,0,0,0,0,0,0,0,0,
0,0,0,0,0,0,0,0,0,0,0,0,0,0,0,0,
0,0,0,0,0,0,0,0,0,0,0,0,0,0,0,0,
0,0,0,0,0,0,0,0,0,0,0,0,0,0,0,0,
62,62,62,62,62,62,62,62,62,62,62,62,62,62,62,62,
71,71,71,71,71,71,71,71,71,71,71,71,71,71,71,71,
71,71,71,71,71,71,71,71,71,71,71,71,71,71,71,71,
71,71,71,71,71,71,71,71,71,71,71,71,71,71,71,71,
71,71,71,71,71,71,71,71,71,71,71,71,71,71,71,71,
71,71,71,71,71,71,71,71,71,71,71,71,71,71,71,71,
71,71,71,71,71,71,71,71,71,71,71,71,71,71,71,71
</chunk>
   <chunk x="80" y="64" width="16" height="16">
0,0,0,0,0,0,0,0,0,0,0,0,0,0,0,70,
0,0,0,0,0,0,0,0,0,0,0,0,0,0,0,70,
0,0,0,0,0,0,0,0,0,0,0,0,0,0,0,70,
25,25,25,25,25,25,25,61,62,62,62,63,25,0,0,70,
0,0,0,0,0,0,0,70,71,71,71,72,0,0,0,70,
0,0,0,0,0,0,0,70,71,71,71,72,0,0,0,70,
0,0,0,0,0,0,0,70,71,71,71,72,0,0,0,70,
0,0,0,0,0,0,0,70,71,71,71,72,0,0,0,70,
0,0,0,0,0,0,0,70,71,71,71,72,0,0,0,70,
62,62,62,62,62,62,62,69,71,71,71,72,0,0,0,70,
71,71,71,71,71,71,71,71,71,71,71,72,0,0,0,70,
71,71,71,71,71,71,71,71,71,71,71,72,0,0,0,70,
71,71,71,71,71,71,71,71,71,71,71,72,0,0,0,70,
71,71,71,71,71,71,71,71,71,71,71,72,0,0,0,70,
71,71,71,71,71,71,71,71,71,71,71,68,62,62,62,69,
71,71,71,71,71,71,71,71,71,71,71,71,71,71,71,71
</chunk>
   <chunk x="96" y="64" width="16" height="16">
71,71,71,71,71,71,71,71,71,71,71,71,71,71,71,71,
71,71,71,71,71,71,71,71,71,71,71,71,71,71,71,71,
71,71,71,71,71,71,71,71,71,71,71,71,71,71,71,71,
71,71,71,71,71,71,71,71,71,71,71,71,71,71,71,71,
71,71,71,71,71,71,71,71,71,71,71,71,71,71,71,71,
71,71,71,71,71,71,71,71,71,71,71,71,71,71,71,71,
71,71,71,71,71,71,71,71,71,71,71,71,71,71,71,71,
71,71,71,71,71,71,71,71,71,71,71,71,71,71,71,71,
71,71,71,71,71,71,71,71,71,71,71,71,71,71,71,71,
71,71,71,71,71,71,71,71,71,71,71,71,71,71,71,71,
71,71,71,71,71,71,71,71,71,71,71,71,71,71,71,71,
71,71,71,71,71,71,71,71,71,71,71,71,71,71,71,71,
71,71,71,71,71,71,71,71,71,71,71,71,71,71,71,71,
71,71,71,71,71,71,71,71,71,71,71,71,71,71,71,71,
71,71,71,71,71,71,71,71,71,71,71,71,71,71,71,71,
71,71,71,71,71,71,71,71,71,71,71,71,71,71,71,71
</chunk>
   <chunk x="112" y="64" width="16" height="16">
71,71,71,71,71,71,71,71,71,71,71,71,71,71,71,71,
71,71,71,71,71,71,71,71,71,71,71,71,71,71,71,71,
71,71,71,71,71,71,71,71,71,71,71,71,71,71,71,71,
71,71,71,71,71,71,71,71,71,71,71,71,71,71,71,71,
71,71,71,71,71,71,71,71,71,71,71,71,71,71,71,71,
71,71,71,71,71,71,71,71,71,71,71,71,71,71,71,71,
71,71,71,71,71,71,71,71,71,71,71,71,71,71,71,71,
71,71,71,71,71,71,71,71,71,71,71,71,71,71,71,71,
71,71,71,71,71,71,71,71,71,71,71,71,71,71,71,71,
71,71,71,71,71,71,71,71,71,71,71,71,71,71,71,71,
71,71,71,71,71,71,71,71,71,71,71,71,71,71,71,71,
71,71,71,71,71,71,71,71,71,71,71,71,71,71,71,71,
71,71,71,71,71,71,71,71,71,71,71,71,71,71,71,71,
71,71,71,71,71,71,71,71,71,71,71,71,71,71,71,71,
71,71,71,71,71,71,71,71,71,71,71,71,71,71,71,71,
71,71,71,71,71,71,71,71,71,71,71,71,71,71,71,71
</chunk>
   <chunk x="128" y="64" width="16" height="16">
71,71,71,71,71,71,71,71,71,71,71,71,71,71,71,71,
71,71,71,71,71,71,71,71,71,71,71,71,71,71,71,71,
71,71,71,71,71,71,71,71,71,71,71,71,71,71,71,71,
71,71,71,71,71,71,71,71,71,71,71,71,71,71,71,71,
71,71,71,71,71,71,71,71,71,71,71,71,71,71,71,71,
71,71,71,71,71,71,71,71,71,71,71,71,71,71,71,71,
71,71,71,71,71,71,71,71,71,71,71,71,71,71,71,71,
71,71,71,71,71,71,71,71,71,71,71,71,71,71,71,71,
71,71,71,71,71,71,71,71,71,71,71,71,71,71,71,71,
71,71,71,71,71,71,71,71,71,71,71,71,71,71,71,71,
71,71,71,71,71,71,71,71,71,71,71,71,71,71,71,71,
71,71,71,71,71,71,71,71,71,71,71,71,71,71,71,71,
71,71,71,71,71,71,71,71,71,71,71,71,71,71,71,71,
71,71,71,71,71,71,71,71,71,71,71,71,71,71,71,71,
71,71,71,71,71,71,71,71,71,71,71,71,71,71,71,71,
71,71,71,71,71,71,71,71,71,71,71,71,71,71,71,71
</chunk>
  </data>
 </layer>
 <objectgroup color="#ffffff" id="11" name="regions"/>
 <objectgroup id="3" name="general">
  <object id="145" name="trig_tutorial" class="trigger" x="48" y="736" width="144" height="80">
   <properties>
    <property name="corpses" type="bool" value="false"/>
    <property name="npcs" type="bool" value="false"/>
    <property name="once" type="bool" value="true"/>
    <property name="player" type="bool" value="true"/>
    <property name="startActive" type="bool" value="true"/>
   </properties>
  </object>
  <object id="146" class="catalyst" x="210" y="808" width="28" height="8">
   <properties>
    <property name="boostMult" type="float" value="1"/>
    <property name="charged" type="bool" value="false"/>
    <property name="draw" type="bool" value="true"/>
    <property name="startActive" type="bool" value="true"/>
   </properties>
  </object>
  <object id="152" class="catalyst" x="2041" y="792" width="28" height="8">
   <properties>
    <property name="boostMult" type="float" value="1"/>
    <property name="charged" type="bool" value="false"/>
    <property name="draw" type="bool" value="true"/>
    <property name="startActive" type="bool" value="true"/>
   </properties>
  </object>
  <object id="154" class="ladder" x="1296" y="160" width="16" height="176">
   <properties>
    <property name="draw" type="bool" value="true"/>
    <property name="skin" type="int" value="0"/>
    <property name="startActive" type="bool" value="true"/>
   </properties>
  </object>
  <object id="155" class="ladder" x="1072" y="336" width="16" height="160">
   <properties>
    <property name="draw" type="bool" value="true"/>
    <property name="skin" type="int" value="0"/>
    <property name="startActive" type="bool" value="true"/>
   </properties>
  </object>
  <object id="159" class="blockade" x="880" y="992" width="16" height="112">
   <properties>
    <property name="ballistaVunerable" type="bool" value="false"/>
    <property name="skin" type="int" value="0"/>
    <property name="type" type="int" value="0"/>
   </properties>
  </object>
  <object id="162" class="spiralDoor" x="720" y="320" width="16" height="32">
   <properties>
    <property name="startActive" type="bool" value="true"/>
    <property name="teleportTarget" value=""/>
   </properties>
  </object>
  <object id="173" name="trig_tutorial1" class="trigger" x="832" y="992" width="48" height="112">
   <properties>
    <property name="corpses" type="bool" value="false"/>
    <property name="npcs" type="bool" value="false"/>
    <property name="once" type="bool" value="true"/>
    <property name="player" type="bool" value="true"/>
    <property name="startActive" type="bool" value="true"/>
   </properties>
  </object>
  <object id="174" name="trig_tutorial2" class="trigger" x="688" y="288" width="80" height="64">
   <properties>
    <property name="corpses" type="bool" value="false"/>
    <property name="npcs" type="bool" value="false"/>
    <property name="once" type="bool" value="true"/>
    <property name="player" type="bool" value="true"/>
    <property name="startActive" type="bool" value="true"/>
   </properties>
  </object>
  <object id="219" name="trig_tutorial3" class="trigger" x="1216" y="1104" width="80" height="64">
   <properties>
    <property name="corpses" type="bool" value="false"/>
    <property name="npcs" type="bool" value="false"/>
    <property name="once" type="bool" value="true"/>
    <property name="player" type="bool" value="true"/>
    <property name="startActive" type="bool" value="true"/>
   </properties>
  </object>
  <object id="220" name="trig_tutorial4" class="trigger" x="560" y="768" width="80" height="64">
   <properties>
    <property name="corpses" type="bool" value="false"/>
    <property name="npcs" type="bool" value="false"/>
    <property name="once" type="bool" value="true"/>
    <property name="player" type="bool" value="true"/>
    <property name="startActive" type="bool" value="true"/>
   </properties>
  </object>
  <object id="229" class="reverb" x="507" y="642" width="299" height="299">
   <properties>
    <property name="minRadius" type="float" value="10"/>
    <property name="reverbType" type="int" value="0"/>
    <property name="wetness" type="float" value="8"/>
   </properties>
   <ellipse/>
  </object>
  <object id="230" class="transition" x="1472" y="1232" width="48" height="16">
   <properties>
    <property name="endTarget" value="trans_start"/>
    <property name="start" type="bool" value="false"/>
    <property name="targetLevel" type="int" value="6"/>
   </properties>
  </object>
  <object id="313" class="reverb" x="1265" y="525" width="413" height="413">
   <properties>
    <property name="minRadius" type="float" value="10"/>
    <property name="reverbType" type="int" value="0"/>
    <property name="wetness" type="float" value="8"/>
   </properties>
   <ellipse/>
  </object>
  <object id="314" name="trig_chase" class="trigger" x="1712" y="704" width="32" height="96">
   <properties>
    <property name="corpses" type="bool" value="false"/>
    <property name="npcs" type="bool" value="false"/>
    <property name="once" type="bool" value="true"/>
    <property name="player" type="bool" value="true"/>
    <property name="startActive" type="bool" value="true"/>
   </properties>
  </object>
  <object id="319" name="chaseClip" class="collider" x="1536" y="576" width="64" height="16">
   <properties>
    <property name="tags" value=""/>
   </properties>
  </object>
  <object id="331" name="trans_start" class="transition" x="192" y="32" width="64" height="32">
   <properties>
    <property name="endTarget" value=""/>
    <property name="start" type="bool" value="true"/>
    <property name="targetLevel" type="int" value="0"/>
   </properties>
  </object>
  <object id="332" class="transition" x="448" y="32" width="48" height="32">
   <properties>
    <property name="endTarget" value="trans_start"/>
    <property name="start" type="bool" value="false"/>
    <property name="targetLevel" type="int" value="3"/>
   </properties>
  </object>
  <object id="333" class="catalyst" x="458" y="168" width="28" height="8">
   <properties>
    <property name="boostMult" type="float" value="1"/>
    <property name="charged" type="bool" value="false"/>
    <property name="draw" type="bool" value="true"/>
    <property name="startActive" type="bool" value="true"/>
   </properties>
  </object>
  <object id="334" name="trig_serp" class="trigger" x="1744" y="336" width="32" height="80">
   <properties>
    <property name="corpses" type="bool" value="false"/>
    <property name="npcs" type="bool" value="true"/>
    <property name="once" type="bool" value="true"/>
    <property name="player" type="bool" value="false"/>
    <property name="startActive" type="bool" value="true"/>
   </properties>
  </object>
  <object id="338" name="trig_dia" class="trigger" x="784" y="112" width="80" height="64">
   <properties>
    <property name="corpses" type="bool" value="false"/>
    <property name="npcs" type="bool" value="false"/>
    <property name="once" type="bool" value="true"/>
    <property name="player" type="bool" value="true"/>
    <property name="startActive" type="bool" value="true"/>
   </properties>
  </object>
 </objectgroup>
 <objectgroup color="#ff8284" id="7" name="npcs">
  <object id="244" class="npc" x="752" y="800">
   <properties>
    <property name="id" type="int" value="7"/>
    <property name="noticeDist" type="int" value="400"/>
    <property name="perma" type="bool" value="false"/>
    <property name="phantom" type="int" value="0"/>
    <property name="wanderDist" type="int" value="0"/>
   </properties>
   <point/>
  </object>
  <object id="245" name="chase" class="npc" x="1536" y="416">
   <properties>
    <property name="id" type="int" value="20"/>
    <property name="noticeDist" type="int" value="400"/>
    <property name="perma" type="bool" value="false"/>
    <property name="phantom" type="int" value="0"/>
    <property name="wanderDist" type="int" value="0"/>
   </properties>
   <point/>
  </object>
  <object id="246" name="throngler" class="npc" x="768" y="576">
   <properties>
    <property name="id" type="int" value="8"/>
    <property name="noticeDist" type="int" value="400"/>
    <property name="perma" type="bool" value="false"/>
    <property name="phantom" type="int" value="0"/>
    <property name="wanderDist" type="int" value="0"/>
   </properties>
   <point/>
  </object>
  <object id="247" class="npc" x="240" y="240">
   <properties>
    <property name="id" type="int" value="2"/>
    <property name="noticeDist" type="int" value="100"/>
    <property name="perma" type="bool" value="false"/>
    <property name="phantom" type="int" value="0"/>
    <property name="wanderDist" type="int" value="0"/>
   </properties>
   <point/>
  </object>
  <object id="248" name="madCitizen" class="npc" x="1104" y="1120">
   <properties>
    <property name="id" type="int" value="8"/>
    <property name="noticeDist" type="int" value="400"/>
    <property name="perma" type="bool" value="false"/>
    <property name="phantom" type="int" value="0"/>
    <property name="wanderDist" type="int" value="0"/>
   </properties>
   <point/>
  </object>
  <object id="321" class="npc" x="1312" y="1040">
   <properties>
    <property name="id" type="int" value="7"/>
    <property name="noticeDist" type="int" value="400"/>
    <property name="perma" type="bool" value="false"/>
    <property name="phantom" type="int" value="1"/>
    <property name="wanderDist" type="int" value="0"/>
   </properties>
   <point/>
  </object>
 </objectgroup>
 <objectgroup color="#8aadff" id="8" name="puzzles">
  <object id="249" name="door1" class="door" x="608" y="832" width="96" height="16">
   <properties>
    <property name="draw" type="bool" value="true"/>
    <property name="skin" type="int" value="0"/>
    <property name="startActive" type="bool" value="true"/>
   </properties>
  </object>
  <object id="250" name="door2" class="door" x="608" y="608" width="96" height="16">
   <properties>
    <property name="draw" type="bool" value="true"/>
    <property name="skin" type="int" value="0"/>
    <property name="startActive" type="bool" value="true"/>
   </properties>
  </object>
  <object id="251" name="door3" class="door" x="1520" y="336" width="16" height="80">
   <properties>
    <property name="draw" type="bool" value="true"/>
    <property name="skin" type="int" value="0"/>
    <property name="startActive" type="bool" value="true"/>
   </properties>
  </object>
  <object id="252" name="switch1" class="switch" x="1557" y="560">
   <properties>
    <property name="draw" type="bool" value="true"/>
    <property name="once" type="bool" value="true"/>
    <property name="skin" type="int" value="0"/>
    <property name="startActive" type="bool" value="true"/>
   </properties>
   <point/>
  </object>
  <object id="253" name="switch2" class="switch" x="660" y="480">
   <properties>
    <property name="draw" type="bool" value="true"/>
    <property name="once" type="bool" value="true"/>
    <property name="skin" type="int" value="0"/>
    <property name="startActive" type="bool" value="true"/>
   </properties>
   <point/>
  </object>
  <object id="254" name="door4" class="door" x="1408" y="992" width="16" height="80">
   <properties>
    <property name="draw" type="bool" value="true"/>
    <property name="skin" type="int" value="0"/>
    <property name="startActive" type="bool" value="true"/>
   </properties>
  </object>
  <object id="255" name="magnet1" class="magnet" x="1388" y="1120">
   <properties>
    <property name="direction" type="bool" value="true"/>
    <property name="draw" type="bool" value="true"/>
    <property name="size" type="int" value="1"/>
    <property name="startActive" type="bool" value="true"/>
   </properties>
   <point/>
  </object>
  <object id="256" class="wireOverlay" x="660" y="480">
   <properties>
    <property name="target" value="switch2"/>
   </properties>
   <polyline points="0,0 -68,0 -68,264 -60,303 -68,352 -68,360 -52,360"/>
  </object>
  <object id="257" class="wireOverlay" x="1392" y="363">
   <properties>
    <property name="target" value="switch1"/>
   </properties>
   <polyline points="135,53 135,197 165,197"/>
  </object>
  <object id="258" class="wireOverlay" x="608" y="616">
   <properties>
    <property name="target" value="switch2"/>
   </properties>
   <polyline points="0,0 -16,0"/>
  </object>
  <object id="259" class="wireOverlay" x="1392" y="1120">
   <properties>
    <property name="target" value="magnet1"/>
   </properties>
   <polyline points="0,0 24,0 24,-48"/>
  </object>
  <object id="316" name="door5" class="door" x="1504" y="720" width="16" height="80">
   <properties>
    <property name="draw" type="bool" value="true"/>
    <property name="skin" type="int" value="0"/>
    <property name="startActive" type="bool" value="true"/>
   </properties>
  </object>
  <object id="317" class="wireOverlay" x="1468.76" y="789.2">
   <properties>
    <property name="target" value="switch3"/>
   </properties>
   <polyline points="43.2353,10.8 24.7059,85.2 -76.7647,106.8"/>
  </object>
  <object id="318" name="switch3" class="switch" x="1392" y="896">
   <properties>
    <property name="draw" type="bool" value="true"/>
    <property name="once" type="bool" value="true"/>
    <property name="skin" type="int" value="0"/>
    <property name="startActive" type="bool" value="true"/>
   </properties>
   <point/>
  </object>
  <object id="336" name="tome" class="switch" x="912" y="336">
   <properties>
    <property name="draw" type="bool" value="true"/>
    <property name="once" type="bool" value="true"/>
    <property name="skin" type="int" value="1"/>
    <property name="startActive" type="bool" value="true"/>
   </properties>
   <point/>
  </object>
 </objectgroup>
 <objectgroup color="#fffa61" id="9" name="lights">
  <object id="279" class="light" x="230" y="192">
   <properties>
    <property name="angle" type="float" value="270"/>
    <property name="brightness" type="float" value="3"/>
    <property name="color" type="color" value="#ffdcddff"/>
    <property name="dirRadius" type="float" value="80"/>
    <property name="directional" type="bool" value="false"/>
    <property name="falloff" type="float" value="2"/>
    <property name="radius" type="float" value="1"/>
    <property name="shadows" type="bool" value="false"/>
    <property name="startActive" type="bool" value="true"/>
   </properties>
   <point/>
  </object>
  <object id="280" class="light" x="152" y="652">
   <properties>
    <property name="angle" type="float" value="270"/>
    <property name="brightness" type="float" value="3"/>
    <property name="color" type="color" value="#ffdcddff"/>
    <property name="dirRadius" type="float" value="80"/>
    <property name="directional" type="bool" value="false"/>
    <property name="falloff" type="float" value="2"/>
    <property name="radius" type="float" value="1"/>
    <property name="shadows" type="bool" value="false"/>
    <property name="startActive" type="bool" value="true"/>
   </properties>
   <point/>
  </object>
  <object id="281" class="light" x="522" y="784">
   <properties>
    <property name="angle" type="float" value="270"/>
    <property name="brightness" type="float" value="3"/>
    <property name="color" type="color" value="#ffdcddff"/>
    <property name="dirRadius" type="float" value="80"/>
    <property name="directional" type="bool" value="false"/>
    <property name="falloff" type="float" value="2"/>
    <property name="radius" type="float" value="1"/>
    <property name="shadows" type="bool" value="false"/>
    <property name="startActive" type="bool" value="true"/>
   </properties>
   <point/>
  </object>
  <object id="282" class="light" x="2060" y="731">
   <properties>
    <property name="angle" type="float" value="270"/>
    <property name="brightness" type="float" value="3"/>
    <property name="color" type="color" value="#ffdcddff"/>
    <property name="dirRadius" type="float" value="80"/>
    <property name="directional" type="bool" value="false"/>
    <property name="falloff" type="float" value="2"/>
    <property name="radius" type="float" value="1"/>
    <property name="shadows" type="bool" value="false"/>
    <property name="startActive" type="bool" value="true"/>
   </properties>
   <point/>
  </object>
  <object id="283" class="light" x="1952" y="368">
   <properties>
    <property name="angle" type="float" value="270"/>
    <property name="brightness" type="float" value="3"/>
    <property name="color" type="color" value="#ffdcddff"/>
    <property name="dirRadius" type="float" value="80"/>
    <property name="directional" type="bool" value="false"/>
    <property name="falloff" type="float" value="2"/>
    <property name="radius" type="float" value="1"/>
    <property name="shadows" type="bool" value="false"/>
    <property name="startActive" type="bool" value="true"/>
   </properties>
   <point/>
  </object>
  <object id="284" class="light" x="816" y="480">
   <properties>
    <property name="angle" type="float" value="270"/>
    <property name="brightness" type="float" value="3"/>
    <property name="color" type="color" value="#fffbffef"/>
    <property name="dirRadius" type="float" value="80"/>
    <property name="directional" type="bool" value="false"/>
    <property name="falloff" type="float" value="3"/>
    <property name="radius" type="float" value="0.8"/>
    <property name="shadows" type="bool" value="true"/>
    <property name="startActive" type="bool" value="true"/>
   </properties>
   <point/>
  </object>
  <object id="285" class="light" x="624" y="288">
   <properties>
    <property name="angle" type="float" value="270"/>
    <property name="brightness" type="float" value="3"/>
    <property name="color" type="color" value="#fffbffef"/>
    <property name="dirRadius" type="float" value="80"/>
    <property name="directional" type="bool" value="false"/>
    <property name="falloff" type="float" value="2"/>
    <property name="radius" type="float" value="3"/>
    <property name="shadows" type="bool" value="false"/>
    <property name="startActive" type="bool" value="true"/>
   </properties>
   <point/>
  </object>
  <object id="286" class="light" x="1072" y="288">
   <properties>
    <property name="angle" type="float" value="270"/>
    <property name="brightness" type="float" value="3"/>
    <property name="color" type="color" value="#fffbffef"/>
    <property name="dirRadius" type="float" value="80"/>
    <property name="directional" type="bool" value="false"/>
    <property name="falloff" type="float" value="2"/>
    <property name="radius" type="float" value="3"/>
    <property name="shadows" type="bool" value="false"/>
    <property name="startActive" type="bool" value="true"/>
   </properties>
   <point/>
  </object>
  <object id="287" class="light" x="1328" y="832">
   <properties>
    <property name="angle" type="float" value="270"/>
    <property name="brightness" type="float" value="3"/>
    <property name="color" type="color" value="#fffbffef"/>
    <property name="dirRadius" type="float" value="80"/>
    <property name="directional" type="bool" value="false"/>
    <property name="falloff" type="float" value="2"/>
    <property name="radius" type="float" value="0.8"/>
    <property name="shadows" type="bool" value="false"/>
    <property name="startActive" type="bool" value="true"/>
   </properties>
   <point/>
  </object>
  <object id="288" class="light" x="896" y="768">
   <properties>
    <property name="angle" type="float" value="270"/>
    <property name="brightness" type="float" value="3"/>
    <property name="color" type="color" value="#ffffd8c5"/>
    <property name="dirRadius" type="float" value="80"/>
    <property name="directional" type="bool" value="false"/>
    <property name="falloff" type="float" value="2"/>
    <property name="radius" type="float" value="2"/>
    <property name="shadows" type="bool" value="false"/>
    <property name="startActive" type="bool" value="true"/>
   </properties>
   <point/>
  </object>
  <object id="289" class="light" x="1568" y="544">
   <properties>
    <property name="angle" type="float" value="270"/>
    <property name="brightness" type="float" value="2"/>
    <property name="color" type="color" value="#fffbffef"/>
    <property name="dirRadius" type="float" value="80"/>
    <property name="directional" type="bool" value="false"/>
    <property name="falloff" type="float" value="2"/>
    <property name="radius" type="float" value="0.8"/>
    <property name="shadows" type="bool" value="true"/>
    <property name="startActive" type="bool" value="true"/>
   </properties>
   <point/>
  </object>
  <object id="290" class="light" x="1728" y="736">
   <properties>
    <property name="angle" type="float" value="270"/>
    <property name="brightness" type="float" value="3"/>
    <property name="color" type="color" value="#fffbffef"/>
    <property name="dirRadius" type="float" value="80"/>
    <property name="directional" type="bool" value="false"/>
    <property name="falloff" type="float" value="2"/>
    <property name="radius" type="float" value="3"/>
    <property name="shadows" type="bool" value="false"/>
    <property name="startActive" type="bool" value="true"/>
   </properties>
   <point/>
  </object>
  <object id="291" class="light" x="1312" y="144">
   <properties>
    <property name="angle" type="float" value="270"/>
    <property name="brightness" type="float" value="3"/>
    <property name="color" type="color" value="#fffbffef"/>
    <property name="dirRadius" type="float" value="80"/>
    <property name="directional" type="bool" value="false"/>
    <property name="falloff" type="float" value="2"/>
    <property name="radius" type="float" value="3"/>
    <property name="shadows" type="bool" value="false"/>
    <property name="startActive" type="bool" value="true"/>
   </properties>
   <point/>
  </object>
  <object id="292" class="light" x="1408" y="304">
   <properties>
    <property name="angle" type="float" value="270"/>
    <property name="brightness" type="float" value="3"/>
    <property name="color" type="color" value="#ffffcdaa"/>
    <property name="dirRadius" type="float" value="80"/>
    <property name="directional" type="bool" value="false"/>
    <property name="falloff" type="float" value="2"/>
    <property name="radius" type="float" value="3"/>
    <property name="shadows" type="bool" value="false"/>
    <property name="startActive" type="bool" value="true"/>
   </properties>
   <point/>
  </object>
  <object id="293" class="light" x="976" y="144">
   <properties>
    <property name="angle" type="float" value="270"/>
    <property name="brightness" type="float" value="3"/>
    <property name="color" type="color" value="#fffbffef"/>
    <property name="dirRadius" type="float" value="80"/>
    <property name="directional" type="bool" value="false"/>
    <property name="falloff" type="float" value="2"/>
    <property name="radius" type="float" value="3"/>
    <property name="shadows" type="bool" value="false"/>
    <property name="startActive" type="bool" value="true"/>
   </properties>
   <point/>
  </object>
  <object id="294" class="light" x="704" y="96">
   <properties>
    <property name="angle" type="float" value="270"/>
    <property name="brightness" type="float" value="3"/>
    <property name="color" type="color" value="#ffffd8c5"/>
    <property name="dirRadius" type="float" value="80"/>
    <property name="directional" type="bool" value="false"/>
    <property name="falloff" type="float" value="2"/>
    <property name="radius" type="float" value="2"/>
    <property name="shadows" type="bool" value="false"/>
    <property name="startActive" type="bool" value="true"/>
   </properties>
   <point/>
  </object>
  <object id="295" class="light" x="1200" y="1072">
   <properties>
    <property name="angle" type="float" value="270"/>
    <property name="brightness" type="float" value="3"/>
    <property name="color" type="color" value="#fffbffef"/>
    <property name="dirRadius" type="float" value="80"/>
    <property name="directional" type="bool" value="false"/>
    <property name="falloff" type="float" value="2"/>
    <property name="radius" type="float" value="0.8"/>
    <property name="shadows" type="bool" value="false"/>
    <property name="startActive" type="bool" value="true"/>
   </properties>
   <point/>
  </object>
  <object id="296" class="light" x="784" y="1024">
   <properties>
    <property name="angle" type="float" value="270"/>
    <property name="brightness" type="float" value="3"/>
    <property name="color" type="color" value="#ffffd8c5"/>
    <property name="dirRadius" type="float" value="80"/>
    <property name="directional" type="bool" value="false"/>
    <property name="falloff" type="float" value="2"/>
    <property name="radius" type="float" value="2"/>
    <property name="shadows" type="bool" value="false"/>
    <property name="startActive" type="bool" value="true"/>
   </properties>
   <point/>
  </object>
  <object id="297" class="light" x="1008" y="1008">
   <properties>
    <property name="angle" type="float" value="270"/>
    <property name="brightness" type="float" value="3"/>
    <property name="color" type="color" value="#fffbffef"/>
    <property name="dirRadius" type="float" value="80"/>
    <property name="directional" type="bool" value="false"/>
    <property name="falloff" type="float" value="2"/>
    <property name="radius" type="float" value="3"/>
    <property name="shadows" type="bool" value="false"/>
    <property name="startActive" type="bool" value="true"/>
   </properties>
   <point/>
  </object>
  <object id="298" class="light" x="1504" y="1040">
   <properties>
    <property name="angle" type="float" value="270"/>
    <property name="brightness" type="float" value="3"/>
    <property name="color" type="color" value="#fffbffef"/>
    <property name="dirRadius" type="float" value="80"/>
    <property name="directional" type="bool" value="false"/>
    <property name="falloff" type="float" value="2"/>
    <property name="radius" type="float" value="3"/>
    <property name="shadows" type="bool" value="false"/>
    <property name="startActive" type="bool" value="true"/>
   </properties>
   <point/>
  </object>
 </objectgroup>
 <objectgroup color="#7de8b9" id="12" name="deco">
  <object id="358" class="prop" gid="122" x="1877.85" y="420" width="35" height="20">
   <properties>
    <property name="foreground" type="bool" value="true"/>
    <property name="noDestroy" type="bool" value="true"/>
    <property name="rotationMult" type="float" value="1"/>
    <property name="squib" type="int" value="-1"/>
    <property name="squibSE" value=""/>
    <property name="static" type="bool" value="false"/>
   </properties>
  </object>
  <object id="359" class="prop" gid="123" x="1865" y="424" width="26" height="23" rotation="346.74">
   <properties>
    <property name="foreground" type="bool" value="true"/>
    <property name="noDestroy" type="bool" value="true"/>
    <property name="rotationMult" type="float" value="1"/>
    <property name="squib" type="int" value="-1"/>
    <property name="squibSE" value=""/>
    <property name="static" type="bool" value="false"/>
   </properties>
  </object>
  <object id="360" class="prop" gid="124" x="1905" y="421" width="32" height="20">
   <properties>
    <property name="foreground" type="bool" value="true"/>
    <property name="noDestroy" type="bool" value="true"/>
    <property name="rotationMult" type="float" value="1"/>
    <property name="squib" type="int" value="-1"/>
    <property name="squibSE" value=""/>
    <property name="static" type="bool" value="false"/>
   </properties>
  </object>
  <object id="361" class="prop" gid="125" x="1831" y="421" width="24" height="22" rotation="7.04443">
   <properties>
    <property name="foreground" type="bool" value="true"/>
    <property name="noDestroy" type="bool" value="true"/>
    <property name="rotationMult" type="float" value="1"/>
    <property name="squib" type="int" value="-1"/>
    <property name="squibSE" value=""/>
    <property name="static" type="bool" value="false"/>
   </properties>
  </object>
  <object id="362" class="prop" gid="122" x="1812" y="422.79" width="35" height="20" rotation="353.944">
   <properties>
    <property name="foreground" type="bool" value="true"/>
    <property name="noDestroy" type="bool" value="true"/>
    <property name="rotationMult" type="float" value="1"/>
    <property name="squib" type="int" value="-1"/>
    <property name="squibSE" value=""/>
    <property name="static" type="bool" value="false"/>
   </properties>
  </object>
  <object id="363" class="prop" gid="123" x="1843" y="422" width="26" height="23">
   <properties>
    <property name="foreground" type="bool" value="true"/>
    <property name="noDestroy" type="bool" value="true"/>
    <property name="rotationMult" type="float" value="1"/>
    <property name="squib" type="int" value="-1"/>
    <property name="squibSE" value=""/>
    <property name="static" type="bool" value="false"/>
   </properties>
  </object>
  <object id="364" class="prop" gid="125" x="1891.85" y="419" width="24" height="22" rotation="20.7915">
   <properties>
    <property name="foreground" type="bool" value="true"/>
    <property name="noDestroy" type="bool" value="true"/>
    <property name="rotationMult" type="float" value="1"/>
    <property name="squib" type="int" value="-1"/>
    <property name="squibSE" value=""/>
    <property name="static" type="bool" value="false"/>
   </properties>
  </object>
  <object id="365" class="prop" gid="133" x="1894.31" y="338.098" width="47" height="37" rotation="213.605">
   <properties>
    <property name="foreground" type="bool" value="true"/>
    <property name="noDestroy" type="bool" value="true"/>
    <property name="rotationMult" type="float" value="1"/>
    <property name="squib" type="int" value="-1"/>
    <property name="squibSE" value=""/>
    <property name="static" type="bool" value="true"/>
   </properties>
  </object>
  <object id="366" class="prop" gid="133" x="1916" y="312" width="47" height="37" rotation="163.649">
   <properties>
    <property name="foreground" type="bool" value="true"/>
    <property name="noDestroy" type="bool" value="true"/>
    <property name="rotationMult" type="float" value="1"/>
    <property name="squib" type="int" value="-1"/>
    <property name="squibSE" value=""/>
    <property name="static" type="bool" value="true"/>
   </properties>
  </object>
  <object id="367" class="prop" gid="135" x="1957" y="308" width="40" height="44" rotation="178.856">
   <properties>
    <property name="foreground" type="bool" value="true"/>
    <property name="noDestroy" type="bool" value="true"/>
    <property name="rotationMult" type="float" value="1"/>
    <property name="squib" type="int" value="-1"/>
    <property name="squibSE" value=""/>
    <property name="static" type="bool" value="true"/>
   </properties>
  </object>
  <object id="368" class="prop" gid="136" x="1979" y="318" width="40" height="39" rotation="168.622">
   <properties>
    <property name="foreground" type="bool" value="true"/>
    <property name="noDestroy" type="bool" value="true"/>
    <property name="rotationMult" type="float" value="1"/>
    <property name="squib" type="int" value="-1"/>
    <property name="squibSE" value=""/>
    <property name="static" type="bool" value="true"/>
   </properties>
  </object>
  <object id="369" class="prop" gid="134" x="1997" y="302" width="34" height="46" rotation="141.513">
   <properties>
    <property name="foreground" type="bool" value="true"/>
    <property name="noDestroy" type="bool" value="true"/>
    <property name="rotationMult" type="float" value="1"/>
    <property name="squib" type="int" value="-1"/>
    <property name="squibSE" value=""/>
    <property name="static" type="bool" value="true"/>
   </properties>
  </object>
  <object id="370" class="prop" gid="133" x="2049" y="306" width="47" height="37" rotation="170.907">
   <properties>
    <property name="foreground" type="bool" value="true"/>
    <property name="noDestroy" type="bool" value="true"/>
    <property name="rotationMult" type="float" value="1"/>
    <property name="squib" type="int" value="-1"/>
    <property name="squibSE" value=""/>
    <property name="static" type="bool" value="true"/>
   </properties>
  </object>
  <object id="371" class="prop" gid="133" x="2052" y="298" width="47" height="37" rotation="121.468">
   <properties>
    <property name="foreground" type="bool" value="true"/>
    <property name="noDestroy" type="bool" value="true"/>
    <property name="rotationMult" type="float" value="1"/>
    <property name="squib" type="int" value="-1"/>
    <property name="squibSE" value=""/>
    <property name="static" type="bool" value="true"/>
   </properties>
  </object>
  <object id="372" class="prop" gid="137" x="2079.41" y="334.56" width="25" height="23" rotation="149.868">
   <properties>
    <property name="foreground" type="bool" value="true"/>
    <property name="noDestroy" type="bool" value="true"/>
    <property name="rotationMult" type="float" value="1"/>
    <property name="squib" type="int" value="-1"/>
    <property name="squibSE" value=""/>
    <property name="static" type="bool" value="true"/>
   </properties>
  </object>
  <object id="373" class="prop" gid="137" x="1987" y="333" width="25" height="23" rotation="149.868">
   <properties>
    <property name="foreground" type="bool" value="true"/>
    <property name="noDestroy" type="bool" value="true"/>
    <property name="rotationMult" type="float" value="1"/>
    <property name="squib" type="int" value="-1"/>
    <property name="squibSE" value=""/>
    <property name="static" type="bool" value="true"/>
   </properties>
  </object>
  <object id="374" class="prop" gid="138" x="1930" y="354" width="24" height="18" rotation="242.083">
   <properties>
    <property name="foreground" type="bool" value="true"/>
    <property name="noDestroy" type="bool" value="true"/>
    <property name="rotationMult" type="float" value="1"/>
    <property name="squib" type="int" value="-1"/>
    <property name="squibSE" value=""/>
    <property name="static" type="bool" value="true"/>
   </properties>
  </object>
  <object id="375" class="prop" gid="124" x="1991" y="450" width="32" height="20" rotation="40.7416">
   <properties>
    <property name="foreground" type="bool" value="true"/>
    <property name="noDestroy" type="bool" value="true"/>
    <property name="rotationMult" type="float" value="1"/>
    <property name="squib" type="int" value="-1"/>
    <property name="squibSE" value=""/>
    <property name="static" type="bool" value="false"/>
   </properties>
  </object>
  <object id="376" class="prop" gid="122" x="1980" y="460" width="35" height="20" rotation="349.024">
   <properties>
    <property name="foreground" type="bool" value="true"/>
    <property name="noDestroy" type="bool" value="true"/>
    <property name="rotationMult" type="float" value="1"/>
    <property name="squib" type="int" value="-1"/>
    <property name="squibSE" value=""/>
    <property name="static" type="bool" value="false"/>
   </properties>
  </object>
  <object id="377" class="prop" gid="170" x="1960" y="443" width="20" height="27" rotation="18.77">
   <properties>
    <property name="foreground" type="bool" value="true"/>
    <property name="noDestroy" type="bool" value="true"/>
    <property name="rotationMult" type="float" value="1"/>
    <property name="squib" type="int" value="-1"/>
    <property name="squibSE" value=""/>
    <property name="static" type="bool" value="false"/>
   </properties>
  </object>
  <object id="378" class="prop" gid="169" x="1947" y="438" width="20" height="29" rotation="5.08043">
   <properties>
    <property name="foreground" type="bool" value="true"/>
    <property name="noDestroy" type="bool" value="true"/>
    <property name="rotationMult" type="float" value="1"/>
    <property name="squib" type="int" value="-1"/>
    <property name="squibSE" value=""/>
    <property name="static" type="bool" value="false"/>
   </properties>
  </object>
  <object id="379" class="prop" gid="168" x="1927" y="418" width="13" height="26" rotation="5.08043">
   <properties>
    <property name="foreground" type="bool" value="true"/>
    <property name="noDestroy" type="bool" value="true"/>
    <property name="rotationMult" type="float" value="1"/>
    <property name="squib" type="int" value="-1"/>
    <property name="squibSE" value=""/>
    <property name="static" type="bool" value="false"/>
   </properties>
  </object>
  <object id="380" class="prop" gid="167" x="1929" y="414" width="13" height="27" rotation="44.2496">
   <properties>
    <property name="foreground" type="bool" value="true"/>
    <property name="noDestroy" type="bool" value="true"/>
    <property name="rotationMult" type="float" value="1"/>
    <property name="squib" type="int" value="-1"/>
    <property name="squibSE" value=""/>
    <property name="static" type="bool" value="false"/>
   </properties>
  </object>
  <object id="381" class="prop" gid="146" x="2055" y="379" width="42" height="33" rotation="16.8345">
   <properties>
    <property name="foreground" type="bool" value="false"/>
    <property name="noDestroy" type="bool" value="true"/>
    <property name="rotationMult" type="float" value="1"/>
    <property name="squib" type="int" value="-1"/>
    <property name="squibSE" value=""/>
    <property name="static" type="bool" value="true"/>
   </properties>
  </object>
  <object id="382" class="prop" gid="170" x="1802" y="420" width="20" height="27" rotation="343.547">
   <properties>
    <property name="foreground" type="bool" value="true"/>
    <property name="noDestroy" type="bool" value="true"/>
    <property name="rotationMult" type="float" value="1"/>
    <property name="squib" type="int" value="-1"/>
    <property name="squibSE" value=""/>
    <property name="static" type="bool" value="false"/>
   </properties>
  </object>
  <object id="383" class="prop" gid="169" x="1780" y="417" width="20" height="29" rotation="5.08043">
   <properties>
    <property name="foreground" type="bool" value="true"/>
    <property name="noDestroy" type="bool" value="true"/>
    <property name="rotationMult" type="float" value="1"/>
    <property name="squib" type="int" value="-1"/>
    <property name="squibSE" value=""/>
    <property name="static" type="bool" value="false"/>
   </properties>
  </object>
  <object id="384" class="prop" gid="128" x="1761" y="419" width="26" height="19" rotation="2.18209">
   <properties>
    <property name="foreground" type="bool" value="true"/>
    <property name="noDestroy" type="bool" value="true"/>
    <property name="rotationMult" type="float" value="1"/>
    <property name="squib" type="int" value="-1"/>
    <property name="squibSE" value=""/>
    <property name="static" type="bool" value="false"/>
   </properties>
  </object>
  <object id="385" class="prop" gid="169" x="1747" y="418" width="20" height="29" rotation="5.08043">
   <properties>
    <property name="foreground" type="bool" value="true"/>
    <property name="noDestroy" type="bool" value="true"/>
    <property name="rotationMult" type="float" value="1"/>
    <property name="squib" type="int" value="-1"/>
    <property name="squibSE" value=""/>
    <property name="static" type="bool" value="false"/>
   </properties>
  </object>
  <object id="386" class="prop" gid="129" x="1733.89" y="418.232" width="22" height="14" rotation="353.32">
   <properties>
    <property name="foreground" type="bool" value="true"/>
    <property name="noDestroy" type="bool" value="true"/>
    <property name="rotationMult" type="float" value="1"/>
    <property name="squib" type="int" value="-1"/>
    <property name="squibSE" value=""/>
    <property name="static" type="bool" value="false"/>
   </properties>
  </object>
  <object id="387" class="prop" gid="122" x="1709.85" y="418.609" width="35" height="20" rotation="4.90594">
   <properties>
    <property name="foreground" type="bool" value="true"/>
    <property name="noDestroy" type="bool" value="true"/>
    <property name="rotationMult" type="float" value="1"/>
    <property name="squib" type="int" value="-1"/>
    <property name="squibSE" value=""/>
    <property name="static" type="bool" value="false"/>
   </properties>
  </object>
  <object id="388" class="prop" gid="123" x="1703.09" y="421.999" width="26" height="23" rotation="350.442">
   <properties>
    <property name="foreground" type="bool" value="true"/>
    <property name="noDestroy" type="bool" value="true"/>
    <property name="rotationMult" type="float" value="1"/>
    <property name="squib" type="int" value="-1"/>
    <property name="squibSE" value=""/>
    <property name="static" type="bool" value="false"/>
   </properties>
  </object>
  <object id="389" class="prop" gid="123" x="1647.38" y="418.366" width="26" height="23" rotation="15.7439">
   <properties>
    <property name="foreground" type="bool" value="true"/>
    <property name="noDestroy" type="bool" value="true"/>
    <property name="rotationMult" type="float" value="1"/>
    <property name="squib" type="int" value="-1"/>
    <property name="squibSE" value=""/>
    <property name="static" type="bool" value="false"/>
   </properties>
  </object>
  <object id="390" class="prop" gid="122" x="1663.24" y="419.535" width="35" height="20" rotation="4.69192">
   <properties>
    <property name="foreground" type="bool" value="true"/>
    <property name="noDestroy" type="bool" value="true"/>
    <property name="rotationMult" type="float" value="1"/>
    <property name="squib" type="int" value="-1"/>
    <property name="squibSE" value=""/>
    <property name="static" type="bool" value="false"/>
   </properties>
  </object>
  <object id="391" class="prop" gid="169" x="1688.01" y="418.442" width="20" height="29" rotation="357.023">
   <properties>
    <property name="foreground" type="bool" value="true"/>
    <property name="noDestroy" type="bool" value="true"/>
    <property name="rotationMult" type="float" value="1"/>
    <property name="squib" type="int" value="-1"/>
    <property name="squibSE" value=""/>
    <property name="static" type="bool" value="false"/>
   </properties>
  </object>
  <object id="392" class="prop" gid="131" x="1697" y="419" width="11" height="13" rotation="5.08043">
   <properties>
    <property name="foreground" type="bool" value="true"/>
    <property name="noDestroy" type="bool" value="true"/>
    <property name="rotationMult" type="float" value="1"/>
    <property name="squib" type="int" value="-1"/>
    <property name="squibSE" value=""/>
    <property name="static" type="bool" value="false"/>
   </properties>
  </object>
  <object id="393" class="prop" gid="131" x="1770" y="418" width="11" height="13" rotation="358.432">
   <properties>
    <property name="foreground" type="bool" value="true"/>
    <property name="noDestroy" type="bool" value="true"/>
    <property name="rotationMult" type="float" value="1"/>
    <property name="squib" type="int" value="-1"/>
    <property name="squibSE" value=""/>
    <property name="static" type="bool" value="false"/>
   </properties>
  </object>
  <object id="394" class="prop" gid="131" x="1645" y="417" width="11" height="13" rotation="358.432">
   <properties>
    <property name="foreground" type="bool" value="true"/>
    <property name="noDestroy" type="bool" value="true"/>
    <property name="rotationMult" type="float" value="1"/>
    <property name="squib" type="int" value="-1"/>
    <property name="squibSE" value=""/>
    <property name="static" type="bool" value="false"/>
   </properties>
  </object>
  <object id="395" class="prop" gid="128" x="1625" y="420" width="26" height="19" rotation="1.53143">
   <properties>
    <property name="foreground" type="bool" value="true"/>
    <property name="noDestroy" type="bool" value="true"/>
    <property name="rotationMult" type="float" value="1"/>
    <property name="squib" type="int" value="-1"/>
    <property name="squibSE" value=""/>
    <property name="static" type="bool" value="false"/>
   </properties>
  </object>
  <object id="396" class="prop" gid="122" x="1604" y="430" width="35" height="20" rotation="335.963">
   <properties>
    <property name="foreground" type="bool" value="true"/>
    <property name="noDestroy" type="bool" value="true"/>
    <property name="rotationMult" type="float" value="1"/>
    <property name="squib" type="int" value="-1"/>
    <property name="squibSE" value=""/>
    <property name="static" type="bool" value="false"/>
   </properties>
  </object>
  <object id="398" class="prop" gid="167" x="1653" y="417" width="13" height="27" rotation="346.537">
   <properties>
    <property name="foreground" type="bool" value="true"/>
    <property name="noDestroy" type="bool" value="true"/>
    <property name="rotationMult" type="float" value="1"/>
    <property name="squib" type="int" value="-1"/>
    <property name="squibSE" value=""/>
    <property name="static" type="bool" value="false"/>
   </properties>
  </object>
  <object id="399" class="prop" gid="167" x="1717.96" y="415.167" width="13" height="27" rotation="12.2755">
   <properties>
    <property name="foreground" type="bool" value="true"/>
    <property name="noDestroy" type="bool" value="true"/>
    <property name="rotationMult" type="float" value="1"/>
    <property name="squib" type="int" value="-1"/>
    <property name="squibSE" value=""/>
    <property name="static" type="bool" value="false"/>
   </properties>
  </object>
  <object id="400" class="prop" gid="168" x="1852.24" y="415.211" width="13" height="26" rotation="11.9861">
   <properties>
    <property name="foreground" type="bool" value="true"/>
    <property name="noDestroy" type="bool" value="true"/>
    <property name="rotationMult" type="float" value="1"/>
    <property name="squib" type="int" value="-1"/>
    <property name="squibSE" value=""/>
    <property name="static" type="bool" value="false"/>
   </properties>
  </object>
  <object id="401" class="prop" gid="167" x="1604" y="419" width="13" height="27" rotation="346.537">
   <properties>
    <property name="foreground" type="bool" value="true"/>
    <property name="noDestroy" type="bool" value="true"/>
    <property name="rotationMult" type="float" value="1"/>
    <property name="squib" type="int" value="-1"/>
    <property name="squibSE" value=""/>
    <property name="static" type="bool" value="false"/>
   </properties>
  </object>
  <object id="402" class="prop" gid="168" x="1604" y="424" width="13" height="26" rotation="313.23">
   <properties>
    <property name="foreground" type="bool" value="true"/>
    <property name="noDestroy" type="bool" value="true"/>
    <property name="rotationMult" type="float" value="1"/>
    <property name="squib" type="int" value="-1"/>
    <property name="squibSE" value=""/>
    <property name="static" type="bool" value="false"/>
   </properties>
  </object>
  <object id="403" class="prop" gid="138" x="1826.15" y="324.743" width="24" height="18" rotation="149.283">
   <properties>
    <property name="foreground" type="bool" value="true"/>
    <property name="noDestroy" type="bool" value="true"/>
    <property name="rotationMult" type="float" value="1"/>
    <property name="squib" type="int" value="-1"/>
    <property name="squibSE" value=""/>
    <property name="static" type="bool" value="true"/>
   </properties>
  </object>
  <object id="404" class="prop" gid="137" x="1812" y="329" width="25" height="23" rotation="186.396">
   <properties>
    <property name="foreground" type="bool" value="true"/>
    <property name="noDestroy" type="bool" value="true"/>
    <property name="rotationMult" type="float" value="1"/>
    <property name="squib" type="int" value="-1"/>
    <property name="squibSE" value=""/>
    <property name="static" type="bool" value="true"/>
   </properties>
  </object>
  <object id="405" class="prop" gid="138" x="1743" y="330" width="24" height="18" rotation="186.396">
   <properties>
    <property name="foreground" type="bool" value="true"/>
    <property name="noDestroy" type="bool" value="true"/>
    <property name="rotationMult" type="float" value="1"/>
    <property name="squib" type="int" value="-1"/>
    <property name="squibSE" value=""/>
    <property name="static" type="bool" value="true"/>
   </properties>
  </object>
  <object id="406" class="prop" gid="139" x="1718" y="323" width="27" height="22" rotation="166.814">
   <properties>
    <property name="foreground" type="bool" value="true"/>
    <property name="noDestroy" type="bool" value="true"/>
    <property name="rotationMult" type="float" value="1"/>
    <property name="squib" type="int" value="-1"/>
    <property name="squibSE" value=""/>
    <property name="static" type="bool" value="true"/>
   </properties>
  </object>
  <object id="407" class="prop" gid="140" x="1792" y="331" width="27" height="19" rotation="196.755">
   <properties>
    <property name="foreground" type="bool" value="true"/>
    <property name="noDestroy" type="bool" value="true"/>
    <property name="rotationMult" type="float" value="1"/>
    <property name="squib" type="int" value="-1"/>
    <property name="squibSE" value=""/>
    <property name="static" type="bool" value="true"/>
   </properties>
  </object>
  <object id="408" class="prop" gid="141" x="1665.66" y="331.272" width="25" height="22" rotation="209.953">
   <properties>
    <property name="foreground" type="bool" value="true"/>
    <property name="noDestroy" type="bool" value="true"/>
    <property name="rotationMult" type="float" value="1"/>
    <property name="squib" type="int" value="-1"/>
    <property name="squibSE" value=""/>
    <property name="static" type="bool" value="true"/>
   </properties>
  </object>
  <object id="409" class="prop" gid="137" x="1686.38" y="327.669" width="25" height="23" rotation="194.308">
   <properties>
    <property name="foreground" type="bool" value="true"/>
    <property name="noDestroy" type="bool" value="true"/>
    <property name="rotationMult" type="float" value="1"/>
    <property name="squib" type="int" value="-1"/>
    <property name="squibSE" value=""/>
    <property name="static" type="bool" value="true"/>
   </properties>
  </object>
  <object id="411" class="prop" gid="135" x="1783.5" y="317.062" width="40" height="44" rotation="203.22">
   <properties>
    <property name="foreground" type="bool" value="true"/>
    <property name="noDestroy" type="bool" value="true"/>
    <property name="rotationMult" type="float" value="1"/>
    <property name="squib" type="int" value="-1"/>
    <property name="squibSE" value=""/>
    <property name="static" type="bool" value="true"/>
   </properties>
  </object>
  <object id="412" class="prop" gid="133" x="1722.97" y="311.651" width="47" height="37" rotation="184.15">
   <properties>
    <property name="foreground" type="bool" value="true"/>
    <property name="noDestroy" type="bool" value="true"/>
    <property name="rotationMult" type="float" value="1"/>
    <property name="squib" type="int" value="-1"/>
    <property name="squibSE" value=""/>
    <property name="static" type="bool" value="true"/>
   </properties>
  </object>
  <object id="413" class="prop" gid="133" x="1850" y="305" width="47" height="37" rotation="170.907">
   <properties>
    <property name="foreground" type="bool" value="true"/>
    <property name="noDestroy" type="bool" value="true"/>
    <property name="rotationMult" type="float" value="1"/>
    <property name="squib" type="int" value="-1"/>
    <property name="squibSE" value=""/>
    <property name="static" type="bool" value="true"/>
   </properties>
  </object>
  <object id="415" class="prop" gid="137" x="1807" y="302" width="25" height="23" rotation="166.445">
   <properties>
    <property name="foreground" type="bool" value="true"/>
    <property name="noDestroy" type="bool" value="true"/>
    <property name="rotationMult" type="float" value="1"/>
    <property name="squib" type="int" value="-1"/>
    <property name="squibSE" value=""/>
    <property name="static" type="bool" value="true"/>
   </properties>
  </object>
  <object id="416" class="prop" gid="144" x="1739" y="304" width="20" height="17" rotation="166.814">
   <properties>
    <property name="foreground" type="bool" value="true"/>
    <property name="noDestroy" type="bool" value="true"/>
    <property name="rotationMult" type="float" value="1"/>
    <property name="squib" type="int" value="-1"/>
    <property name="squibSE" value=""/>
    <property name="static" type="bool" value="true"/>
   </properties>
  </object>
  <object id="418" class="prop" gid="137" x="1571.95" y="328.445" width="25" height="23" rotation="217.178">
   <properties>
    <property name="foreground" type="bool" value="true"/>
    <property name="noDestroy" type="bool" value="true"/>
    <property name="rotationMult" type="float" value="1"/>
    <property name="squib" type="int" value="-1"/>
    <property name="squibSE" value=""/>
    <property name="static" type="bool" value="true"/>
   </properties>
  </object>
  <object id="419" class="prop" gid="145" x="1584" y="327" width="14" height="18" rotation="189.748">
   <properties>
    <property name="foreground" type="bool" value="true"/>
    <property name="noDestroy" type="bool" value="true"/>
    <property name="rotationMult" type="float" value="1"/>
    <property name="squib" type="int" value="-1"/>
    <property name="squibSE" value=""/>
    <property name="static" type="bool" value="true"/>
   </properties>
  </object>
  <object id="420" class="prop" gid="139" x="1615" y="328" width="27" height="22" rotation="191.141">
   <properties>
    <property name="foreground" type="bool" value="true"/>
    <property name="noDestroy" type="bool" value="true"/>
    <property name="rotationMult" type="float" value="1"/>
    <property name="squib" type="int" value="-1"/>
    <property name="squibSE" value=""/>
    <property name="static" type="bool" value="true"/>
   </properties>
  </object>
  <object id="421" class="prop" gid="145" x="1658" y="311" width="14" height="18" rotation="209.953">
   <properties>
    <property name="foreground" type="bool" value="true"/>
    <property name="noDestroy" type="bool" value="true"/>
    <property name="rotationMult" type="float" value="1"/>
    <property name="squib" type="int" value="-1"/>
    <property name="squibSE" value=""/>
    <property name="static" type="bool" value="true"/>
   </properties>
  </object>
  <object id="422" class="prop" gid="134" x="1623" y="299" width="34" height="46" rotation="150.93">
   <properties>
    <property name="foreground" type="bool" value="true"/>
    <property name="noDestroy" type="bool" value="true"/>
    <property name="rotationMult" type="float" value="1"/>
    <property name="squib" type="int" value="-1"/>
    <property name="squibSE" value=""/>
    <property name="static" type="bool" value="true"/>
   </properties>
  </object>
  <object id="423" class="prop" gid="157" x="1674" y="356" width="35" height="12">
   <properties>
    <property name="foreground" type="bool" value="true"/>
    <property name="noDestroy" type="bool" value="true"/>
    <property name="rotationMult" type="float" value="1"/>
    <property name="squib" type="int" value="-1"/>
    <property name="squibSE" value=""/>
    <property name="static" type="bool" value="true"/>
   </properties>
  </object>
  <object id="424" class="prop" gid="158" x="1697" y="360" width="44" height="15">
   <properties>
    <property name="foreground" type="bool" value="true"/>
    <property name="noDestroy" type="bool" value="true"/>
    <property name="rotationMult" type="float" value="1"/>
    <property name="squib" type="int" value="-1"/>
    <property name="squibSE" value=""/>
    <property name="static" type="bool" value="true"/>
   </properties>
  </object>
  <object id="425" class="prop" gid="157" x="1753" y="357" width="35" height="12">
   <properties>
    <property name="foreground" type="bool" value="true"/>
    <property name="noDestroy" type="bool" value="true"/>
    <property name="rotationMult" type="float" value="1"/>
    <property name="squib" type="int" value="-1"/>
    <property name="squibSE" value=""/>
    <property name="static" type="bool" value="true"/>
   </properties>
  </object>
  <object id="426" class="prop" gid="159" x="1791" y="358" width="55" height="13">
   <properties>
    <property name="foreground" type="bool" value="true"/>
    <property name="noDestroy" type="bool" value="true"/>
    <property name="rotationMult" type="float" value="1"/>
    <property name="squib" type="int" value="-1"/>
    <property name="squibSE" value=""/>
    <property name="static" type="bool" value="true"/>
   </properties>
  </object>
  <object id="427" class="prop" gid="158" x="1819" y="357" width="44" height="15" rotation="20.1243">
   <properties>
    <property name="foreground" type="bool" value="true"/>
    <property name="noDestroy" type="bool" value="true"/>
    <property name="rotationMult" type="float" value="1"/>
    <property name="squib" type="int" value="-1"/>
    <property name="squibSE" value=""/>
    <property name="static" type="bool" value="true"/>
   </properties>
  </object>
  <object id="428" class="prop" gid="147" x="1459" y="345" width="34" height="40" rotation="35.378">
   <properties>
    <property name="foreground" type="bool" value="false"/>
    <property name="noDestroy" type="bool" value="true"/>
    <property name="rotationMult" type="float" value="1"/>
    <property name="squib" type="int" value="-1"/>
    <property name="squibSE" value=""/>
    <property name="static" type="bool" value="true"/>
   </properties>
  </object>
  <object id="429" class="prop" gid="164" x="2019" y="388" width="29" height="43">
   <properties>
    <property name="foreground" type="bool" value="true"/>
    <property name="noDestroy" type="bool" value="true"/>
    <property name="rotationMult" type="float" value="1"/>
    <property name="squib" type="int" value="-1"/>
    <property name="squibSE" value=""/>
    <property name="static" type="bool" value="true"/>
   </properties>
  </object>
  <object id="430" class="prop" gid="161" x="1976" y="394" width="18" height="45">
   <properties>
    <property name="foreground" type="bool" value="true"/>
    <property name="noDestroy" type="bool" value="true"/>
    <property name="rotationMult" type="float" value="1"/>
    <property name="squib" type="int" value="-1"/>
    <property name="squibSE" value=""/>
    <property name="static" type="bool" value="true"/>
   </properties>
  </object>
  <object id="431" class="prop" gid="157" x="1889" y="368" width="35" height="12">
   <properties>
    <property name="foreground" type="bool" value="true"/>
    <property name="noDestroy" type="bool" value="true"/>
    <property name="rotationMult" type="float" value="1"/>
    <property name="squib" type="int" value="-1"/>
    <property name="squibSE" value=""/>
    <property name="static" type="bool" value="true"/>
   </properties>
  </object>
  <object id="432" class="prop" gid="158" x="1918" y="374" width="44" height="15">
   <properties>
    <property name="foreground" type="bool" value="true"/>
    <property name="noDestroy" type="bool" value="true"/>
    <property name="rotationMult" type="float" value="1"/>
    <property name="squib" type="int" value="-1"/>
    <property name="squibSE" value=""/>
    <property name="static" type="bool" value="true"/>
   </properties>
  </object>
  <object id="433" class="prop" gid="172" x="1541" y="372" width="18" height="37">
   <properties>
    <property name="foreground" type="bool" value="true"/>
    <property name="noDestroy" type="bool" value="true"/>
    <property name="rotationMult" type="float" value="1"/>
    <property name="squib" type="int" value="-1"/>
    <property name="squibSE" value=""/>
    <property name="static" type="bool" value="true"/>
   </properties>
  </object>
  <object id="434" class="prop" gid="171" x="1589" y="374" width="18" height="29">
   <properties>
    <property name="foreground" type="bool" value="true"/>
    <property name="noDestroy" type="bool" value="true"/>
    <property name="rotationMult" type="float" value="1"/>
    <property name="squib" type="int" value="-1"/>
    <property name="squibSE" value=""/>
    <property name="static" type="bool" value="true"/>
   </properties>
  </object>
  <object id="435" class="prop" gid="155" x="1618" y="374" width="47" height="33">
   <properties>
    <property name="foreground" type="bool" value="true"/>
    <property name="noDestroy" type="bool" value="true"/>
    <property name="rotationMult" type="float" value="1"/>
    <property name="squib" type="int" value="-1"/>
    <property name="squibSE" value=""/>
    <property name="static" type="bool" value="true"/>
   </properties>
  </object>
  <object id="436" class="prop" gid="153" x="2003" y="374" width="19" height="19" rotation="335.734">
   <properties>
    <property name="foreground" type="bool" value="false"/>
    <property name="noDestroy" type="bool" value="true"/>
    <property name="rotationMult" type="float" value="1"/>
    <property name="squib" type="int" value="-1"/>
    <property name="squibSE" value=""/>
    <property name="static" type="bool" value="true"/>
   </properties>
  </object>
  <object id="437" class="prop" gid="152" x="1870" y="379" width="19" height="25" rotation="2.99698">
   <properties>
    <property name="foreground" type="bool" value="false"/>
    <property name="noDestroy" type="bool" value="true"/>
    <property name="rotationMult" type="float" value="1"/>
    <property name="squib" type="int" value="-1"/>
    <property name="squibSE" value=""/>
    <property name="static" type="bool" value="true"/>
   </properties>
  </object>
  <object id="438" class="prop" gid="151" x="1779" y="381" width="21" height="34" rotation="2.99698">
   <properties>
    <property name="foreground" type="bool" value="false"/>
    <property name="noDestroy" type="bool" value="true"/>
    <property name="rotationMult" type="float" value="1"/>
    <property name="squib" type="int" value="-1"/>
    <property name="squibSE" value=""/>
    <property name="static" type="bool" value="true"/>
   </properties>
  </object>
  <object id="439" class="prop" gid="154" x="1652" y="371" width="26" height="28" rotation="2.99698">
   <properties>
    <property name="foreground" type="bool" value="false"/>
    <property name="noDestroy" type="bool" value="true"/>
    <property name="rotationMult" type="float" value="1"/>
    <property name="squib" type="int" value="-1"/>
    <property name="squibSE" value=""/>
    <property name="static" type="bool" value="true"/>
   </properties>
  </object>
  <object id="440" class="prop" gid="150" x="2081" y="407" width="27" height="41" rotation="5.55483">
   <properties>
    <property name="foreground" type="bool" value="false"/>
    <property name="noDestroy" type="bool" value="true"/>
    <property name="rotationMult" type="float" value="1"/>
    <property name="squib" type="int" value="-1"/>
    <property name="squibSE" value=""/>
    <property name="static" type="bool" value="true"/>
   </properties>
  </object>
  <object id="441" class="prop" gid="153" x="2095" y="396" width="19" height="19" rotation="18.7698">
   <properties>
    <property name="foreground" type="bool" value="false"/>
    <property name="noDestroy" type="bool" value="true"/>
    <property name="rotationMult" type="float" value="1"/>
    <property name="squib" type="int" value="-1"/>
    <property name="squibSE" value=""/>
    <property name="static" type="bool" value="true"/>
   </properties>
  </object>
  <object id="442" class="prop" gid="662" x="1998" y="465" width="44" height="37" rotation="101.068">
   <properties>
    <property name="foreground" type="bool" value="true"/>
    <property name="noDestroy" type="bool" value="true"/>
    <property name="rotationMult" type="float" value="1"/>
    <property name="squib" type="int" value="-1"/>
    <property name="squibSE" value=""/>
    <property name="static" type="bool" value="true"/>
   </properties>
  </object>
  <object id="602" class="prop" gid="663" x="2113" y="458" width="33" height="46" rotation="326.244">
   <properties>
    <property name="foreground" type="bool" value="true"/>
    <property name="noDestroy" type="bool" value="true"/>
    <property name="rotationMult" type="float" value="1"/>
    <property name="squib" type="int" value="-1"/>
    <property name="squibSE" value=""/>
    <property name="static" type="bool" value="true"/>
   </properties>
  </object>
  <object id="444" class="prop" gid="664" x="2112" y="518" width="40" height="43" rotation="320.567">
   <properties>
    <property name="foreground" type="bool" value="true"/>
    <property name="noDestroy" type="bool" value="true"/>
    <property name="rotationMult" type="float" value="1"/>
    <property name="squib" type="int" value="-1"/>
    <property name="squibSE" value=""/>
    <property name="static" type="bool" value="true"/>
   </properties>
  </object>
  <object id="445" class="prop" gid="665" x="2102" y="541" width="40" height="39" rotation="357.993">
   <properties>
    <property name="foreground" type="bool" value="true"/>
    <property name="noDestroy" type="bool" value="true"/>
    <property name="rotationMult" type="float" value="1"/>
    <property name="squib" type="int" value="-1"/>
    <property name="squibSE" value=""/>
    <property name="static" type="bool" value="true"/>
   </properties>
  </object>
  <object id="446" class="prop" gid="150" x="2087" y="577" width="27" height="41" rotation="16.8345">
   <properties>
    <property name="foreground" type="bool" value="false"/>
    <property name="noDestroy" type="bool" value="true"/>
    <property name="rotationMult" type="float" value="1"/>
    <property name="squib" type="int" value="-1"/>
    <property name="squibSE" value=""/>
    <property name="static" type="bool" value="true"/>
   </properties>
  </object>
  <object id="447" class="prop" gid="149" x="2032" y="540" width="17" height="28" rotation="305.505">
   <properties>
    <property name="foreground" type="bool" value="false"/>
    <property name="noDestroy" type="bool" value="true"/>
    <property name="rotationMult" type="float" value="1"/>
    <property name="squib" type="int" value="-1"/>
    <property name="squibSE" value=""/>
    <property name="static" type="bool" value="true"/>
   </properties>
  </object>
  <object id="448" class="prop" gid="148" x="2016" y="558" width="21" height="37" rotation="333.834">
   <properties>
    <property name="foreground" type="bool" value="false"/>
    <property name="noDestroy" type="bool" value="true"/>
    <property name="rotationMult" type="float" value="1"/>
    <property name="squib" type="int" value="-1"/>
    <property name="squibSE" value=""/>
    <property name="static" type="bool" value="true"/>
   </properties>
  </object>
  <object id="449" class="prop" gid="668" x="2012" y="560" width="26" height="21" rotation="113.27">
   <properties>
    <property name="foreground" type="bool" value="true"/>
    <property name="noDestroy" type="bool" value="true"/>
    <property name="rotationMult" type="float" value="1"/>
    <property name="squib" type="int" value="-1"/>
    <property name="squibSE" value=""/>
    <property name="static" type="bool" value="true"/>
   </properties>
  </object>
  <object id="451" class="prop" gid="592" x="2102" y="484" width="28" height="16" rotation="326.718">
   <properties>
    <property name="foreground" type="bool" value="true"/>
    <property name="noDestroy" type="bool" value="true"/>
    <property name="rotationMult" type="float" value="1"/>
    <property name="squib" type="int" value="-1"/>
    <property name="squibSE" value=""/>
    <property name="static" type="bool" value="true"/>
   </properties>
  </object>
  <object id="452" class="prop" gid="593" x="2104" y="492" width="24" height="15" rotation="302.085">
   <properties>
    <property name="foreground" type="bool" value="true"/>
    <property name="noDestroy" type="bool" value="true"/>
    <property name="rotationMult" type="float" value="1"/>
    <property name="squib" type="int" value="-1"/>
    <property name="squibSE" value=""/>
    <property name="static" type="bool" value="true"/>
   </properties>
  </object>
  <object id="453" class="prop" gid="594" x="2100" y="420" width="24" height="16" rotation="354.411">
   <properties>
    <property name="foreground" type="bool" value="true"/>
    <property name="noDestroy" type="bool" value="true"/>
    <property name="rotationMult" type="float" value="1"/>
    <property name="squib" type="int" value="-1"/>
    <property name="squibSE" value=""/>
    <property name="static" type="bool" value="true"/>
   </properties>
  </object>
  <object id="454" class="prop" gid="593" x="2103" y="433" width="24" height="15" rotation="302.085">
   <properties>
    <property name="foreground" type="bool" value="true"/>
    <property name="noDestroy" type="bool" value="true"/>
    <property name="rotationMult" type="float" value="1"/>
    <property name="squib" type="int" value="-1"/>
    <property name="squibSE" value=""/>
    <property name="static" type="bool" value="true"/>
   </properties>
  </object>
  <object id="455" class="prop" gid="596" x="2115.29" y="518.658" width="22" height="18" rotation="336.673">
   <properties>
    <property name="foreground" type="bool" value="true"/>
    <property name="noDestroy" type="bool" value="true"/>
    <property name="rotationMult" type="float" value="1"/>
    <property name="squib" type="int" value="-1"/>
    <property name="squibSE" value=""/>
    <property name="static" type="bool" value="true"/>
   </properties>
  </object>
  <object id="456" class="prop" gid="596" x="2111.51" y="525.448" width="22" height="18" rotation="317.472">
   <properties>
    <property name="foreground" type="bool" value="true"/>
    <property name="noDestroy" type="bool" value="true"/>
    <property name="rotationMult" type="float" value="1"/>
    <property name="squib" type="int" value="-1"/>
    <property name="squibSE" value=""/>
    <property name="static" type="bool" value="true"/>
   </properties>
  </object>
  <object id="457" class="prop" gid="593" x="2006" y="468" width="24" height="15" rotation="46.1819">
   <properties>
    <property name="foreground" type="bool" value="true"/>
    <property name="noDestroy" type="bool" value="true"/>
    <property name="rotationMult" type="float" value="1"/>
    <property name="squib" type="int" value="-1"/>
    <property name="squibSE" value=""/>
    <property name="static" type="bool" value="true"/>
   </properties>
  </object>
  <object id="458" class="prop" gid="593" x="2020" y="474" width="24" height="15" rotation="86.1726">
   <properties>
    <property name="foreground" type="bool" value="true"/>
    <property name="noDestroy" type="bool" value="true"/>
    <property name="rotationMult" type="float" value="1"/>
    <property name="squib" type="int" value="-1"/>
    <property name="squibSE" value=""/>
    <property name="static" type="bool" value="true"/>
   </properties>
  </object>
  <object id="459" class="prop" gid="664" x="2096" y="623" width="40" height="43" rotation="1.07856">
   <properties>
    <property name="foreground" type="bool" value="true"/>
    <property name="noDestroy" type="bool" value="true"/>
    <property name="rotationMult" type="float" value="1"/>
    <property name="squib" type="int" value="-1"/>
    <property name="squibSE" value=""/>
    <property name="static" type="bool" value="true"/>
   </properties>
  </object>
  <object id="461" class="prop" gid="668" x="2108" y="642" width="26" height="21" rotation="336.518">
   <properties>
    <property name="foreground" type="bool" value="true"/>
    <property name="noDestroy" type="bool" value="true"/>
    <property name="rotationMult" type="float" value="1"/>
    <property name="squib" type="int" value="-1"/>
    <property name="squibSE" value=""/>
    <property name="static" type="bool" value="true"/>
   </properties>
  </object>
  <object id="462" class="prop" gid="592" x="2100" y="617" width="28" height="16" rotation="298.772">
   <properties>
    <property name="foreground" type="bool" value="true"/>
    <property name="noDestroy" type="bool" value="true"/>
    <property name="rotationMult" type="float" value="1"/>
    <property name="squib" type="int" value="-1"/>
    <property name="squibSE" value=""/>
    <property name="static" type="bool" value="true"/>
   </properties>
  </object>
  <object id="463" class="prop" gid="596" x="2104" y="601" width="22" height="18" rotation="336.673">
   <properties>
    <property name="foreground" type="bool" value="true"/>
    <property name="noDestroy" type="bool" value="true"/>
    <property name="rotationMult" type="float" value="1"/>
    <property name="squib" type="int" value="-1"/>
    <property name="squibSE" value=""/>
    <property name="static" type="bool" value="true"/>
   </properties>
  </object>
  <object id="464" class="prop" gid="596" x="2109" y="591" width="22" height="18" rotation="4.32404">
   <properties>
    <property name="foreground" type="bool" value="true"/>
    <property name="noDestroy" type="bool" value="true"/>
    <property name="rotationMult" type="float" value="1"/>
    <property name="squib" type="int" value="-1"/>
    <property name="squibSE" value=""/>
    <property name="static" type="bool" value="true"/>
   </properties>
  </object>
  <object id="467" class="prop" gid="168" x="2104.95" y="590.894" width="13" height="26" rotation="333.573">
   <properties>
    <property name="foreground" type="bool" value="true"/>
    <property name="noDestroy" type="bool" value="true"/>
    <property name="rotationMult" type="float" value="1"/>
    <property name="squib" type="int" value="-1"/>
    <property name="squibSE" value=""/>
    <property name="static" type="bool" value="false"/>
   </properties>
  </object>
  <object id="468" class="prop" gid="132" x="2102.81" y="594.042" width="12" height="13" rotation="301.996">
   <properties>
    <property name="foreground" type="bool" value="true"/>
    <property name="noDestroy" type="bool" value="true"/>
    <property name="rotationMult" type="float" value="1"/>
    <property name="squib" type="int" value="-1"/>
    <property name="squibSE" value=""/>
    <property name="static" type="bool" value="false"/>
   </properties>
  </object>
  <object id="469" class="prop" gid="131" x="2099.49" y="601.721" width="11" height="13" rotation="283.09">
   <properties>
    <property name="foreground" type="bool" value="true"/>
    <property name="noDestroy" type="bool" value="true"/>
    <property name="rotationMult" type="float" value="1"/>
    <property name="squib" type="int" value="-1"/>
    <property name="squibSE" value=""/>
    <property name="static" type="bool" value="false"/>
   </properties>
  </object>
  <object id="470" class="prop" gid="152" x="2019" y="614" width="19" height="25" rotation="331.433">
   <properties>
    <property name="foreground" type="bool" value="false"/>
    <property name="noDestroy" type="bool" value="true"/>
    <property name="rotationMult" type="float" value="1"/>
    <property name="squib" type="int" value="-1"/>
    <property name="squibSE" value=""/>
    <property name="static" type="bool" value="true"/>
   </properties>
  </object>
  <object id="471" class="prop" gid="663" x="2004" y="665" width="33" height="46" rotation="338.443">
   <properties>
    <property name="foreground" type="bool" value="true"/>
    <property name="noDestroy" type="bool" value="true"/>
    <property name="rotationMult" type="float" value="1"/>
    <property name="squib" type="int" value="-1"/>
    <property name="squibSE" value=""/>
    <property name="static" type="bool" value="true"/>
   </properties>
  </object>
  <object id="473" class="prop" gid="148" x="2050" y="611" width="21" height="37" rotation="239.486">
   <properties>
    <property name="foreground" type="bool" value="false"/>
    <property name="noDestroy" type="bool" value="true"/>
    <property name="rotationMult" type="float" value="1"/>
    <property name="squib" type="int" value="-1"/>
    <property name="squibSE" value=""/>
    <property name="static" type="bool" value="true"/>
   </properties>
  </object>
  <object id="474" class="prop" gid="670" x="2116" y="672" width="25" height="22" rotation="305.845">
   <properties>
    <property name="foreground" type="bool" value="true"/>
    <property name="noDestroy" type="bool" value="true"/>
    <property name="rotationMult" type="float" value="1"/>
    <property name="squib" type="int" value="-1"/>
    <property name="squibSE" value=""/>
    <property name="static" type="bool" value="true"/>
   </properties>
  </object>
  <object id="475" class="prop" gid="669" x="2115" y="695" width="27" height="19" rotation="315.549">
   <properties>
    <property name="foreground" type="bool" value="true"/>
    <property name="noDestroy" type="bool" value="true"/>
    <property name="rotationMult" type="float" value="1"/>
    <property name="squib" type="int" value="-1"/>
    <property name="squibSE" value=""/>
    <property name="static" type="bool" value="true"/>
   </properties>
  </object>
  <object id="476" class="prop" gid="662" x="2015" y="668" width="44" height="37" rotation="133.478">
   <properties>
    <property name="foreground" type="bool" value="true"/>
    <property name="noDestroy" type="bool" value="true"/>
    <property name="rotationMult" type="float" value="1"/>
    <property name="squib" type="int" value="-1"/>
    <property name="squibSE" value=""/>
    <property name="static" type="bool" value="true"/>
   </properties>
  </object>
  <object id="477" class="prop" gid="152" x="2090" y="696" width="19" height="25" rotation="61.3073">
   <properties>
    <property name="foreground" type="bool" value="false"/>
    <property name="noDestroy" type="bool" value="true"/>
    <property name="rotationMult" type="float" value="1"/>
    <property name="squib" type="int" value="-1"/>
    <property name="squibSE" value=""/>
    <property name="static" type="bool" value="true"/>
   </properties>
  </object>
  <object id="478" class="prop" gid="150" x="2050" y="680" width="27" height="41" rotation="261.705">
   <properties>
    <property name="foreground" type="bool" value="false"/>
    <property name="noDestroy" type="bool" value="true"/>
    <property name="rotationMult" type="float" value="1"/>
    <property name="squib" type="int" value="-1"/>
    <property name="squibSE" value=""/>
    <property name="static" type="bool" value="true"/>
   </properties>
  </object>
  <object id="479" class="prop" gid="592" x="2023" y="680" width="28" height="16" rotation="96.9662">
   <properties>
    <property name="foreground" type="bool" value="true"/>
    <property name="noDestroy" type="bool" value="true"/>
    <property name="rotationMult" type="float" value="1"/>
    <property name="squib" type="int" value="-1"/>
    <property name="squibSE" value=""/>
    <property name="static" type="bool" value="true"/>
   </properties>
  </object>
  <object id="480" class="prop" gid="664" x="2106" y="793" width="40" height="43" rotation="333.735">
   <properties>
    <property name="foreground" type="bool" value="true"/>
    <property name="noDestroy" type="bool" value="true"/>
    <property name="rotationMult" type="float" value="1"/>
    <property name="squib" type="int" value="-1"/>
    <property name="squibSE" value=""/>
    <property name="static" type="bool" value="true"/>
   </properties>
  </object>
  <object id="481" class="prop" gid="592" x="2102.51" y="772.279" width="28" height="16" rotation="298.772">
   <properties>
    <property name="foreground" type="bool" value="true"/>
    <property name="noDestroy" type="bool" value="true"/>
    <property name="rotationMult" type="float" value="1"/>
    <property name="squib" type="int" value="-1"/>
    <property name="squibSE" value=""/>
    <property name="static" type="bool" value="true"/>
   </properties>
  </object>
  <object id="482" class="prop" gid="131" x="2102" y="757" width="11" height="13" rotation="283.09">
   <properties>
    <property name="foreground" type="bool" value="true"/>
    <property name="noDestroy" type="bool" value="true"/>
    <property name="rotationMult" type="float" value="1"/>
    <property name="squib" type="int" value="-1"/>
    <property name="squibSE" value=""/>
    <property name="static" type="bool" value="false"/>
   </properties>
  </object>
  <object id="483" class="prop" gid="592" x="2100" y="754" width="28" height="16" rotation="347.399">
   <properties>
    <property name="foreground" type="bool" value="true"/>
    <property name="noDestroy" type="bool" value="true"/>
    <property name="rotationMult" type="float" value="1"/>
    <property name="squib" type="int" value="-1"/>
    <property name="squibSE" value=""/>
    <property name="static" type="bool" value="true"/>
   </properties>
  </object>
  <object id="484" class="prop" gid="131" x="2104" y="745" width="11" height="13" rotation="331.236">
   <properties>
    <property name="foreground" type="bool" value="true"/>
    <property name="noDestroy" type="bool" value="true"/>
    <property name="rotationMult" type="float" value="1"/>
    <property name="squib" type="int" value="-1"/>
    <property name="squibSE" value=""/>
    <property name="static" type="bool" value="false"/>
   </properties>
  </object>
  <object id="485" class="prop" gid="152" x="2103" y="716" width="19" height="25" rotation="131.198">
   <properties>
    <property name="foreground" type="bool" value="false"/>
    <property name="noDestroy" type="bool" value="true"/>
    <property name="rotationMult" type="float" value="1"/>
    <property name="squib" type="int" value="-1"/>
    <property name="squibSE" value=""/>
    <property name="static" type="bool" value="true"/>
   </properties>
  </object>
  <object id="486" class="prop" gid="133" x="1907.31" y="707.098" width="47" height="37" rotation="213.605">
   <properties>
    <property name="foreground" type="bool" value="true"/>
    <property name="noDestroy" type="bool" value="true"/>
    <property name="rotationMult" type="float" value="1"/>
    <property name="squib" type="int" value="-1"/>
    <property name="squibSE" value=""/>
    <property name="static" type="bool" value="true"/>
   </properties>
  </object>
  <object id="487" class="prop" gid="133" x="1929" y="681" width="47" height="37" rotation="163.649">
   <properties>
    <property name="foreground" type="bool" value="true"/>
    <property name="noDestroy" type="bool" value="true"/>
    <property name="rotationMult" type="float" value="1"/>
    <property name="squib" type="int" value="-1"/>
    <property name="squibSE" value=""/>
    <property name="static" type="bool" value="true"/>
   </properties>
  </object>
  <object id="488" class="prop" gid="135" x="1970" y="677" width="40" height="44" rotation="178.856">
   <properties>
    <property name="foreground" type="bool" value="true"/>
    <property name="noDestroy" type="bool" value="true"/>
    <property name="rotationMult" type="float" value="1"/>
    <property name="squib" type="int" value="-1"/>
    <property name="squibSE" value=""/>
    <property name="static" type="bool" value="true"/>
   </properties>
  </object>
  <object id="489" class="prop" gid="136" x="1993" y="678" width="40" height="39" rotation="168.622">
   <properties>
    <property name="foreground" type="bool" value="true"/>
    <property name="noDestroy" type="bool" value="true"/>
    <property name="rotationMult" type="float" value="1"/>
    <property name="squib" type="int" value="-1"/>
    <property name="squibSE" value=""/>
    <property name="static" type="bool" value="true"/>
   </properties>
  </object>
  <object id="491" class="prop" gid="139" x="1731" y="692" width="27" height="22" rotation="166.814">
   <properties>
    <property name="foreground" type="bool" value="true"/>
    <property name="noDestroy" type="bool" value="true"/>
    <property name="rotationMult" type="float" value="1"/>
    <property name="squib" type="int" value="-1"/>
    <property name="squibSE" value=""/>
    <property name="static" type="bool" value="true"/>
   </properties>
  </object>
  <object id="492" class="prop" gid="140" x="1805" y="700" width="27" height="19" rotation="196.755">
   <properties>
    <property name="foreground" type="bool" value="true"/>
    <property name="noDestroy" type="bool" value="true"/>
    <property name="rotationMult" type="float" value="1"/>
    <property name="squib" type="int" value="-1"/>
    <property name="squibSE" value=""/>
    <property name="static" type="bool" value="true"/>
   </properties>
  </object>
  <object id="493" class="prop" gid="141" x="1678.66" y="700.272" width="25" height="22" rotation="209.953">
   <properties>
    <property name="foreground" type="bool" value="true"/>
    <property name="noDestroy" type="bool" value="true"/>
    <property name="rotationMult" type="float" value="1"/>
    <property name="squib" type="int" value="-1"/>
    <property name="squibSE" value=""/>
    <property name="static" type="bool" value="true"/>
   </properties>
  </object>
  <object id="494" class="prop" gid="137" x="1699.38" y="696.669" width="25" height="23" rotation="194.308">
   <properties>
    <property name="foreground" type="bool" value="true"/>
    <property name="noDestroy" type="bool" value="true"/>
    <property name="rotationMult" type="float" value="1"/>
    <property name="squib" type="int" value="-1"/>
    <property name="squibSE" value=""/>
    <property name="static" type="bool" value="true"/>
   </properties>
  </object>
  <object id="495" class="prop" gid="135" x="1796.5" y="686.062" width="40" height="44" rotation="203.22">
   <properties>
    <property name="foreground" type="bool" value="true"/>
    <property name="noDestroy" type="bool" value="true"/>
    <property name="rotationMult" type="float" value="1"/>
    <property name="squib" type="int" value="-1"/>
    <property name="squibSE" value=""/>
    <property name="static" type="bool" value="true"/>
   </properties>
  </object>
  <object id="496" class="prop" gid="133" x="1735.97" y="680.651" width="47" height="37" rotation="184.15">
   <properties>
    <property name="foreground" type="bool" value="true"/>
    <property name="noDestroy" type="bool" value="true"/>
    <property name="rotationMult" type="float" value="1"/>
    <property name="squib" type="int" value="-1"/>
    <property name="squibSE" value=""/>
    <property name="static" type="bool" value="true"/>
   </properties>
  </object>
  <object id="497" class="prop" gid="133" x="1863" y="674" width="47" height="37" rotation="170.907">
   <properties>
    <property name="foreground" type="bool" value="true"/>
    <property name="noDestroy" type="bool" value="true"/>
    <property name="rotationMult" type="float" value="1"/>
    <property name="squib" type="int" value="-1"/>
    <property name="squibSE" value=""/>
    <property name="static" type="bool" value="true"/>
   </properties>
  </object>
  <object id="498" class="prop" gid="137" x="1820" y="671" width="25" height="23" rotation="166.445">
   <properties>
    <property name="foreground" type="bool" value="true"/>
    <property name="noDestroy" type="bool" value="true"/>
    <property name="rotationMult" type="float" value="1"/>
    <property name="squib" type="int" value="-1"/>
    <property name="squibSE" value=""/>
    <property name="static" type="bool" value="true"/>
   </properties>
  </object>
  <object id="499" class="prop" gid="144" x="1752" y="673" width="20" height="17" rotation="166.814">
   <properties>
    <property name="foreground" type="bool" value="true"/>
    <property name="noDestroy" type="bool" value="true"/>
    <property name="rotationMult" type="float" value="1"/>
    <property name="squib" type="int" value="-1"/>
    <property name="squibSE" value=""/>
    <property name="static" type="bool" value="true"/>
   </properties>
  </object>
  <object id="500" class="prop" gid="145" x="1671" y="680" width="14" height="18" rotation="209.953">
   <properties>
    <property name="foreground" type="bool" value="true"/>
    <property name="noDestroy" type="bool" value="true"/>
    <property name="rotationMult" type="float" value="1"/>
    <property name="squib" type="int" value="-1"/>
    <property name="squibSE" value=""/>
    <property name="static" type="bool" value="true"/>
   </properties>
  </object>
  <object id="501" class="prop" gid="134" x="1636" y="668" width="34" height="46" rotation="150.93">
   <properties>
    <property name="foreground" type="bool" value="true"/>
    <property name="noDestroy" type="bool" value="true"/>
    <property name="rotationMult" type="float" value="1"/>
    <property name="squib" type="int" value="-1"/>
    <property name="squibSE" value=""/>
    <property name="static" type="bool" value="true"/>
   </properties>
  </object>
  <object id="502" class="prop" gid="172" x="1726" y="740" width="18" height="37">
   <properties>
    <property name="foreground" type="bool" value="true"/>
    <property name="noDestroy" type="bool" value="true"/>
    <property name="rotationMult" type="float" value="1"/>
    <property name="squib" type="int" value="-1"/>
    <property name="squibSE" value=""/>
    <property name="static" type="bool" value="true"/>
   </properties>
  </object>
  <object id="503" class="prop" gid="171" x="1772" y="741" width="18" height="29">
   <properties>
    <property name="foreground" type="bool" value="true"/>
    <property name="noDestroy" type="bool" value="true"/>
    <property name="rotationMult" type="float" value="1"/>
    <property name="squib" type="int" value="-1"/>
    <property name="squibSE" value=""/>
    <property name="static" type="bool" value="true"/>
   </properties>
  </object>
  <object id="505" class="prop" gid="122" x="1857" y="804" width="35" height="20" rotation="4.90594">
   <properties>
    <property name="foreground" type="bool" value="true"/>
    <property name="noDestroy" type="bool" value="true"/>
    <property name="rotationMult" type="float" value="1"/>
    <property name="squib" type="int" value="-1"/>
    <property name="squibSE" value=""/>
    <property name="static" type="bool" value="false"/>
   </properties>
  </object>
  <object id="506" class="prop" gid="123" x="1847" y="806" width="26" height="23" rotation="349.586">
   <properties>
    <property name="foreground" type="bool" value="true"/>
    <property name="noDestroy" type="bool" value="true"/>
    <property name="rotationMult" type="float" value="1"/>
    <property name="squib" type="int" value="-1"/>
    <property name="squibSE" value=""/>
    <property name="static" type="bool" value="false"/>
   </properties>
  </object>
  <object id="507" class="prop" gid="125" x="1833" y="807" width="24" height="22" rotation="4.90594">
   <properties>
    <property name="foreground" type="bool" value="true"/>
    <property name="noDestroy" type="bool" value="true"/>
    <property name="rotationMult" type="float" value="1"/>
    <property name="squib" type="int" value="-1"/>
    <property name="squibSE" value=""/>
    <property name="static" type="bool" value="false"/>
   </properties>
  </object>
  <object id="508" class="prop" gid="124" x="1816" y="802" width="32" height="20" rotation="4.98863">
   <properties>
    <property name="foreground" type="bool" value="true"/>
    <property name="noDestroy" type="bool" value="true"/>
    <property name="rotationMult" type="float" value="1"/>
    <property name="squib" type="int" value="-1"/>
    <property name="squibSE" value=""/>
    <property name="static" type="bool" value="false"/>
   </properties>
  </object>
  <object id="510" class="prop" gid="122" x="2090" y="799" width="35" height="20" rotation="329.487">
   <properties>
    <property name="foreground" type="bool" value="true"/>
    <property name="noDestroy" type="bool" value="true"/>
    <property name="rotationMult" type="float" value="1"/>
    <property name="squib" type="int" value="-1"/>
    <property name="squibSE" value=""/>
    <property name="static" type="bool" value="false"/>
   </properties>
  </object>
  <object id="511" class="prop" gid="123" x="2071" y="801" width="26" height="23" rotation="10.2882">
   <properties>
    <property name="foreground" type="bool" value="true"/>
    <property name="noDestroy" type="bool" value="true"/>
    <property name="rotationMult" type="float" value="1"/>
    <property name="squib" type="int" value="-1"/>
    <property name="squibSE" value=""/>
    <property name="static" type="bool" value="false"/>
   </properties>
  </object>
  <object id="512" class="prop" gid="125" x="2078" y="796" width="24" height="22" rotation="4.90594">
   <properties>
    <property name="foreground" type="bool" value="true"/>
    <property name="noDestroy" type="bool" value="true"/>
    <property name="rotationMult" type="float" value="1"/>
    <property name="squib" type="int" value="-1"/>
    <property name="squibSE" value=""/>
    <property name="static" type="bool" value="false"/>
   </properties>
  </object>
  <object id="514" class="prop" gid="122" x="1538.02" y="802" width="35" height="20">
   <properties>
    <property name="foreground" type="bool" value="true"/>
    <property name="noDestroy" type="bool" value="true"/>
    <property name="rotationMult" type="float" value="1"/>
    <property name="squib" type="int" value="-1"/>
    <property name="squibSE" value=""/>
    <property name="static" type="bool" value="false"/>
   </properties>
  </object>
  <object id="515" class="prop" gid="123" x="1588" y="806" width="26" height="23" rotation="346.74">
   <properties>
    <property name="foreground" type="bool" value="true"/>
    <property name="noDestroy" type="bool" value="true"/>
    <property name="rotationMult" type="float" value="1"/>
    <property name="squib" type="int" value="-1"/>
    <property name="squibSE" value=""/>
    <property name="static" type="bool" value="false"/>
   </properties>
  </object>
  <object id="516" class="prop" gid="124" x="1565.17" y="803" width="32" height="20">
   <properties>
    <property name="foreground" type="bool" value="true"/>
    <property name="noDestroy" type="bool" value="true"/>
    <property name="rotationMult" type="float" value="1"/>
    <property name="squib" type="int" value="-1"/>
    <property name="squibSE" value=""/>
    <property name="static" type="bool" value="false"/>
   </properties>
  </object>
  <object id="517" class="prop" gid="125" x="1552.02" y="801" width="24" height="22" rotation="20.7915">
   <properties>
    <property name="foreground" type="bool" value="true"/>
    <property name="noDestroy" type="bool" value="true"/>
    <property name="rotationMult" type="float" value="1"/>
    <property name="squib" type="int" value="-1"/>
    <property name="squibSE" value=""/>
    <property name="static" type="bool" value="false"/>
   </properties>
  </object>
  <object id="518" class="prop" gid="128" x="1648" y="803" width="26" height="19" rotation="2.18209">
   <properties>
    <property name="foreground" type="bool" value="true"/>
    <property name="noDestroy" type="bool" value="true"/>
    <property name="rotationMult" type="float" value="1"/>
    <property name="squib" type="int" value="-1"/>
    <property name="squibSE" value=""/>
    <property name="static" type="bool" value="false"/>
   </properties>
  </object>
  <object id="519" class="prop" gid="131" x="1670" y="802" width="11" height="13" rotation="358.432">
   <properties>
    <property name="foreground" type="bool" value="true"/>
    <property name="noDestroy" type="bool" value="true"/>
    <property name="rotationMult" type="float" value="1"/>
    <property name="squib" type="int" value="-1"/>
    <property name="squibSE" value=""/>
    <property name="static" type="bool" value="false"/>
   </properties>
  </object>
  <object id="520" class="prop" gid="132" x="1679" y="801" width="12" height="13" rotation="358.432">
   <properties>
    <property name="foreground" type="bool" value="true"/>
    <property name="noDestroy" type="bool" value="true"/>
    <property name="rotationMult" type="float" value="1"/>
    <property name="squib" type="int" value="-1"/>
    <property name="squibSE" value=""/>
    <property name="static" type="bool" value="false"/>
   </properties>
  </object>
  <object id="521" class="prop" gid="129" x="1686" y="804" width="22" height="14" rotation="354.71">
   <properties>
    <property name="foreground" type="bool" value="true"/>
    <property name="noDestroy" type="bool" value="true"/>
    <property name="rotationMult" type="float" value="1"/>
    <property name="squib" type="int" value="-1"/>
    <property name="squibSE" value=""/>
    <property name="static" type="bool" value="false"/>
   </properties>
  </object>
  <object id="522" class="prop" gid="130" x="1699" y="800" width="27" height="15" rotation="12.0576">
   <properties>
    <property name="foreground" type="bool" value="true"/>
    <property name="noDestroy" type="bool" value="true"/>
    <property name="rotationMult" type="float" value="1"/>
    <property name="squib" type="int" value="-1"/>
    <property name="squibSE" value=""/>
    <property name="static" type="bool" value="false"/>
   </properties>
  </object>
  <object id="523" class="prop" gid="132" x="1721" y="803" width="12" height="13" rotation="358.432">
   <properties>
    <property name="foreground" type="bool" value="true"/>
    <property name="noDestroy" type="bool" value="true"/>
    <property name="rotationMult" type="float" value="1"/>
    <property name="squib" type="int" value="-1"/>
    <property name="squibSE" value=""/>
    <property name="static" type="bool" value="false"/>
   </properties>
  </object>
  <object id="524" class="prop" gid="128" x="1734" y="803" width="26" height="19" rotation="2.18209">
   <properties>
    <property name="foreground" type="bool" value="true"/>
    <property name="noDestroy" type="bool" value="true"/>
    <property name="rotationMult" type="float" value="1"/>
    <property name="squib" type="int" value="-1"/>
    <property name="squibSE" value=""/>
    <property name="static" type="bool" value="false"/>
   </properties>
  </object>
  <object id="525" class="prop" gid="131" x="1779" y="802" width="11" height="13" rotation="358.432">
   <properties>
    <property name="foreground" type="bool" value="true"/>
    <property name="noDestroy" type="bool" value="true"/>
    <property name="rotationMult" type="float" value="1"/>
    <property name="squib" type="int" value="-1"/>
    <property name="squibSE" value=""/>
    <property name="static" type="bool" value="false"/>
   </properties>
  </object>
  <object id="526" class="prop" gid="132" x="1757" y="801" width="12" height="13" rotation="358.432">
   <properties>
    <property name="foreground" type="bool" value="true"/>
    <property name="noDestroy" type="bool" value="true"/>
    <property name="rotationMult" type="float" value="1"/>
    <property name="squib" type="int" value="-1"/>
    <property name="squibSE" value=""/>
    <property name="static" type="bool" value="false"/>
   </properties>
  </object>
  <object id="527" class="prop" gid="128" x="1890" y="802" width="26" height="19" rotation="2.18209">
   <properties>
    <property name="foreground" type="bool" value="true"/>
    <property name="noDestroy" type="bool" value="true"/>
    <property name="rotationMult" type="float" value="1"/>
    <property name="squib" type="int" value="-1"/>
    <property name="squibSE" value=""/>
    <property name="static" type="bool" value="false"/>
   </properties>
  </object>
  <object id="528" class="prop" gid="131" x="1912" y="801" width="11" height="13" rotation="358.432">
   <properties>
    <property name="foreground" type="bool" value="true"/>
    <property name="noDestroy" type="bool" value="true"/>
    <property name="rotationMult" type="float" value="1"/>
    <property name="squib" type="int" value="-1"/>
    <property name="squibSE" value=""/>
    <property name="static" type="bool" value="false"/>
   </properties>
  </object>
  <object id="529" class="prop" gid="132" x="1921" y="800" width="12" height="13" rotation="358.432">
   <properties>
    <property name="foreground" type="bool" value="true"/>
    <property name="noDestroy" type="bool" value="true"/>
    <property name="rotationMult" type="float" value="1"/>
    <property name="squib" type="int" value="-1"/>
    <property name="squibSE" value=""/>
    <property name="static" type="bool" value="false"/>
   </properties>
  </object>
  <object id="530" class="prop" gid="129" x="2050" y="803" width="22" height="14" rotation="354.71">
   <properties>
    <property name="foreground" type="bool" value="true"/>
    <property name="noDestroy" type="bool" value="true"/>
    <property name="rotationMult" type="float" value="1"/>
    <property name="squib" type="int" value="-1"/>
    <property name="squibSE" value=""/>
    <property name="static" type="bool" value="false"/>
   </properties>
  </object>
  <object id="531" class="prop" gid="130" x="1940.67" y="801.67" width="27" height="15" rotation="357.05">
   <properties>
    <property name="foreground" type="bool" value="true"/>
    <property name="noDestroy" type="bool" value="true"/>
    <property name="rotationMult" type="float" value="1"/>
    <property name="squib" type="int" value="-1"/>
    <property name="squibSE" value=""/>
    <property name="static" type="bool" value="false"/>
   </properties>
  </object>
  <object id="532" class="prop" gid="132" x="1975" y="802" width="12" height="13" rotation="358.432">
   <properties>
    <property name="foreground" type="bool" value="true"/>
    <property name="noDestroy" type="bool" value="true"/>
    <property name="rotationMult" type="float" value="1"/>
    <property name="squib" type="int" value="-1"/>
    <property name="squibSE" value=""/>
    <property name="static" type="bool" value="false"/>
   </properties>
  </object>
  <object id="533" class="prop" gid="169" x="2006" y="801" width="20" height="29" rotation="2.18209">
   <properties>
    <property name="foreground" type="bool" value="true"/>
    <property name="noDestroy" type="bool" value="true"/>
    <property name="rotationMult" type="float" value="1"/>
    <property name="squib" type="int" value="-1"/>
    <property name="squibSE" value=""/>
    <property name="static" type="bool" value="false"/>
   </properties>
  </object>
  <object id="534" class="prop" gid="131" x="1987" y="801" width="11" height="13" rotation="358.432">
   <properties>
    <property name="foreground" type="bool" value="true"/>
    <property name="noDestroy" type="bool" value="true"/>
    <property name="rotationMult" type="float" value="1"/>
    <property name="squib" type="int" value="-1"/>
    <property name="squibSE" value=""/>
    <property name="static" type="bool" value="false"/>
   </properties>
  </object>
  <object id="535" class="prop" gid="132" x="1999" y="800" width="12" height="13" rotation="358.432">
   <properties>
    <property name="foreground" type="bool" value="true"/>
    <property name="noDestroy" type="bool" value="true"/>
    <property name="rotationMult" type="float" value="1"/>
    <property name="squib" type="int" value="-1"/>
    <property name="squibSE" value=""/>
    <property name="static" type="bool" value="false"/>
   </properties>
  </object>
  <object id="536" class="prop" gid="166" x="1817" y="801" width="12" height="29" rotation="358.432">
   <properties>
    <property name="foreground" type="bool" value="true"/>
    <property name="noDestroy" type="bool" value="true"/>
    <property name="rotationMult" type="float" value="1"/>
    <property name="squib" type="int" value="-1"/>
    <property name="squibSE" value=""/>
    <property name="static" type="bool" value="false"/>
   </properties>
  </object>
  <object id="537" class="prop" gid="167" x="1799" y="800" width="13" height="27" rotation="7.65142">
   <properties>
    <property name="foreground" type="bool" value="true"/>
    <property name="noDestroy" type="bool" value="true"/>
    <property name="rotationMult" type="float" value="1"/>
    <property name="squib" type="int" value="-1"/>
    <property name="squibSE" value=""/>
    <property name="static" type="bool" value="false"/>
   </properties>
  </object>
  <object id="538" class="prop" gid="168" x="1608" y="800" width="13" height="26" rotation="7.65142">
   <properties>
    <property name="foreground" type="bool" value="true"/>
    <property name="noDestroy" type="bool" value="true"/>
    <property name="rotationMult" type="float" value="1"/>
    <property name="squib" type="int" value="-1"/>
    <property name="squibSE" value=""/>
    <property name="static" type="bool" value="false"/>
   </properties>
  </object>
  <object id="539" class="prop" gid="158" x="1792" y="728" width="44" height="15">
   <properties>
    <property name="foreground" type="bool" value="true"/>
    <property name="noDestroy" type="bool" value="true"/>
    <property name="rotationMult" type="float" value="1"/>
    <property name="squib" type="int" value="-1"/>
    <property name="squibSE" value=""/>
    <property name="static" type="bool" value="true"/>
   </properties>
  </object>
  <object id="540" class="prop" gid="159" x="1911" y="733" width="55" height="13">
   <properties>
    <property name="foreground" type="bool" value="true"/>
    <property name="noDestroy" type="bool" value="true"/>
    <property name="rotationMult" type="float" value="1"/>
    <property name="squib" type="int" value="-1"/>
    <property name="squibSE" value=""/>
    <property name="static" type="bool" value="true"/>
   </properties>
  </object>
  <object id="541" class="prop" gid="158" x="1834" y="725" width="44" height="15" rotation="20.1243">
   <properties>
    <property name="foreground" type="bool" value="true"/>
    <property name="noDestroy" type="bool" value="true"/>
    <property name="rotationMult" type="float" value="1"/>
    <property name="squib" type="int" value="-1"/>
    <property name="squibSE" value=""/>
    <property name="static" type="bool" value="true"/>
   </properties>
  </object>
  <object id="542" class="prop" gid="155" x="1637" y="744" width="47" height="33">
   <properties>
    <property name="foreground" type="bool" value="true"/>
    <property name="noDestroy" type="bool" value="true"/>
    <property name="rotationMult" type="float" value="1"/>
    <property name="squib" type="int" value="-1"/>
    <property name="squibSE" value=""/>
    <property name="static" type="bool" value="true"/>
   </properties>
  </object>
  <object id="543" class="prop" gid="151" x="1800" y="736" width="21" height="34" rotation="2.99698">
   <properties>
    <property name="foreground" type="bool" value="false"/>
    <property name="noDestroy" type="bool" value="true"/>
    <property name="rotationMult" type="float" value="1"/>
    <property name="squib" type="int" value="-1"/>
    <property name="squibSE" value=""/>
    <property name="static" type="bool" value="true"/>
   </properties>
  </object>
  <object id="544" class="prop" gid="154" x="1978" y="748" width="26" height="28" rotation="336.229">
   <properties>
    <property name="foreground" type="bool" value="false"/>
    <property name="noDestroy" type="bool" value="true"/>
    <property name="rotationMult" type="float" value="1"/>
    <property name="squib" type="int" value="-1"/>
    <property name="squibSE" value=""/>
    <property name="static" type="bool" value="true"/>
   </properties>
  </object>
  <object id="547" class="prop" gid="664" x="1606" y="484" width="40" height="43" rotation="312.811">
   <properties>
    <property name="foreground" type="bool" value="true"/>
    <property name="noDestroy" type="bool" value="true"/>
    <property name="rotationMult" type="float" value="1"/>
    <property name="squib" type="int" value="-1"/>
    <property name="squibSE" value=""/>
    <property name="static" type="bool" value="true"/>
   </properties>
  </object>
  <object id="549" class="prop" gid="665" x="1610" y="527" width="40" height="39" rotation="296.195">
   <properties>
    <property name="foreground" type="bool" value="true"/>
    <property name="noDestroy" type="bool" value="true"/>
    <property name="rotationMult" type="float" value="1"/>
    <property name="squib" type="int" value="-1"/>
    <property name="squibSE" value=""/>
    <property name="static" type="bool" value="true"/>
   </properties>
  </object>
  <object id="550" class="prop" gid="668" x="1628" y="495" width="26" height="21" rotation="269.347">
   <properties>
    <property name="foreground" type="bool" value="true"/>
    <property name="noDestroy" type="bool" value="true"/>
    <property name="rotationMult" type="float" value="1"/>
    <property name="squib" type="int" value="-1"/>
    <property name="squibSE" value=""/>
    <property name="static" type="bool" value="true"/>
   </properties>
  </object>
  <object id="553" class="prop" gid="670" x="1626" y="540" width="25" height="22" rotation="283.865">
   <properties>
    <property name="foreground" type="bool" value="true"/>
    <property name="noDestroy" type="bool" value="true"/>
    <property name="rotationMult" type="float" value="1"/>
    <property name="squib" type="int" value="-1"/>
    <property name="squibSE" value=""/>
    <property name="static" type="bool" value="true"/>
   </properties>
  </object>
  <object id="554" class="prop" gid="662" x="1620" y="641" width="44" height="37" rotation="291.877">
   <properties>
    <property name="foreground" type="bool" value="true"/>
    <property name="noDestroy" type="bool" value="true"/>
    <property name="rotationMult" type="float" value="1"/>
    <property name="squib" type="int" value="-1"/>
    <property name="squibSE" value=""/>
    <property name="static" type="bool" value="true"/>
   </properties>
  </object>
  <object id="555" class="prop" gid="669" x="1615" y="591" width="27" height="19" rotation="326.896">
   <properties>
    <property name="foreground" type="bool" value="true"/>
    <property name="noDestroy" type="bool" value="true"/>
    <property name="rotationMult" type="float" value="1"/>
    <property name="squib" type="int" value="-1"/>
    <property name="squibSE" value=""/>
    <property name="static" type="bool" value="true"/>
   </properties>
  </object>
  <object id="557" class="prop" gid="668" x="1624" y="658" width="26" height="21" rotation="249.698">
   <properties>
    <property name="foreground" type="bool" value="true"/>
    <property name="noDestroy" type="bool" value="true"/>
    <property name="rotationMult" type="float" value="1"/>
    <property name="squib" type="int" value="-1"/>
    <property name="squibSE" value=""/>
    <property name="static" type="bool" value="true"/>
   </properties>
  </object>
  <object id="558" class="prop" gid="669" x="1618" y="690" width="27" height="19" rotation="261.983">
   <properties>
    <property name="foreground" type="bool" value="true"/>
    <property name="noDestroy" type="bool" value="true"/>
    <property name="rotationMult" type="float" value="1"/>
    <property name="squib" type="int" value="-1"/>
    <property name="squibSE" value=""/>
    <property name="static" type="bool" value="true"/>
   </properties>
  </object>
  <object id="569" class="prop" gid="664" x="1536" y="638" width="40" height="43" rotation="132.927">
   <properties>
    <property name="foreground" type="bool" value="true"/>
    <property name="noDestroy" type="bool" value="true"/>
    <property name="rotationMult" type="float" value="1"/>
    <property name="squib" type="int" value="-1"/>
    <property name="squibSE" value=""/>
    <property name="static" type="bool" value="true"/>
   </properties>
  </object>
  <object id="572" class="prop" gid="668" x="1516" y="615" width="26" height="21" rotation="89.4635">
   <properties>
    <property name="foreground" type="bool" value="true"/>
    <property name="noDestroy" type="bool" value="true"/>
    <property name="rotationMult" type="float" value="1"/>
    <property name="squib" type="int" value="-1"/>
    <property name="squibSE" value=""/>
    <property name="static" type="bool" value="true"/>
   </properties>
  </object>
  <object id="573" class="prop" gid="670" x="1516" y="572" width="25" height="22" rotation="103.981">
   <properties>
    <property name="foreground" type="bool" value="true"/>
    <property name="noDestroy" type="bool" value="true"/>
    <property name="rotationMult" type="float" value="1"/>
    <property name="squib" type="int" value="-1"/>
    <property name="squibSE" value=""/>
    <property name="static" type="bool" value="true"/>
   </properties>
  </object>
  <object id="575" class="prop" gid="669" x="1526.2" y="525.006" width="27" height="19" rotation="147.012">
   <properties>
    <property name="foreground" type="bool" value="true"/>
    <property name="noDestroy" type="bool" value="true"/>
    <property name="rotationMult" type="float" value="1"/>
    <property name="squib" type="int" value="-1"/>
    <property name="squibSE" value=""/>
    <property name="static" type="bool" value="true"/>
   </properties>
  </object>
  <object id="576" class="prop" gid="668" x="1517.33" y="460.988" width="26" height="21" rotation="69.8145">
   <properties>
    <property name="foreground" type="bool" value="true"/>
    <property name="noDestroy" type="bool" value="true"/>
    <property name="rotationMult" type="float" value="1"/>
    <property name="squib" type="int" value="-1"/>
    <property name="squibSE" value=""/>
    <property name="static" type="bool" value="true"/>
   </properties>
  </object>
  <object id="577" class="prop" gid="669" x="1523.4" y="429" width="27" height="19" rotation="82.0995">
   <properties>
    <property name="foreground" type="bool" value="true"/>
    <property name="noDestroy" type="bool" value="true"/>
    <property name="rotationMult" type="float" value="1"/>
    <property name="squib" type="int" value="-1"/>
    <property name="squibSE" value=""/>
    <property name="static" type="bool" value="true"/>
   </properties>
  </object>
  <object id="578" class="prop" gid="670" x="1522" y="547" width="25" height="22" rotation="103.981">
   <properties>
    <property name="foreground" type="bool" value="true"/>
    <property name="noDestroy" type="bool" value="true"/>
    <property name="rotationMult" type="float" value="1"/>
    <property name="squib" type="int" value="-1"/>
    <property name="squibSE" value=""/>
    <property name="static" type="bool" value="true"/>
   </properties>
  </object>
  <object id="579" class="prop" gid="134" x="1599" y="579" width="34" height="46" rotation="320.136">
   <properties>
    <property name="foreground" type="bool" value="true"/>
    <property name="noDestroy" type="bool" value="true"/>
    <property name="rotationMult" type="float" value="1"/>
    <property name="squib" type="int" value="-1"/>
    <property name="squibSE" value=""/>
    <property name="static" type="bool" value="true"/>
   </properties>
  </object>
  <object id="580" class="prop" gid="133" x="1503" y="481" width="47" height="37" rotation="88.894">
   <properties>
    <property name="foreground" type="bool" value="true"/>
    <property name="noDestroy" type="bool" value="true"/>
    <property name="rotationMult" type="float" value="1"/>
    <property name="squib" type="int" value="-1"/>
    <property name="squibSE" value=""/>
    <property name="static" type="bool" value="true"/>
   </properties>
  </object>
  <object id="581" class="prop" gid="592" x="1534.92" y="645.196" width="28" height="16" rotation="53.2121">
   <properties>
    <property name="foreground" type="bool" value="true"/>
    <property name="noDestroy" type="bool" value="true"/>
    <property name="rotationMult" type="float" value="1"/>
    <property name="squib" type="int" value="-1"/>
    <property name="squibSE" value=""/>
    <property name="static" type="bool" value="true"/>
   </properties>
  </object>
  <object id="582" class="prop" gid="593" x="1529" y="646" width="24" height="15" rotation="20.1793">
   <properties>
    <property name="foreground" type="bool" value="true"/>
    <property name="noDestroy" type="bool" value="true"/>
    <property name="rotationMult" type="float" value="1"/>
    <property name="squib" type="int" value="-1"/>
    <property name="squibSE" value=""/>
    <property name="static" type="bool" value="true"/>
   </properties>
  </object>
  <object id="583" class="prop" gid="592" x="1598" y="615" width="28" height="16" rotation="303.395">
   <properties>
    <property name="foreground" type="bool" value="true"/>
    <property name="noDestroy" type="bool" value="true"/>
    <property name="rotationMult" type="float" value="1"/>
    <property name="squib" type="int" value="-1"/>
    <property name="squibSE" value=""/>
    <property name="static" type="bool" value="true"/>
   </properties>
  </object>
  <object id="584" class="prop" gid="594" x="1585" y="545" width="24" height="16" rotation="318.52">
   <properties>
    <property name="foreground" type="bool" value="true"/>
    <property name="noDestroy" type="bool" value="true"/>
    <property name="rotationMult" type="float" value="1"/>
    <property name="squib" type="int" value="-1"/>
    <property name="squibSE" value=""/>
    <property name="static" type="bool" value="true"/>
   </properties>
  </object>
  <object id="585" class="prop" gid="594" x="1524" y="461" width="24" height="16" rotation="50.3304">
   <properties>
    <property name="foreground" type="bool" value="true"/>
    <property name="noDestroy" type="bool" value="true"/>
    <property name="rotationMult" type="float" value="1"/>
    <property name="squib" type="int" value="-1"/>
    <property name="squibSE" value=""/>
    <property name="static" type="bool" value="true"/>
   </properties>
  </object>
  <object id="586" class="prop" gid="595" x="1590" y="450" width="23" height="15" rotation="316.744">
   <properties>
    <property name="foreground" type="bool" value="true"/>
    <property name="noDestroy" type="bool" value="true"/>
    <property name="rotationMult" type="float" value="1"/>
    <property name="squib" type="int" value="-1"/>
    <property name="squibSE" value=""/>
    <property name="static" type="bool" value="true"/>
   </properties>
  </object>
  <object id="587" class="prop" gid="595" x="1590" y="499" width="23" height="15" rotation="297.886">
   <properties>
    <property name="foreground" type="bool" value="true"/>
    <property name="noDestroy" type="bool" value="true"/>
    <property name="rotationMult" type="float" value="1"/>
    <property name="squib" type="int" value="-1"/>
    <property name="squibSE" value=""/>
    <property name="static" type="bool" value="true"/>
   </properties>
  </object>
  <object id="588" class="prop" gid="168" x="1534" y="637" width="13" height="26" rotation="34.3796">
   <properties>
    <property name="foreground" type="bool" value="true"/>
    <property name="noDestroy" type="bool" value="true"/>
    <property name="rotationMult" type="float" value="1"/>
    <property name="squib" type="int" value="-1"/>
    <property name="squibSE" value=""/>
    <property name="static" type="bool" value="false"/>
   </properties>
  </object>
  <object id="589" class="prop" gid="132" x="1602" y="593" width="12" height="13" rotation="326.179">
   <properties>
    <property name="foreground" type="bool" value="true"/>
    <property name="noDestroy" type="bool" value="true"/>
    <property name="rotationMult" type="float" value="1"/>
    <property name="squib" type="int" value="-1"/>
    <property name="squibSE" value=""/>
    <property name="static" type="bool" value="false"/>
   </properties>
  </object>
  <object id="590" class="prop" gid="132" x="1539" y="461" width="12" height="13" rotation="53.0943">
   <properties>
    <property name="foreground" type="bool" value="true"/>
    <property name="noDestroy" type="bool" value="true"/>
    <property name="rotationMult" type="float" value="1"/>
    <property name="squib" type="int" value="-1"/>
    <property name="squibSE" value=""/>
    <property name="static" type="bool" value="false"/>
   </properties>
  </object>
  <object id="593" class="prop" gid="149" x="1530" y="607" width="17" height="28" rotation="349.784">
   <properties>
    <property name="foreground" type="bool" value="false"/>
    <property name="noDestroy" type="bool" value="true"/>
    <property name="rotationMult" type="float" value="1"/>
    <property name="squib" type="int" value="-1"/>
    <property name="squibSE" value=""/>
    <property name="static" type="bool" value="true"/>
   </properties>
  </object>
  <object id="594" class="prop" gid="152" x="1590" y="707" width="19" height="25" rotation="51.1335">
   <properties>
    <property name="foreground" type="bool" value="false"/>
    <property name="noDestroy" type="bool" value="true"/>
    <property name="rotationMult" type="float" value="1"/>
    <property name="squib" type="int" value="-1"/>
    <property name="squibSE" value=""/>
    <property name="static" type="bool" value="true"/>
   </properties>
  </object>
  <object id="595" class="prop" gid="147" x="1531" y="742" width="34" height="40" rotation="332.887">
   <properties>
    <property name="foreground" type="bool" value="false"/>
    <property name="noDestroy" type="bool" value="true"/>
    <property name="rotationMult" type="float" value="1"/>
    <property name="squib" type="int" value="-1"/>
    <property name="squibSE" value=""/>
    <property name="static" type="bool" value="true"/>
   </properties>
  </object>
  <object id="596" class="prop" gid="148" x="1538" y="562" width="21" height="37" rotation="337.073">
   <properties>
    <property name="foreground" type="bool" value="false"/>
    <property name="noDestroy" type="bool" value="true"/>
    <property name="rotationMult" type="float" value="1"/>
    <property name="squib" type="int" value="-1"/>
    <property name="squibSE" value=""/>
    <property name="static" type="bool" value="true"/>
   </properties>
  </object>
  <object id="597" class="prop" gid="152" x="1583" y="652" width="19" height="25" rotation="18.3904">
   <properties>
    <property name="foreground" type="bool" value="false"/>
    <property name="noDestroy" type="bool" value="true"/>
    <property name="rotationMult" type="float" value="1"/>
    <property name="squib" type="int" value="-1"/>
    <property name="squibSE" value=""/>
    <property name="static" type="bool" value="true"/>
   </properties>
  </object>
  <object id="598" class="prop" gid="159" x="1548" y="699" width="55" height="13">
   <properties>
    <property name="foreground" type="bool" value="true"/>
    <property name="noDestroy" type="bool" value="true"/>
    <property name="rotationMult" type="float" value="1"/>
    <property name="squib" type="int" value="-1"/>
    <property name="squibSE" value=""/>
    <property name="static" type="bool" value="true"/>
   </properties>
  </object>
  <object id="600" class="prop" gid="191" x="1530" y="637" width="5" height="66" rotation="24.3214">
   <properties>
    <property name="foreground" type="bool" value="true"/>
    <property name="noDestroy" type="bool" value="true"/>
    <property name="rotationMult" type="float" value="1"/>
    <property name="squib" type="int" value="-1"/>
    <property name="squibSE" value=""/>
    <property name="static" type="bool" value="true"/>
   </properties>
  </object>
  <object id="606" class="prop" gid="168" x="1479" y="808" width="13" height="26" rotation="7.65142">
   <properties>
    <property name="foreground" type="bool" value="true"/>
    <property name="noDestroy" type="bool" value="true"/>
    <property name="rotationMult" type="float" value="1"/>
    <property name="squib" type="int" value="-1"/>
    <property name="squibSE" value=""/>
    <property name="static" type="bool" value="false"/>
   </properties>
  </object>
  <object id="609" class="prop" gid="122" x="1467" y="825" width="35" height="20" rotation="335.15">
   <properties>
    <property name="foreground" type="bool" value="true"/>
    <property name="noDestroy" type="bool" value="true"/>
    <property name="rotationMult" type="float" value="1"/>
    <property name="squib" type="int" value="-1"/>
    <property name="squibSE" value=""/>
    <property name="static" type="bool" value="false"/>
   </properties>
  </object>
  <object id="610" class="prop" gid="662" x="1486" y="864" width="44" height="37" rotation="291.877">
   <properties>
    <property name="foreground" type="bool" value="true"/>
    <property name="noDestroy" type="bool" value="true"/>
    <property name="rotationMult" type="float" value="1"/>
    <property name="squib" type="int" value="-1"/>
    <property name="squibSE" value=""/>
    <property name="static" type="bool" value="true"/>
   </properties>
  </object>
  <object id="611" class="prop" gid="593" x="1463" y="828" width="24" height="15" rotation="333.194">
   <properties>
    <property name="foreground" type="bool" value="true"/>
    <property name="noDestroy" type="bool" value="true"/>
    <property name="rotationMult" type="float" value="1"/>
    <property name="squib" type="int" value="-1"/>
    <property name="squibSE" value=""/>
    <property name="static" type="bool" value="true"/>
   </properties>
  </object>
  <object id="613" class="prop" gid="168" x="1464" y="885" width="13" height="26" rotation="349.446">
   <properties>
    <property name="foreground" type="bool" value="true"/>
    <property name="noDestroy" type="bool" value="true"/>
    <property name="rotationMult" type="float" value="1"/>
    <property name="squib" type="int" value="-1"/>
    <property name="squibSE" value=""/>
    <property name="static" type="bool" value="false"/>
   </properties>
  </object>
  <object id="614" class="prop" gid="167" x="1461" y="892" width="13" height="27" rotation="333.093">
   <properties>
    <property name="foreground" type="bool" value="true"/>
    <property name="noDestroy" type="bool" value="true"/>
    <property name="rotationMult" type="float" value="1"/>
    <property name="squib" type="int" value="-1"/>
    <property name="squibSE" value=""/>
    <property name="static" type="bool" value="false"/>
   </properties>
  </object>
  <object id="615" class="prop" gid="128" x="1401" y="915" width="26" height="19" rotation="2.18209">
   <properties>
    <property name="foreground" type="bool" value="true"/>
    <property name="noDestroy" type="bool" value="true"/>
    <property name="rotationMult" type="float" value="1"/>
    <property name="squib" type="int" value="-1"/>
    <property name="squibSE" value=""/>
    <property name="static" type="bool" value="false"/>
   </properties>
  </object>
  <object id="616" class="prop" gid="131" x="1428" y="910" width="11" height="13" rotation="358.432">
   <properties>
    <property name="foreground" type="bool" value="true"/>
    <property name="noDestroy" type="bool" value="true"/>
    <property name="rotationMult" type="float" value="1"/>
    <property name="squib" type="int" value="-1"/>
    <property name="squibSE" value=""/>
    <property name="static" type="bool" value="false"/>
   </properties>
  </object>
  <object id="617" class="prop" gid="123" x="1434" y="908" width="26" height="23" rotation="346.74">
   <properties>
    <property name="foreground" type="bool" value="true"/>
    <property name="noDestroy" type="bool" value="true"/>
    <property name="rotationMult" type="float" value="1"/>
    <property name="squib" type="int" value="-1"/>
    <property name="squibSE" value=""/>
    <property name="static" type="bool" value="false"/>
   </properties>
  </object>
  <object id="620" class="prop" gid="672" x="1483" y="882" width="14" height="18" rotation="318.882">
   <properties>
    <property name="foreground" type="bool" value="true"/>
    <property name="noDestroy" type="bool" value="true"/>
    <property name="rotationMult" type="float" value="1"/>
    <property name="squib" type="int" value="-1"/>
    <property name="squibSE" value=""/>
    <property name="static" type="bool" value="true"/>
   </properties>
  </object>
  <object id="629" class="prop" gid="122" x="1198" y="913" width="35" height="20" rotation="4.90594">
   <properties>
    <property name="foreground" type="bool" value="true"/>
    <property name="noDestroy" type="bool" value="true"/>
    <property name="rotationMult" type="float" value="1"/>
    <property name="squib" type="int" value="-1"/>
    <property name="squibSE" value=""/>
    <property name="static" type="bool" value="false"/>
   </properties>
  </object>
  <object id="630" class="prop" gid="123" x="1186" y="909" width="26" height="23" rotation="349.586">
   <properties>
    <property name="foreground" type="bool" value="true"/>
    <property name="noDestroy" type="bool" value="true"/>
    <property name="rotationMult" type="float" value="1"/>
    <property name="squib" type="int" value="-1"/>
    <property name="squibSE" value=""/>
    <property name="static" type="bool" value="false"/>
   </properties>
  </object>
  <object id="631" class="prop" gid="125" x="1174" y="901" width="24" height="22" rotation="4.90594">
   <properties>
    <property name="foreground" type="bool" value="true"/>
    <property name="noDestroy" type="bool" value="true"/>
    <property name="rotationMult" type="float" value="1"/>
    <property name="squib" type="int" value="-1"/>
    <property name="squibSE" value=""/>
    <property name="static" type="bool" value="false"/>
   </properties>
  </object>
  <object id="632" class="prop" gid="124" x="1164" y="890" width="32" height="20" rotation="4.98863">
   <properties>
    <property name="foreground" type="bool" value="true"/>
    <property name="noDestroy" type="bool" value="true"/>
    <property name="rotationMult" type="float" value="1"/>
    <property name="squib" type="int" value="-1"/>
    <property name="squibSE" value=""/>
    <property name="static" type="bool" value="false"/>
   </properties>
  </object>
  <object id="633" class="prop" gid="166" x="1227" y="915" width="12" height="29" rotation="358.432">
   <properties>
    <property name="foreground" type="bool" value="true"/>
    <property name="noDestroy" type="bool" value="true"/>
    <property name="rotationMult" type="float" value="1"/>
    <property name="squib" type="int" value="-1"/>
    <property name="squibSE" value=""/>
    <property name="static" type="bool" value="false"/>
   </properties>
  </object>
  <object id="634" class="prop" gid="167" x="1166" y="883" width="13" height="27" rotation="7.65142">
   <properties>
    <property name="foreground" type="bool" value="true"/>
    <property name="noDestroy" type="bool" value="true"/>
    <property name="rotationMult" type="float" value="1"/>
    <property name="squib" type="int" value="-1"/>
    <property name="squibSE" value=""/>
    <property name="static" type="bool" value="false"/>
   </properties>
  </object>
  <object id="635" class="prop" gid="169" x="1235" y="914" width="20" height="29" rotation="5.08043">
   <properties>
    <property name="foreground" type="bool" value="true"/>
    <property name="noDestroy" type="bool" value="true"/>
    <property name="rotationMult" type="float" value="1"/>
    <property name="squib" type="int" value="-1"/>
    <property name="squibSE" value=""/>
    <property name="static" type="bool" value="false"/>
   </properties>
  </object>
  <object id="636" class="prop" gid="142" x="1323" y="914" width="19" height="12" rotation="311.632">
   <properties>
    <property name="foreground" type="bool" value="true"/>
    <property name="noDestroy" type="bool" value="true"/>
    <property name="rotationMult" type="float" value="1"/>
    <property name="squib" type="int" value="-1"/>
    <property name="squibSE" value=""/>
    <property name="static" type="bool" value="true"/>
   </properties>
  </object>
  <object id="638" class="prop" gid="143" x="1303" y="911" width="14" height="14" rotation="15.4216">
   <properties>
    <property name="foreground" type="bool" value="true"/>
    <property name="noDestroy" type="bool" value="true"/>
    <property name="rotationMult" type="float" value="1"/>
    <property name="squib" type="int" value="-1"/>
    <property name="squibSE" value=""/>
    <property name="static" type="bool" value="true"/>
   </properties>
  </object>
  <object id="640" class="prop" gid="138" x="1326" y="908" width="24" height="18" rotation="15.4216">
   <properties>
    <property name="foreground" type="bool" value="true"/>
    <property name="noDestroy" type="bool" value="true"/>
    <property name="rotationMult" type="float" value="1"/>
    <property name="squib" type="int" value="-1"/>
    <property name="squibSE" value=""/>
    <property name="static" type="bool" value="true"/>
   </properties>
  </object>
  <object id="641" class="prop" gid="128" x="1260" y="915" width="26" height="19" rotation="2.18209">
   <properties>
    <property name="foreground" type="bool" value="true"/>
    <property name="noDestroy" type="bool" value="true"/>
    <property name="rotationMult" type="float" value="1"/>
    <property name="squib" type="int" value="-1"/>
    <property name="squibSE" value=""/>
    <property name="static" type="bool" value="false"/>
   </properties>
  </object>
  <object id="642" class="prop" gid="131" x="1289" y="915" width="11" height="13" rotation="358.432">
   <properties>
    <property name="foreground" type="bool" value="true"/>
    <property name="noDestroy" type="bool" value="true"/>
    <property name="rotationMult" type="float" value="1"/>
    <property name="squib" type="int" value="-1"/>
    <property name="squibSE" value=""/>
    <property name="static" type="bool" value="false"/>
   </properties>
  </object>
  <object id="643" class="prop" gid="132" x="1298" y="914" width="12" height="13" rotation="358.432">
   <properties>
    <property name="foreground" type="bool" value="true"/>
    <property name="noDestroy" type="bool" value="true"/>
    <property name="rotationMult" type="float" value="1"/>
    <property name="squib" type="int" value="-1"/>
    <property name="squibSE" value=""/>
    <property name="static" type="bool" value="false"/>
   </properties>
  </object>
  <object id="644" class="prop" gid="129" x="1304" y="915" width="22" height="14" rotation="354.71">
   <properties>
    <property name="foreground" type="bool" value="true"/>
    <property name="noDestroy" type="bool" value="true"/>
    <property name="rotationMult" type="float" value="1"/>
    <property name="squib" type="int" value="-1"/>
    <property name="squibSE" value=""/>
    <property name="static" type="bool" value="false"/>
   </properties>
  </object>
  <object id="645" class="prop" gid="130" x="1318" y="912" width="27" height="15" rotation="12.0576">
   <properties>
    <property name="foreground" type="bool" value="true"/>
    <property name="noDestroy" type="bool" value="true"/>
    <property name="rotationMult" type="float" value="1"/>
    <property name="squib" type="int" value="-1"/>
    <property name="squibSE" value=""/>
    <property name="static" type="bool" value="false"/>
   </properties>
  </object>
  <object id="646" class="prop" gid="132" x="1340" y="916" width="12" height="13" rotation="358.432">
   <properties>
    <property name="foreground" type="bool" value="true"/>
    <property name="noDestroy" type="bool" value="true"/>
    <property name="rotationMult" type="float" value="1"/>
    <property name="squib" type="int" value="-1"/>
    <property name="squibSE" value=""/>
    <property name="static" type="bool" value="false"/>
   </properties>
  </object>
  <object id="647" class="prop" gid="128" x="1350" y="915" width="26" height="19" rotation="2.18209">
   <properties>
    <property name="foreground" type="bool" value="true"/>
    <property name="noDestroy" type="bool" value="true"/>
    <property name="rotationMult" type="float" value="1"/>
    <property name="squib" type="int" value="-1"/>
    <property name="squibSE" value=""/>
    <property name="static" type="bool" value="false"/>
   </properties>
  </object>
  <object id="648" class="prop" gid="132" x="1376" y="914" width="12" height="13" rotation="358.432">
   <properties>
    <property name="foreground" type="bool" value="true"/>
    <property name="noDestroy" type="bool" value="true"/>
    <property name="rotationMult" type="float" value="1"/>
    <property name="squib" type="int" value="-1"/>
    <property name="squibSE" value=""/>
    <property name="static" type="bool" value="false"/>
   </properties>
  </object>
  <object id="649" class="prop" gid="135" x="1160" y="711" width="40" height="44" rotation="132.927">
   <properties>
    <property name="foreground" type="bool" value="true"/>
    <property name="noDestroy" type="bool" value="true"/>
    <property name="rotationMult" type="float" value="1"/>
    <property name="squib" type="int" value="-1"/>
    <property name="squibSE" value=""/>
    <property name="static" type="bool" value="true"/>
   </properties>
  </object>
  <object id="650" class="prop" gid="595" x="1161" y="717" width="23" height="15" rotation="53.2121">
   <properties>
    <property name="foreground" type="bool" value="true"/>
    <property name="noDestroy" type="bool" value="true"/>
    <property name="rotationMult" type="float" value="1"/>
    <property name="squib" type="int" value="-1"/>
    <property name="squibSE" value=""/>
    <property name="static" type="bool" value="true"/>
   </properties>
  </object>
  <object id="651" class="prop" gid="596" x="1147" y="725" width="22" height="18" rotation="5.42039">
   <properties>
    <property name="foreground" type="bool" value="true"/>
    <property name="noDestroy" type="bool" value="true"/>
    <property name="rotationMult" type="float" value="1"/>
    <property name="squib" type="int" value="-1"/>
    <property name="squibSE" value=""/>
    <property name="static" type="bool" value="true"/>
   </properties>
  </object>
  <object id="652" class="prop" gid="132" x="1143" y="723" width="12" height="13" rotation="343.911">
   <properties>
    <property name="foreground" type="bool" value="true"/>
    <property name="noDestroy" type="bool" value="true"/>
    <property name="rotationMult" type="float" value="1"/>
    <property name="squib" type="int" value="-1"/>
    <property name="squibSE" value=""/>
    <property name="static" type="bool" value="false"/>
   </properties>
  </object>
  <object id="653" class="prop" gid="132" x="1163" y="717" width="12" height="13" rotation="0.877144">
   <properties>
    <property name="foreground" type="bool" value="true"/>
    <property name="noDestroy" type="bool" value="true"/>
    <property name="rotationMult" type="float" value="1"/>
    <property name="squib" type="int" value="-1"/>
    <property name="squibSE" value=""/>
    <property name="static" type="bool" value="false"/>
   </properties>
  </object>
  <object id="654" class="prop" gid="593" x="1475" y="853" width="24" height="15" rotation="243.847">
   <properties>
    <property name="foreground" type="bool" value="true"/>
    <property name="noDestroy" type="bool" value="true"/>
    <property name="rotationMult" type="float" value="1"/>
    <property name="squib" type="int" value="-1"/>
    <property name="squibSE" value=""/>
    <property name="static" type="bool" value="true"/>
   </properties>
  </object>
  <object id="655" class="prop" gid="662" x="1158" y="766" width="44" height="37" rotation="118.092">
   <properties>
    <property name="foreground" type="bool" value="true"/>
    <property name="noDestroy" type="bool" value="true"/>
    <property name="rotationMult" type="float" value="1"/>
    <property name="squib" type="int" value="-1"/>
    <property name="squibSE" value=""/>
    <property name="static" type="bool" value="true"/>
   </properties>
  </object>
  <object id="656" class="prop" gid="670" x="1160" y="822" width="25" height="22" rotation="111.878">
   <properties>
    <property name="foreground" type="bool" value="true"/>
    <property name="noDestroy" type="bool" value="true"/>
    <property name="rotationMult" type="float" value="1"/>
    <property name="squib" type="int" value="-1"/>
    <property name="squibSE" value=""/>
    <property name="static" type="bool" value="true"/>
   </properties>
  </object>
  <object id="657" class="prop" gid="148" x="1179" y="856" width="21" height="37" rotation="324.536">
   <properties>
    <property name="foreground" type="bool" value="false"/>
    <property name="noDestroy" type="bool" value="true"/>
    <property name="rotationMult" type="float" value="1"/>
    <property name="squib" type="int" value="-1"/>
    <property name="squibSE" value=""/>
    <property name="static" type="bool" value="true"/>
   </properties>
  </object>
  <object id="658" class="prop" gid="669" x="1153" y="849" width="27" height="19" rotation="111.357">
   <properties>
    <property name="foreground" type="bool" value="true"/>
    <property name="noDestroy" type="bool" value="true"/>
    <property name="rotationMult" type="float" value="1"/>
    <property name="squib" type="int" value="-1"/>
    <property name="squibSE" value=""/>
    <property name="static" type="bool" value="true"/>
   </properties>
  </object>
  <object id="659" class="prop" gid="592" x="1161.84" y="774.475" width="28" height="16" rotation="49.9846">
   <properties>
    <property name="foreground" type="bool" value="true"/>
    <property name="noDestroy" type="bool" value="true"/>
    <property name="rotationMult" type="float" value="1"/>
    <property name="squib" type="int" value="-1"/>
    <property name="squibSE" value=""/>
    <property name="static" type="bool" value="true"/>
   </properties>
  </object>
  <object id="660" class="prop" gid="167" x="1171" y="777" width="13" height="27" rotation="27.2001">
   <properties>
    <property name="foreground" type="bool" value="true"/>
    <property name="noDestroy" type="bool" value="true"/>
    <property name="rotationMult" type="float" value="1"/>
    <property name="squib" type="int" value="-1"/>
    <property name="squibSE" value=""/>
    <property name="static" type="bool" value="false"/>
   </properties>
  </object>
  <object id="661" class="prop" gid="664" x="1102" y="784" width="40" height="43" rotation="293.431">
   <properties>
    <property name="foreground" type="bool" value="true"/>
    <property name="noDestroy" type="bool" value="true"/>
    <property name="rotationMult" type="float" value="1"/>
    <property name="squib" type="int" value="-1"/>
    <property name="squibSE" value=""/>
    <property name="static" type="bool" value="true"/>
   </properties>
  </object>
  <object id="663" class="prop" gid="595" x="1071" y="748" width="23" height="15" rotation="335.586">
   <properties>
    <property name="foreground" type="bool" value="true"/>
    <property name="noDestroy" type="bool" value="true"/>
    <property name="rotationMult" type="float" value="1"/>
    <property name="squib" type="int" value="-1"/>
    <property name="squibSE" value=""/>
    <property name="static" type="bool" value="true"/>
   </properties>
  </object>
  <object id="664" class="prop" gid="166" x="1080" y="735" width="12" height="29" rotation="17.2018">
   <properties>
    <property name="foreground" type="bool" value="true"/>
    <property name="noDestroy" type="bool" value="true"/>
    <property name="rotationMult" type="float" value="1"/>
    <property name="squib" type="int" value="-1"/>
    <property name="squibSE" value=""/>
    <property name="static" type="bool" value="false"/>
   </properties>
  </object>
  <object id="666" class="prop" gid="140" x="1101" y="742" width="27" height="19" rotation="348.253">
   <properties>
    <property name="foreground" type="bool" value="true"/>
    <property name="noDestroy" type="bool" value="true"/>
    <property name="rotationMult" type="float" value="1"/>
    <property name="squib" type="int" value="-1"/>
    <property name="squibSE" value=""/>
    <property name="static" type="bool" value="true"/>
   </properties>
  </object>
  <object id="667" class="prop" gid="142" x="1124" y="727" width="19" height="12" rotation="31.6405">
   <properties>
    <property name="foreground" type="bool" value="true"/>
    <property name="noDestroy" type="bool" value="true"/>
    <property name="rotationMult" type="float" value="1"/>
    <property name="squib" type="int" value="-1"/>
    <property name="squibSE" value=""/>
    <property name="static" type="bool" value="true"/>
   </properties>
  </object>
  <object id="668" class="prop" gid="133" x="1365" y="766.098" width="47" height="37" rotation="213.605">
   <properties>
    <property name="foreground" type="bool" value="true"/>
    <property name="noDestroy" type="bool" value="true"/>
    <property name="rotationMult" type="float" value="1"/>
    <property name="squib" type="int" value="-1"/>
    <property name="squibSE" value=""/>
    <property name="static" type="bool" value="true"/>
   </properties>
  </object>
  <object id="669" class="prop" gid="133" x="1386.69" y="740" width="47" height="37" rotation="163.649">
   <properties>
    <property name="foreground" type="bool" value="true"/>
    <property name="noDestroy" type="bool" value="true"/>
    <property name="rotationMult" type="float" value="1"/>
    <property name="squib" type="int" value="-1"/>
    <property name="squibSE" value=""/>
    <property name="static" type="bool" value="true"/>
   </properties>
  </object>
  <object id="672" class="prop" gid="135" x="1242" y="726" width="40" height="44" rotation="307.673">
   <properties>
    <property name="foreground" type="bool" value="true"/>
    <property name="noDestroy" type="bool" value="true"/>
    <property name="rotationMult" type="float" value="1"/>
    <property name="squib" type="int" value="-1"/>
    <property name="squibSE" value=""/>
    <property name="static" type="bool" value="true"/>
   </properties>
  </object>
  <object id="673" class="prop" gid="664" x="1242" y="685" width="40" height="43" rotation="293.431">
   <properties>
    <property name="foreground" type="bool" value="true"/>
    <property name="noDestroy" type="bool" value="true"/>
    <property name="rotationMult" type="float" value="1"/>
    <property name="squib" type="int" value="-1"/>
    <property name="squibSE" value=""/>
    <property name="static" type="bool" value="true"/>
   </properties>
  </object>
  <object id="674" class="prop" gid="668" x="1225" y="622" width="26" height="21" rotation="209.677">
   <properties>
    <property name="foreground" type="bool" value="true"/>
    <property name="noDestroy" type="bool" value="true"/>
    <property name="rotationMult" type="float" value="1"/>
    <property name="squib" type="int" value="-1"/>
    <property name="squibSE" value=""/>
    <property name="static" type="bool" value="true"/>
   </properties>
  </object>
  <object id="675" class="prop" gid="592" x="1221" y="664" width="28" height="16" rotation="273.782">
   <properties>
    <property name="foreground" type="bool" value="true"/>
    <property name="noDestroy" type="bool" value="true"/>
    <property name="rotationMult" type="float" value="1"/>
    <property name="squib" type="int" value="-1"/>
    <property name="squibSE" value=""/>
    <property name="static" type="bool" value="true"/>
   </properties>
  </object>
  <object id="676" class="prop" gid="139" x="1138" y="616" width="27" height="22" rotation="166.814">
   <properties>
    <property name="foreground" type="bool" value="true"/>
    <property name="noDestroy" type="bool" value="true"/>
    <property name="rotationMult" type="float" value="1"/>
    <property name="squib" type="int" value="-1"/>
    <property name="squibSE" value=""/>
    <property name="static" type="bool" value="true"/>
   </properties>
  </object>
  <object id="677" class="prop" gid="141" x="1085.66" y="624.272" width="25" height="22" rotation="209.953">
   <properties>
    <property name="foreground" type="bool" value="true"/>
    <property name="noDestroy" type="bool" value="true"/>
    <property name="rotationMult" type="float" value="1"/>
    <property name="squib" type="int" value="-1"/>
    <property name="squibSE" value=""/>
    <property name="static" type="bool" value="true"/>
   </properties>
  </object>
  <object id="678" class="prop" gid="137" x="1106.38" y="620.669" width="25" height="23" rotation="194.308">
   <properties>
    <property name="foreground" type="bool" value="true"/>
    <property name="noDestroy" type="bool" value="true"/>
    <property name="rotationMult" type="float" value="1"/>
    <property name="squib" type="int" value="-1"/>
    <property name="squibSE" value=""/>
    <property name="static" type="bool" value="true"/>
   </properties>
  </object>
  <object id="679" class="prop" gid="135" x="1203.5" y="610.062" width="40" height="44" rotation="203.22">
   <properties>
    <property name="foreground" type="bool" value="true"/>
    <property name="noDestroy" type="bool" value="true"/>
    <property name="rotationMult" type="float" value="1"/>
    <property name="squib" type="int" value="-1"/>
    <property name="squibSE" value=""/>
    <property name="static" type="bool" value="true"/>
   </properties>
  </object>
  <object id="680" class="prop" gid="133" x="1142.97" y="604.651" width="47" height="37" rotation="184.15">
   <properties>
    <property name="foreground" type="bool" value="true"/>
    <property name="noDestroy" type="bool" value="true"/>
    <property name="rotationMult" type="float" value="1"/>
    <property name="squib" type="int" value="-1"/>
    <property name="squibSE" value=""/>
    <property name="static" type="bool" value="true"/>
   </properties>
  </object>
  <object id="681" class="prop" gid="144" x="1159" y="597" width="20" height="17" rotation="166.814">
   <properties>
    <property name="foreground" type="bool" value="true"/>
    <property name="noDestroy" type="bool" value="true"/>
    <property name="rotationMult" type="float" value="1"/>
    <property name="squib" type="int" value="-1"/>
    <property name="squibSE" value=""/>
    <property name="static" type="bool" value="true"/>
   </properties>
  </object>
  <object id="682" class="prop" gid="145" x="1078" y="604" width="14" height="18" rotation="209.953">
   <properties>
    <property name="foreground" type="bool" value="true"/>
    <property name="noDestroy" type="bool" value="true"/>
    <property name="rotationMult" type="float" value="1"/>
    <property name="squib" type="int" value="-1"/>
    <property name="squibSE" value=""/>
    <property name="static" type="bool" value="true"/>
   </properties>
  </object>
  <object id="683" class="prop" gid="665" x="1025" y="645" width="40" height="39" rotation="138.67">
   <properties>
    <property name="foreground" type="bool" value="true"/>
    <property name="noDestroy" type="bool" value="true"/>
    <property name="rotationMult" type="float" value="1"/>
    <property name="squib" type="int" value="-1"/>
    <property name="squibSE" value=""/>
    <property name="static" type="bool" value="true"/>
   </properties>
  </object>
  <object id="684" class="prop" gid="670" x="1019" y="694" width="25" height="22" rotation="127.305">
   <properties>
    <property name="foreground" type="bool" value="true"/>
    <property name="noDestroy" type="bool" value="true"/>
    <property name="rotationMult" type="float" value="1"/>
    <property name="squib" type="int" value="-1"/>
    <property name="squibSE" value=""/>
    <property name="static" type="bool" value="true"/>
   </properties>
  </object>
  <object id="688" class="prop" gid="662" x="1017" y="717" width="44" height="37" rotation="170.842">
   <properties>
    <property name="foreground" type="bool" value="true"/>
    <property name="noDestroy" type="bool" value="true"/>
    <property name="rotationMult" type="float" value="1"/>
    <property name="squib" type="int" value="-1"/>
    <property name="squibSE" value=""/>
    <property name="static" type="bool" value="true"/>
   </properties>
  </object>
  <object id="689" class="prop" gid="141" x="1031" y="613" width="25" height="22" rotation="132.166">
   <properties>
    <property name="foreground" type="bool" value="true"/>
    <property name="noDestroy" type="bool" value="true"/>
    <property name="rotationMult" type="float" value="1"/>
    <property name="squib" type="int" value="-1"/>
    <property name="squibSE" value=""/>
    <property name="static" type="bool" value="true"/>
   </properties>
  </object>
  <object id="690" class="prop" gid="592" x="1016" y="715" width="28" height="16" rotation="105.667">
   <properties>
    <property name="foreground" type="bool" value="true"/>
    <property name="noDestroy" type="bool" value="true"/>
    <property name="rotationMult" type="float" value="1"/>
    <property name="squib" type="int" value="-1"/>
    <property name="squibSE" value=""/>
    <property name="static" type="bool" value="true"/>
   </properties>
  </object>
  <object id="691" class="prop" gid="159" x="1020" y="737" width="55" height="13" rotation="14.8444">
   <properties>
    <property name="foreground" type="bool" value="true"/>
    <property name="noDestroy" type="bool" value="true"/>
    <property name="rotationMult" type="float" value="1"/>
    <property name="squib" type="int" value="-1"/>
    <property name="squibSE" value=""/>
    <property name="static" type="bool" value="true"/>
   </properties>
  </object>
  <object id="692" class="prop" gid="664" x="1495" y="716" width="40" height="43" rotation="225.29">
   <properties>
    <property name="foreground" type="bool" value="true"/>
    <property name="noDestroy" type="bool" value="true"/>
    <property name="rotationMult" type="float" value="1"/>
    <property name="squib" type="int" value="-1"/>
    <property name="squibSE" value=""/>
    <property name="static" type="bool" value="true"/>
   </properties>
  </object>
  <object id="694" class="prop" gid="150" x="1255" y="765" width="27" height="41" rotation="33.3842">
   <properties>
    <property name="foreground" type="bool" value="false"/>
    <property name="noDestroy" type="bool" value="true"/>
    <property name="rotationMult" type="float" value="1"/>
    <property name="squib" type="int" value="-1"/>
    <property name="squibSE" value=""/>
    <property name="static" type="bool" value="true"/>
   </properties>
  </object>
  <object id="695" class="prop" gid="152" x="1405" y="762" width="19" height="25" rotation="344.291">
   <properties>
    <property name="foreground" type="bool" value="false"/>
    <property name="noDestroy" type="bool" value="true"/>
    <property name="rotationMult" type="float" value="1"/>
    <property name="squib" type="int" value="-1"/>
    <property name="squibSE" value=""/>
    <property name="static" type="bool" value="true"/>
   </properties>
  </object>
  <object id="696" class="prop" gid="154" x="1040" y="666" width="26" height="28" rotation="344.291">
   <properties>
    <property name="foreground" type="bool" value="false"/>
    <property name="noDestroy" type="bool" value="true"/>
    <property name="rotationMult" type="float" value="1"/>
    <property name="squib" type="int" value="-1"/>
    <property name="squibSE" value=""/>
    <property name="static" type="bool" value="true"/>
   </properties>
  </object>
  <object id="697" class="prop" gid="151" x="1240" y="752" width="21" height="34" rotation="7.19516">
   <properties>
    <property name="foreground" type="bool" value="false"/>
    <property name="noDestroy" type="bool" value="true"/>
    <property name="rotationMult" type="float" value="1"/>
    <property name="squib" type="int" value="-1"/>
    <property name="squibSE" value=""/>
    <property name="static" type="bool" value="true"/>
   </properties>
  </object>
  <object id="698" class="prop" gid="665" x="1074" y="842" width="40" height="39" rotation="341.226">
   <properties>
    <property name="foreground" type="bool" value="true"/>
    <property name="noDestroy" type="bool" value="true"/>
    <property name="rotationMult" type="float" value="1"/>
    <property name="squib" type="int" value="-1"/>
    <property name="squibSE" value=""/>
    <property name="static" type="bool" value="true"/>
   </properties>
  </object>
  <object id="699" class="prop" gid="595" x="1075" y="813" width="23" height="15" rotation="330.211">
   <properties>
    <property name="foreground" type="bool" value="true"/>
    <property name="noDestroy" type="bool" value="true"/>
    <property name="rotationMult" type="float" value="1"/>
    <property name="squib" type="int" value="-1"/>
    <property name="squibSE" value=""/>
    <property name="static" type="bool" value="true"/>
   </properties>
  </object>
  <object id="700" class="prop" gid="592" x="1074.29" y="836.727" width="28" height="16" rotation="288.446">
   <properties>
    <property name="foreground" type="bool" value="true"/>
    <property name="noDestroy" type="bool" value="true"/>
    <property name="rotationMult" type="float" value="1"/>
    <property name="squib" type="int" value="-1"/>
    <property name="squibSE" value=""/>
    <property name="static" type="bool" value="true"/>
   </properties>
  </object>
  <object id="701" class="prop" gid="166" x="1072" y="804" width="12" height="29" rotation="352.078">
   <properties>
    <property name="foreground" type="bool" value="true"/>
    <property name="noDestroy" type="bool" value="true"/>
    <property name="rotationMult" type="float" value="1"/>
    <property name="squib" type="int" value="-1"/>
    <property name="squibSE" value=""/>
    <property name="static" type="bool" value="false"/>
   </properties>
  </object>
  <object id="702" class="prop" gid="123" x="1047.52" y="841.03" width="26" height="23" rotation="336.306">
   <properties>
    <property name="foreground" type="bool" value="true"/>
    <property name="noDestroy" type="bool" value="true"/>
    <property name="rotationMult" type="float" value="1"/>
    <property name="squib" type="int" value="-1"/>
    <property name="squibSE" value=""/>
    <property name="static" type="bool" value="false"/>
   </properties>
  </object>
  <object id="703" class="prop" gid="125" x="1034" y="836" width="24" height="22" rotation="351.626">
   <properties>
    <property name="foreground" type="bool" value="true"/>
    <property name="noDestroy" type="bool" value="true"/>
    <property name="rotationMult" type="float" value="1"/>
    <property name="squib" type="int" value="-1"/>
    <property name="squibSE" value=""/>
    <property name="static" type="bool" value="false"/>
   </properties>
  </object>
  <object id="704" class="prop" gid="122" x="1008" y="841" width="35" height="20" rotation="351.17">
   <properties>
    <property name="foreground" type="bool" value="true"/>
    <property name="noDestroy" type="bool" value="true"/>
    <property name="rotationMult" type="float" value="1"/>
    <property name="squib" type="int" value="-1"/>
    <property name="squibSE" value=""/>
    <property name="static" type="bool" value="false"/>
   </properties>
  </object>
  <object id="705" class="prop" gid="169" x="987" y="834" width="20" height="29" rotation="5.08043">
   <properties>
    <property name="foreground" type="bool" value="true"/>
    <property name="noDestroy" type="bool" value="true"/>
    <property name="rotationMult" type="float" value="1"/>
    <property name="squib" type="int" value="-1"/>
    <property name="squibSE" value=""/>
    <property name="static" type="bool" value="false"/>
   </properties>
  </object>
  <object id="706" class="prop" gid="166" x="980" y="836" width="12" height="29" rotation="347.315">
   <properties>
    <property name="foreground" type="bool" value="true"/>
    <property name="noDestroy" type="bool" value="true"/>
    <property name="rotationMult" type="float" value="1"/>
    <property name="squib" type="int" value="-1"/>
    <property name="squibSE" value=""/>
    <property name="static" type="bool" value="false"/>
   </properties>
  </object>
  <object id="709" class="prop" gid="136" x="752" y="676.155" width="40" height="39" rotation="177.148">
   <properties>
    <property name="foreground" type="bool" value="true"/>
    <property name="noDestroy" type="bool" value="true"/>
    <property name="rotationMult" type="float" value="1"/>
    <property name="squib" type="int" value="-1"/>
    <property name="squibSE" value=""/>
    <property name="static" type="bool" value="true"/>
   </properties>
  </object>
  <object id="710" class="prop" gid="134" x="772.173" y="663" width="34" height="46" rotation="150.039">
   <properties>
    <property name="foreground" type="bool" value="true"/>
    <property name="noDestroy" type="bool" value="true"/>
    <property name="rotationMult" type="float" value="1"/>
    <property name="squib" type="int" value="-1"/>
    <property name="squibSE" value=""/>
    <property name="static" type="bool" value="true"/>
   </properties>
  </object>
  <object id="711" class="prop" gid="133" x="823.005" y="674.665" width="47" height="37" rotation="179.433">
   <properties>
    <property name="foreground" type="bool" value="true"/>
    <property name="noDestroy" type="bool" value="true"/>
    <property name="rotationMult" type="float" value="1"/>
    <property name="squib" type="int" value="-1"/>
    <property name="squibSE" value=""/>
    <property name="static" type="bool" value="true"/>
   </properties>
  </object>
  <object id="712" class="prop" gid="133" x="827.158" y="667.198" width="47" height="37" rotation="129.994">
   <properties>
    <property name="foreground" type="bool" value="true"/>
    <property name="noDestroy" type="bool" value="true"/>
    <property name="rotationMult" type="float" value="1"/>
    <property name="squib" type="int" value="-1"/>
    <property name="squibSE" value=""/>
    <property name="static" type="bool" value="true"/>
   </properties>
  </object>
  <object id="713" class="prop" gid="137" x="853" y="692" width="25" height="23" rotation="158.394">
   <properties>
    <property name="foreground" type="bool" value="true"/>
    <property name="noDestroy" type="bool" value="true"/>
    <property name="rotationMult" type="float" value="1"/>
    <property name="squib" type="int" value="-1"/>
    <property name="squibSE" value=""/>
    <property name="static" type="bool" value="true"/>
   </properties>
  </object>
  <object id="714" class="prop" gid="137" x="757.688" y="692.175" width="25" height="23" rotation="158.394">
   <properties>
    <property name="foreground" type="bool" value="true"/>
    <property name="noDestroy" type="bool" value="true"/>
    <property name="rotationMult" type="float" value="1"/>
    <property name="squib" type="int" value="-1"/>
    <property name="squibSE" value=""/>
    <property name="static" type="bool" value="true"/>
   </properties>
  </object>
  <object id="716" class="prop" gid="138" x="929" y="730" width="24" height="18" rotation="186.396">
   <properties>
    <property name="foreground" type="bool" value="true"/>
    <property name="noDestroy" type="bool" value="true"/>
    <property name="rotationMult" type="float" value="1"/>
    <property name="squib" type="int" value="-1"/>
    <property name="squibSE" value=""/>
    <property name="static" type="bool" value="true"/>
   </properties>
  </object>
  <object id="717" class="prop" gid="139" x="903.62" y="731" width="27" height="22" rotation="166.814">
   <properties>
    <property name="foreground" type="bool" value="true"/>
    <property name="noDestroy" type="bool" value="true"/>
    <property name="rotationMult" type="float" value="1"/>
    <property name="squib" type="int" value="-1"/>
    <property name="squibSE" value=""/>
    <property name="static" type="bool" value="true"/>
   </properties>
  </object>
  <object id="718" class="prop" gid="140" x="984" y="730" width="27" height="19" rotation="196.755">
   <properties>
    <property name="foreground" type="bool" value="true"/>
    <property name="noDestroy" type="bool" value="true"/>
    <property name="rotationMult" type="float" value="1"/>
    <property name="squib" type="int" value="-1"/>
    <property name="squibSE" value=""/>
    <property name="static" type="bool" value="true"/>
   </properties>
  </object>
  <object id="720" class="prop" gid="135" x="974" y="719" width="40" height="44" rotation="203.22">
   <properties>
    <property name="foreground" type="bool" value="true"/>
    <property name="noDestroy" type="bool" value="true"/>
    <property name="rotationMult" type="float" value="1"/>
    <property name="squib" type="int" value="-1"/>
    <property name="squibSE" value=""/>
    <property name="static" type="bool" value="true"/>
   </properties>
  </object>
  <object id="721" class="prop" gid="662" x="907" y="712" width="44" height="37" rotation="184.15">
   <properties>
    <property name="foreground" type="bool" value="true"/>
    <property name="noDestroy" type="bool" value="true"/>
    <property name="rotationMult" type="float" value="1"/>
    <property name="squib" type="int" value="-1"/>
    <property name="squibSE" value=""/>
    <property name="static" type="bool" value="true"/>
   </properties>
  </object>
  <object id="722" class="prop" gid="144" x="924.62" y="712" width="20" height="17" rotation="166.814">
   <properties>
    <property name="foreground" type="bool" value="true"/>
    <property name="noDestroy" type="bool" value="true"/>
    <property name="rotationMult" type="float" value="1"/>
    <property name="squib" type="int" value="-1"/>
    <property name="squibSE" value=""/>
    <property name="static" type="bool" value="true"/>
   </properties>
  </object>
  <object id="723" class="prop" gid="122" x="787" y="837" width="35" height="20" rotation="4.90594">
   <properties>
    <property name="foreground" type="bool" value="true"/>
    <property name="noDestroy" type="bool" value="true"/>
    <property name="rotationMult" type="float" value="1"/>
    <property name="squib" type="int" value="-1"/>
    <property name="squibSE" value=""/>
    <property name="static" type="bool" value="false"/>
   </properties>
  </object>
  <object id="724" class="prop" gid="123" x="777" y="839" width="26" height="23" rotation="349.586">
   <properties>
    <property name="foreground" type="bool" value="true"/>
    <property name="noDestroy" type="bool" value="true"/>
    <property name="rotationMult" type="float" value="1"/>
    <property name="squib" type="int" value="-1"/>
    <property name="squibSE" value=""/>
    <property name="static" type="bool" value="false"/>
   </properties>
  </object>
  <object id="725" class="prop" gid="125" x="763" y="840" width="24" height="22" rotation="4.90594">
   <properties>
    <property name="foreground" type="bool" value="true"/>
    <property name="noDestroy" type="bool" value="true"/>
    <property name="rotationMult" type="float" value="1"/>
    <property name="squib" type="int" value="-1"/>
    <property name="squibSE" value=""/>
    <property name="static" type="bool" value="false"/>
   </properties>
  </object>
  <object id="726" class="prop" gid="124" x="746" y="835" width="32" height="20" rotation="4.98863">
   <properties>
    <property name="foreground" type="bool" value="true"/>
    <property name="noDestroy" type="bool" value="true"/>
    <property name="rotationMult" type="float" value="1"/>
    <property name="squib" type="int" value="-1"/>
    <property name="squibSE" value=""/>
    <property name="static" type="bool" value="false"/>
   </properties>
  </object>
  <object id="727" class="prop" gid="128" x="820" y="835" width="26" height="19" rotation="2.18209">
   <properties>
    <property name="foreground" type="bool" value="true"/>
    <property name="noDestroy" type="bool" value="true"/>
    <property name="rotationMult" type="float" value="1"/>
    <property name="squib" type="int" value="-1"/>
    <property name="squibSE" value=""/>
    <property name="static" type="bool" value="false"/>
   </properties>
  </object>
  <object id="728" class="prop" gid="131" x="842" y="834" width="11" height="13" rotation="358.432">
   <properties>
    <property name="foreground" type="bool" value="true"/>
    <property name="noDestroy" type="bool" value="true"/>
    <property name="rotationMult" type="float" value="1"/>
    <property name="squib" type="int" value="-1"/>
    <property name="squibSE" value=""/>
    <property name="static" type="bool" value="false"/>
   </properties>
  </object>
  <object id="729" class="prop" gid="132" x="851" y="833" width="12" height="13" rotation="358.432">
   <properties>
    <property name="foreground" type="bool" value="true"/>
    <property name="noDestroy" type="bool" value="true"/>
    <property name="rotationMult" type="float" value="1"/>
    <property name="squib" type="int" value="-1"/>
    <property name="squibSE" value=""/>
    <property name="static" type="bool" value="false"/>
   </properties>
  </object>
  <object id="730" class="prop" gid="130" x="871" y="836" width="27" height="15" rotation="357.05">
   <properties>
    <property name="foreground" type="bool" value="true"/>
    <property name="noDestroy" type="bool" value="true"/>
    <property name="rotationMult" type="float" value="1"/>
    <property name="squib" type="int" value="-1"/>
    <property name="squibSE" value=""/>
    <property name="static" type="bool" value="false"/>
   </properties>
  </object>
  <object id="731" class="prop" gid="132" x="905" y="835" width="12" height="13" rotation="358.432">
   <properties>
    <property name="foreground" type="bool" value="true"/>
    <property name="noDestroy" type="bool" value="true"/>
    <property name="rotationMult" type="float" value="1"/>
    <property name="squib" type="int" value="-1"/>
    <property name="squibSE" value=""/>
    <property name="static" type="bool" value="false"/>
   </properties>
  </object>
  <object id="732" class="prop" gid="169" x="936" y="834" width="20" height="29" rotation="2.18209">
   <properties>
    <property name="foreground" type="bool" value="true"/>
    <property name="noDestroy" type="bool" value="true"/>
    <property name="rotationMult" type="float" value="1"/>
    <property name="squib" type="int" value="-1"/>
    <property name="squibSE" value=""/>
    <property name="static" type="bool" value="false"/>
   </properties>
  </object>
  <object id="733" class="prop" gid="131" x="917" y="834" width="11" height="13" rotation="358.432">
   <properties>
    <property name="foreground" type="bool" value="true"/>
    <property name="noDestroy" type="bool" value="true"/>
    <property name="rotationMult" type="float" value="1"/>
    <property name="squib" type="int" value="-1"/>
    <property name="squibSE" value=""/>
    <property name="static" type="bool" value="false"/>
   </properties>
  </object>
  <object id="734" class="prop" gid="132" x="929" y="833" width="12" height="13" rotation="358.432">
   <properties>
    <property name="foreground" type="bool" value="true"/>
    <property name="noDestroy" type="bool" value="true"/>
    <property name="rotationMult" type="float" value="1"/>
    <property name="squib" type="int" value="-1"/>
    <property name="squibSE" value=""/>
    <property name="static" type="bool" value="false"/>
   </properties>
  </object>
  <object id="735" class="prop" gid="166" x="747" y="834" width="12" height="29" rotation="358.432">
   <properties>
    <property name="foreground" type="bool" value="true"/>
    <property name="noDestroy" type="bool" value="true"/>
    <property name="rotationMult" type="float" value="1"/>
    <property name="squib" type="int" value="-1"/>
    <property name="squibSE" value=""/>
    <property name="static" type="bool" value="false"/>
   </properties>
  </object>
  <object id="736" class="prop" gid="167" x="729" y="833" width="13" height="27" rotation="7.65142">
   <properties>
    <property name="foreground" type="bool" value="true"/>
    <property name="noDestroy" type="bool" value="true"/>
    <property name="rotationMult" type="float" value="1"/>
    <property name="squib" type="int" value="-1"/>
    <property name="squibSE" value=""/>
    <property name="static" type="bool" value="false"/>
   </properties>
  </object>
  <object id="737" class="prop" gid="148" x="837" y="731" width="21" height="37" rotation="30.712">
   <properties>
    <property name="foreground" type="bool" value="false"/>
    <property name="noDestroy" type="bool" value="true"/>
    <property name="rotationMult" type="float" value="1"/>
    <property name="squib" type="int" value="-1"/>
    <property name="squibSE" value=""/>
    <property name="static" type="bool" value="true"/>
   </properties>
  </object>
  <object id="738" class="prop" gid="151" x="1135" y="655" width="21" height="34" rotation="2.99698">
   <properties>
    <property name="foreground" type="bool" value="false"/>
    <property name="noDestroy" type="bool" value="true"/>
    <property name="rotationMult" type="float" value="1"/>
    <property name="squib" type="int" value="-1"/>
    <property name="squibSE" value=""/>
    <property name="static" type="bool" value="true"/>
   </properties>
  </object>
  <object id="739" class="prop" gid="154" x="904" y="771" width="26" height="28" rotation="2.99698">
   <properties>
    <property name="foreground" type="bool" value="false"/>
    <property name="noDestroy" type="bool" value="true"/>
    <property name="rotationMult" type="float" value="1"/>
    <property name="squib" type="int" value="-1"/>
    <property name="squibSE" value=""/>
    <property name="static" type="bool" value="true"/>
   </properties>
  </object>
  <object id="740" class="prop" gid="151" x="779.24" y="744.923" width="21" height="34" rotation="2.76135">
   <properties>
    <property name="foreground" type="bool" value="false"/>
    <property name="noDestroy" type="bool" value="true"/>
    <property name="rotationMult" type="float" value="1"/>
    <property name="squib" type="int" value="-1"/>
    <property name="squibSE" value=""/>
    <property name="static" type="bool" value="true"/>
   </properties>
  </object>
  <object id="758" class="prop" gid="128" x="551" y="835" width="26" height="19" rotation="2.18209">
   <properties>
    <property name="foreground" type="bool" value="true"/>
    <property name="noDestroy" type="bool" value="true"/>
    <property name="rotationMult" type="float" value="1"/>
    <property name="squib" type="int" value="-1"/>
    <property name="squibSE" value=""/>
    <property name="static" type="bool" value="false"/>
   </properties>
  </object>
  <object id="759" class="prop" gid="131" x="578" y="830" width="11" height="13" rotation="358.432">
   <properties>
    <property name="foreground" type="bool" value="true"/>
    <property name="noDestroy" type="bool" value="true"/>
    <property name="rotationMult" type="float" value="1"/>
    <property name="squib" type="int" value="-1"/>
    <property name="squibSE" value=""/>
    <property name="static" type="bool" value="false"/>
   </properties>
  </object>
  <object id="760" class="prop" gid="123" x="373" y="841" width="26" height="23" rotation="346.74">
   <properties>
    <property name="foreground" type="bool" value="true"/>
    <property name="noDestroy" type="bool" value="true"/>
    <property name="rotationMult" type="float" value="1"/>
    <property name="squib" type="int" value="-1"/>
    <property name="squibSE" value=""/>
    <property name="static" type="bool" value="false"/>
   </properties>
  </object>
  <object id="761" class="prop" gid="122" x="344" y="835" width="35" height="20" rotation="4.90594">
   <properties>
    <property name="foreground" type="bool" value="true"/>
    <property name="noDestroy" type="bool" value="true"/>
    <property name="rotationMult" type="float" value="1"/>
    <property name="squib" type="int" value="-1"/>
    <property name="squibSE" value=""/>
    <property name="static" type="bool" value="false"/>
   </properties>
  </object>
  <object id="762" class="prop" gid="166" x="377" y="835" width="12" height="29" rotation="358.432">
   <properties>
    <property name="foreground" type="bool" value="true"/>
    <property name="noDestroy" type="bool" value="true"/>
    <property name="rotationMult" type="float" value="1"/>
    <property name="squib" type="int" value="-1"/>
    <property name="squibSE" value=""/>
    <property name="static" type="bool" value="false"/>
   </properties>
  </object>
  <object id="763" class="prop" gid="169" x="385" y="834" width="20" height="29" rotation="5.08043">
   <properties>
    <property name="foreground" type="bool" value="true"/>
    <property name="noDestroy" type="bool" value="true"/>
    <property name="rotationMult" type="float" value="1"/>
    <property name="squib" type="int" value="-1"/>
    <property name="squibSE" value=""/>
    <property name="static" type="bool" value="false"/>
   </properties>
  </object>
  <object id="764" class="prop" gid="142" x="542" y="840" width="19" height="12" rotation="311.632">
   <properties>
    <property name="foreground" type="bool" value="true"/>
    <property name="noDestroy" type="bool" value="true"/>
    <property name="rotationMult" type="float" value="1"/>
    <property name="squib" type="int" value="-1"/>
    <property name="squibSE" value=""/>
    <property name="static" type="bool" value="true"/>
   </properties>
  </object>
  <object id="765" class="prop" gid="143" x="453" y="831" width="14" height="14" rotation="15.4216">
   <properties>
    <property name="foreground" type="bool" value="true"/>
    <property name="noDestroy" type="bool" value="true"/>
    <property name="rotationMult" type="float" value="1"/>
    <property name="squib" type="int" value="-1"/>
    <property name="squibSE" value=""/>
    <property name="static" type="bool" value="true"/>
   </properties>
  </object>
  <object id="766" class="prop" gid="138" x="579" y="836" width="24" height="18" rotation="15.4216">
   <properties>
    <property name="foreground" type="bool" value="true"/>
    <property name="noDestroy" type="bool" value="true"/>
    <property name="rotationMult" type="float" value="1"/>
    <property name="squib" type="int" value="-1"/>
    <property name="squibSE" value=""/>
    <property name="static" type="bool" value="true"/>
   </properties>
  </object>
  <object id="767" class="prop" gid="128" x="410" y="835" width="26" height="19" rotation="2.18209">
   <properties>
    <property name="foreground" type="bool" value="true"/>
    <property name="noDestroy" type="bool" value="true"/>
    <property name="rotationMult" type="float" value="1"/>
    <property name="squib" type="int" value="-1"/>
    <property name="squibSE" value=""/>
    <property name="static" type="bool" value="false"/>
   </properties>
  </object>
  <object id="768" class="prop" gid="131" x="439" y="835" width="11" height="13" rotation="358.432">
   <properties>
    <property name="foreground" type="bool" value="true"/>
    <property name="noDestroy" type="bool" value="true"/>
    <property name="rotationMult" type="float" value="1"/>
    <property name="squib" type="int" value="-1"/>
    <property name="squibSE" value=""/>
    <property name="static" type="bool" value="false"/>
   </properties>
  </object>
  <object id="769" class="prop" gid="132" x="448" y="834" width="12" height="13" rotation="358.432">
   <properties>
    <property name="foreground" type="bool" value="true"/>
    <property name="noDestroy" type="bool" value="true"/>
    <property name="rotationMult" type="float" value="1"/>
    <property name="squib" type="int" value="-1"/>
    <property name="squibSE" value=""/>
    <property name="static" type="bool" value="false"/>
   </properties>
  </object>
  <object id="770" class="prop" gid="129" x="454" y="836" width="22" height="14" rotation="354.71">
   <properties>
    <property name="foreground" type="bool" value="true"/>
    <property name="noDestroy" type="bool" value="true"/>
    <property name="rotationMult" type="float" value="1"/>
    <property name="squib" type="int" value="-1"/>
    <property name="squibSE" value=""/>
    <property name="static" type="bool" value="false"/>
   </properties>
  </object>
  <object id="771" class="prop" gid="130" x="468" y="832" width="27" height="15" rotation="12.0576">
   <properties>
    <property name="foreground" type="bool" value="true"/>
    <property name="noDestroy" type="bool" value="true"/>
    <property name="rotationMult" type="float" value="1"/>
    <property name="squib" type="int" value="-1"/>
    <property name="squibSE" value=""/>
    <property name="static" type="bool" value="false"/>
   </properties>
  </object>
  <object id="772" class="prop" gid="132" x="490" y="836" width="12" height="13" rotation="358.432">
   <properties>
    <property name="foreground" type="bool" value="true"/>
    <property name="noDestroy" type="bool" value="true"/>
    <property name="rotationMult" type="float" value="1"/>
    <property name="squib" type="int" value="-1"/>
    <property name="squibSE" value=""/>
    <property name="static" type="bool" value="false"/>
   </properties>
  </object>
  <object id="773" class="prop" gid="128" x="500" y="835" width="26" height="19" rotation="2.18209">
   <properties>
    <property name="foreground" type="bool" value="true"/>
    <property name="noDestroy" type="bool" value="true"/>
    <property name="rotationMult" type="float" value="1"/>
    <property name="squib" type="int" value="-1"/>
    <property name="squibSE" value=""/>
    <property name="static" type="bool" value="false"/>
   </properties>
  </object>
  <object id="774" class="prop" gid="132" x="526" y="834" width="12" height="13" rotation="358.432">
   <properties>
    <property name="foreground" type="bool" value="true"/>
    <property name="noDestroy" type="bool" value="true"/>
    <property name="rotationMult" type="float" value="1"/>
    <property name="squib" type="int" value="-1"/>
    <property name="squibSE" value=""/>
    <property name="static" type="bool" value="false"/>
   </properties>
  </object>
  <object id="775" class="prop" gid="665" x="704.413" y="891.308" width="40" height="39" rotation="313.728">
   <properties>
    <property name="foreground" type="bool" value="true"/>
    <property name="noDestroy" type="bool" value="true"/>
    <property name="rotationMult" type="float" value="1"/>
    <property name="squib" type="int" value="-1"/>
    <property name="squibSE" value=""/>
    <property name="static" type="bool" value="true"/>
   </properties>
  </object>
  <object id="776" class="prop" gid="662" x="588" y="847" width="44" height="37" rotation="104.879">
   <properties>
    <property name="foreground" type="bool" value="true"/>
    <property name="noDestroy" type="bool" value="true"/>
    <property name="rotationMult" type="float" value="1"/>
    <property name="squib" type="int" value="-1"/>
    <property name="squibSE" value=""/>
    <property name="static" type="bool" value="true"/>
   </properties>
  </object>
  <object id="778" class="prop" gid="167" x="610" y="896" width="13" height="27" rotation="7.65142">
   <properties>
    <property name="foreground" type="bool" value="true"/>
    <property name="noDestroy" type="bool" value="true"/>
    <property name="rotationMult" type="float" value="1"/>
    <property name="squib" type="int" value="-1"/>
    <property name="squibSE" value=""/>
    <property name="static" type="bool" value="false"/>
   </properties>
  </object>
  <object id="779" class="prop" gid="595" x="602" y="901" width="23" height="15" rotation="17.2953">
   <properties>
    <property name="foreground" type="bool" value="true"/>
    <property name="noDestroy" type="bool" value="true"/>
    <property name="rotationMult" type="float" value="1"/>
    <property name="squib" type="int" value="-1"/>
    <property name="squibSE" value=""/>
    <property name="static" type="bool" value="true"/>
   </properties>
  </object>
  <object id="780" class="prop" gid="595" x="689" y="907" width="23" height="15" rotation="336.575">
   <properties>
    <property name="foreground" type="bool" value="true"/>
    <property name="noDestroy" type="bool" value="true"/>
    <property name="rotationMult" type="float" value="1"/>
    <property name="squib" type="int" value="-1"/>
    <property name="squibSE" value=""/>
    <property name="static" type="bool" value="true"/>
   </properties>
  </object>
  <object id="781" class="prop" gid="131" x="688" y="896" width="11" height="13" rotation="349.626">
   <properties>
    <property name="foreground" type="bool" value="true"/>
    <property name="noDestroy" type="bool" value="true"/>
    <property name="rotationMult" type="float" value="1"/>
    <property name="squib" type="int" value="-1"/>
    <property name="squibSE" value=""/>
    <property name="static" type="bool" value="false"/>
   </properties>
  </object>
  <object id="782" class="prop" gid="592" x="692" y="866" width="28" height="16" rotation="298.903">
   <properties>
    <property name="foreground" type="bool" value="true"/>
    <property name="noDestroy" type="bool" value="true"/>
    <property name="rotationMult" type="float" value="1"/>
    <property name="squib" type="int" value="-1"/>
    <property name="squibSE" value=""/>
    <property name="static" type="bool" value="true"/>
   </properties>
  </object>
  <object id="783" class="prop" gid="135" x="707" y="664" width="40" height="44" rotation="312.811">
   <properties>
    <property name="foreground" type="bool" value="true"/>
    <property name="noDestroy" type="bool" value="true"/>
    <property name="rotationMult" type="float" value="1"/>
    <property name="squib" type="int" value="-1"/>
    <property name="squibSE" value=""/>
    <property name="static" type="bool" value="true"/>
   </properties>
  </object>
  <object id="784" class="prop" gid="665" x="710" y="712" width="40" height="39" rotation="296.195">
   <properties>
    <property name="foreground" type="bool" value="true"/>
    <property name="noDestroy" type="bool" value="true"/>
    <property name="rotationMult" type="float" value="1"/>
    <property name="squib" type="int" value="-1"/>
    <property name="squibSE" value=""/>
    <property name="static" type="bool" value="true"/>
   </properties>
  </object>
  <object id="785" class="prop" gid="668" x="724" y="674" width="26" height="21" rotation="269.347">
   <properties>
    <property name="foreground" type="bool" value="true"/>
    <property name="noDestroy" type="bool" value="true"/>
    <property name="rotationMult" type="float" value="1"/>
    <property name="squib" type="int" value="-1"/>
    <property name="squibSE" value=""/>
    <property name="static" type="bool" value="true"/>
   </properties>
  </object>
  <object id="787" class="prop" gid="595" x="688" y="681" width="23" height="15" rotation="312.979">
   <properties>
    <property name="foreground" type="bool" value="true"/>
    <property name="noDestroy" type="bool" value="true"/>
    <property name="rotationMult" type="float" value="1"/>
    <property name="squib" type="int" value="-1"/>
    <property name="squibSE" value=""/>
    <property name="static" type="bool" value="true"/>
   </properties>
  </object>
  <object id="788" class="prop" gid="166" x="684" y="668" width="12" height="29" rotation="358.432">
   <properties>
    <property name="foreground" type="bool" value="true"/>
    <property name="noDestroy" type="bool" value="true"/>
    <property name="rotationMult" type="float" value="1"/>
    <property name="squib" type="int" value="-1"/>
    <property name="squibSE" value=""/>
    <property name="static" type="bool" value="false"/>
   </properties>
  </object>
  <object id="789" class="prop" gid="664" x="608" y="626" width="40" height="43" rotation="142.579">
   <properties>
    <property name="foreground" type="bool" value="true"/>
    <property name="noDestroy" type="bool" value="true"/>
    <property name="rotationMult" type="float" value="1"/>
    <property name="squib" type="int" value="-1"/>
    <property name="squibSE" value=""/>
    <property name="static" type="bool" value="true"/>
   </properties>
  </object>
  <object id="790" class="prop" gid="595" x="603" y="634" width="23" height="15" rotation="48.0578">
   <properties>
    <property name="foreground" type="bool" value="true"/>
    <property name="noDestroy" type="bool" value="true"/>
    <property name="rotationMult" type="float" value="1"/>
    <property name="squib" type="int" value="-1"/>
    <property name="squibSE" value=""/>
    <property name="static" type="bool" value="true"/>
   </properties>
  </object>
  <object id="791" class="prop" gid="151" x="612" y="717" width="21" height="34" rotation="330.649">
   <properties>
    <property name="foreground" type="bool" value="false"/>
    <property name="noDestroy" type="bool" value="true"/>
    <property name="rotationMult" type="float" value="1"/>
    <property name="squib" type="int" value="-1"/>
    <property name="squibSE" value=""/>
    <property name="static" type="bool" value="true"/>
   </properties>
  </object>
  <object id="792" class="prop" gid="147" x="570" y="729" width="34" height="40" rotation="11.6292">
   <properties>
    <property name="foreground" type="bool" value="false"/>
    <property name="noDestroy" type="bool" value="true"/>
    <property name="rotationMult" type="float" value="1"/>
    <property name="squib" type="int" value="-1"/>
    <property name="squibSE" value=""/>
    <property name="static" type="bool" value="true"/>
   </properties>
  </object>
  <object id="793" class="prop" gid="131" x="616" y="634" width="11" height="13" rotation="51.9445">
   <properties>
    <property name="foreground" type="bool" value="true"/>
    <property name="noDestroy" type="bool" value="true"/>
    <property name="rotationMult" type="float" value="1"/>
    <property name="squib" type="int" value="-1"/>
    <property name="squibSE" value=""/>
    <property name="static" type="bool" value="false"/>
   </properties>
  </object>
  <object id="794" class="prop" gid="131" x="604" y="632" width="11" height="13" rotation="11.5297">
   <properties>
    <property name="foreground" type="bool" value="true"/>
    <property name="noDestroy" type="bool" value="true"/>
    <property name="rotationMult" type="float" value="1"/>
    <property name="squib" type="int" value="-1"/>
    <property name="squibSE" value=""/>
    <property name="static" type="bool" value="false"/>
   </properties>
  </object>
  <object id="795" class="prop" gid="135" x="702" y="479" width="40" height="44" rotation="134.699">
   <properties>
    <property name="foreground" type="bool" value="true"/>
    <property name="noDestroy" type="bool" value="true"/>
    <property name="rotationMult" type="float" value="1"/>
    <property name="squib" type="int" value="-1"/>
    <property name="squibSE" value=""/>
    <property name="static" type="bool" value="true"/>
   </properties>
  </object>
  <object id="796" class="prop" gid="133" x="627" y="537" width="47" height="37" rotation="313.358">
   <properties>
    <property name="foreground" type="bool" value="true"/>
    <property name="noDestroy" type="bool" value="true"/>
    <property name="rotationMult" type="float" value="1"/>
    <property name="squib" type="int" value="-1"/>
    <property name="squibSE" value=""/>
    <property name="static" type="bool" value="true"/>
   </properties>
  </object>
  <object id="797" class="prop" gid="134" x="714" y="541" width="34" height="46" rotation="236.62">
   <properties>
    <property name="foreground" type="bool" value="true"/>
    <property name="noDestroy" type="bool" value="true"/>
    <property name="rotationMult" type="float" value="1"/>
    <property name="squib" type="int" value="-1"/>
    <property name="squibSE" value=""/>
    <property name="static" type="bool" value="true"/>
   </properties>
  </object>
  <object id="798" class="prop" gid="136" x="668" y="552" width="40" height="39" rotation="255.748">
   <properties>
    <property name="foreground" type="bool" value="true"/>
    <property name="noDestroy" type="bool" value="true"/>
    <property name="rotationMult" type="float" value="1"/>
    <property name="squib" type="int" value="-1"/>
    <property name="squibSE" value=""/>
    <property name="static" type="bool" value="true"/>
   </properties>
  </object>
  <object id="800" class="prop" gid="123" x="676" y="503" width="26" height="23" rotation="336.306">
   <properties>
    <property name="foreground" type="bool" value="true"/>
    <property name="noDestroy" type="bool" value="true"/>
    <property name="rotationMult" type="float" value="1"/>
    <property name="squib" type="int" value="-1"/>
    <property name="squibSE" value=""/>
    <property name="static" type="bool" value="false"/>
   </properties>
  </object>
  <object id="801" class="prop" gid="125" x="662" y="503" width="24" height="22" rotation="351.626">
   <properties>
    <property name="foreground" type="bool" value="true"/>
    <property name="noDestroy" type="bool" value="true"/>
    <property name="rotationMult" type="float" value="1"/>
    <property name="squib" type="int" value="-1"/>
    <property name="squibSE" value=""/>
    <property name="static" type="bool" value="false"/>
   </properties>
  </object>
  <object id="802" class="prop" gid="122" x="637" y="502" width="35" height="20" rotation="351.17">
   <properties>
    <property name="foreground" type="bool" value="true"/>
    <property name="noDestroy" type="bool" value="true"/>
    <property name="rotationMult" type="float" value="1"/>
    <property name="squib" type="int" value="-1"/>
    <property name="squibSE" value=""/>
    <property name="static" type="bool" value="false"/>
   </properties>
  </object>
  <object id="804" class="prop" gid="136" x="641" y="519" width="40" height="39" rotation="33.0914">
   <properties>
    <property name="foreground" type="bool" value="true"/>
    <property name="noDestroy" type="bool" value="true"/>
    <property name="rotationMult" type="float" value="1"/>
    <property name="squib" type="int" value="-1"/>
    <property name="squibSE" value=""/>
    <property name="static" type="bool" value="true"/>
   </properties>
  </object>
  <object id="805" class="prop" gid="592" x="642" y="507" width="28" height="16" rotation="352.538">
   <properties>
    <property name="foreground" type="bool" value="true"/>
    <property name="noDestroy" type="bool" value="true"/>
    <property name="rotationMult" type="float" value="1"/>
    <property name="squib" type="int" value="-1"/>
    <property name="squibSE" value=""/>
    <property name="static" type="bool" value="true"/>
   </properties>
  </object>
  <object id="806" class="prop" gid="592" x="665" y="501" width="28" height="16" rotation="8.57835">
   <properties>
    <property name="foreground" type="bool" value="true"/>
    <property name="noDestroy" type="bool" value="true"/>
    <property name="rotationMult" type="float" value="1"/>
    <property name="squib" type="int" value="-1"/>
    <property name="squibSE" value=""/>
    <property name="static" type="bool" value="true"/>
   </properties>
  </object>
  <object id="807" class="prop" gid="166" x="691" y="493" width="12" height="29" rotation="358.432">
   <properties>
    <property name="foreground" type="bool" value="true"/>
    <property name="noDestroy" type="bool" value="true"/>
    <property name="rotationMult" type="float" value="1"/>
    <property name="squib" type="int" value="-1"/>
    <property name="squibSE" value=""/>
    <property name="static" type="bool" value="false"/>
   </properties>
  </object>
  <object id="808" class="prop" gid="169" x="633" y="493" width="20" height="29" rotation="358.432">
   <properties>
    <property name="foreground" type="bool" value="true"/>
    <property name="noDestroy" type="bool" value="true"/>
    <property name="rotationMult" type="float" value="1"/>
    <property name="squib" type="int" value="-1"/>
    <property name="squibSE" value=""/>
    <property name="static" type="bool" value="false"/>
   </properties>
  </object>
  <object id="809" class="prop" gid="168" x="699" y="487" width="13" height="26" rotation="26.3002">
   <properties>
    <property name="foreground" type="bool" value="true"/>
    <property name="noDestroy" type="bool" value="true"/>
    <property name="rotationMult" type="float" value="1"/>
    <property name="squib" type="int" value="-1"/>
    <property name="squibSE" value=""/>
    <property name="static" type="bool" value="false"/>
   </properties>
  </object>
  <object id="810" class="prop" gid="131" x="707" y="487" width="11" height="13" rotation="40.2692">
   <properties>
    <property name="foreground" type="bool" value="true"/>
    <property name="noDestroy" type="bool" value="true"/>
    <property name="rotationMult" type="float" value="1"/>
    <property name="squib" type="int" value="-1"/>
    <property name="squibSE" value=""/>
    <property name="static" type="bool" value="false"/>
   </properties>
  </object>
  <object id="812" class="prop" gid="131" x="621" y="488" width="11" height="13" rotation="345.135">
   <properties>
    <property name="foreground" type="bool" value="true"/>
    <property name="noDestroy" type="bool" value="true"/>
    <property name="rotationMult" type="float" value="1"/>
    <property name="squib" type="int" value="-1"/>
    <property name="squibSE" value=""/>
    <property name="static" type="bool" value="false"/>
   </properties>
  </object>
  <object id="813" class="prop" gid="128" x="855" y="612" width="26" height="19" rotation="2.18209">
   <properties>
    <property name="foreground" type="bool" value="true"/>
    <property name="noDestroy" type="bool" value="true"/>
    <property name="rotationMult" type="float" value="1"/>
    <property name="squib" type="int" value="-1"/>
    <property name="squibSE" value=""/>
    <property name="static" type="bool" value="false"/>
   </properties>
  </object>
  <object id="814" class="prop" gid="131" x="882" y="607" width="11" height="13" rotation="358.432">
   <properties>
    <property name="foreground" type="bool" value="true"/>
    <property name="noDestroy" type="bool" value="true"/>
    <property name="rotationMult" type="float" value="1"/>
    <property name="squib" type="int" value="-1"/>
    <property name="squibSE" value=""/>
    <property name="static" type="bool" value="false"/>
   </properties>
  </object>
  <object id="818" class="prop" gid="128" x="714" y="612" width="26" height="19" rotation="2.18209">
   <properties>
    <property name="foreground" type="bool" value="true"/>
    <property name="noDestroy" type="bool" value="true"/>
    <property name="rotationMult" type="float" value="1"/>
    <property name="squib" type="int" value="-1"/>
    <property name="squibSE" value=""/>
    <property name="static" type="bool" value="false"/>
   </properties>
  </object>
  <object id="819" class="prop" gid="131" x="743" y="612" width="11" height="13" rotation="358.432">
   <properties>
    <property name="foreground" type="bool" value="true"/>
    <property name="noDestroy" type="bool" value="true"/>
    <property name="rotationMult" type="float" value="1"/>
    <property name="squib" type="int" value="-1"/>
    <property name="squibSE" value=""/>
    <property name="static" type="bool" value="false"/>
   </properties>
  </object>
  <object id="820" class="prop" gid="132" x="752" y="611" width="12" height="13" rotation="358.432">
   <properties>
    <property name="foreground" type="bool" value="true"/>
    <property name="noDestroy" type="bool" value="true"/>
    <property name="rotationMult" type="float" value="1"/>
    <property name="squib" type="int" value="-1"/>
    <property name="squibSE" value=""/>
    <property name="static" type="bool" value="false"/>
   </properties>
  </object>
  <object id="821" class="prop" gid="129" x="758" y="613" width="22" height="14" rotation="354.71">
   <properties>
    <property name="foreground" type="bool" value="true"/>
    <property name="noDestroy" type="bool" value="true"/>
    <property name="rotationMult" type="float" value="1"/>
    <property name="squib" type="int" value="-1"/>
    <property name="squibSE" value=""/>
    <property name="static" type="bool" value="false"/>
   </properties>
  </object>
  <object id="822" class="prop" gid="130" x="772" y="609" width="27" height="15" rotation="12.0576">
   <properties>
    <property name="foreground" type="bool" value="true"/>
    <property name="noDestroy" type="bool" value="true"/>
    <property name="rotationMult" type="float" value="1"/>
    <property name="squib" type="int" value="-1"/>
    <property name="squibSE" value=""/>
    <property name="static" type="bool" value="false"/>
   </properties>
  </object>
  <object id="823" class="prop" gid="132" x="794" y="613" width="12" height="13" rotation="358.432">
   <properties>
    <property name="foreground" type="bool" value="true"/>
    <property name="noDestroy" type="bool" value="true"/>
    <property name="rotationMult" type="float" value="1"/>
    <property name="squib" type="int" value="-1"/>
    <property name="squibSE" value=""/>
    <property name="static" type="bool" value="false"/>
   </properties>
  </object>
  <object id="824" class="prop" gid="128" x="804" y="612" width="26" height="19" rotation="2.18209">
   <properties>
    <property name="foreground" type="bool" value="true"/>
    <property name="noDestroy" type="bool" value="true"/>
    <property name="rotationMult" type="float" value="1"/>
    <property name="squib" type="int" value="-1"/>
    <property name="squibSE" value=""/>
    <property name="static" type="bool" value="false"/>
   </properties>
  </object>
  <object id="825" class="prop" gid="132" x="830" y="611" width="12" height="13" rotation="358.432">
   <properties>
    <property name="foreground" type="bool" value="true"/>
    <property name="noDestroy" type="bool" value="true"/>
    <property name="rotationMult" type="float" value="1"/>
    <property name="squib" type="int" value="-1"/>
    <property name="squibSE" value=""/>
    <property name="static" type="bool" value="false"/>
   </properties>
  </object>
  <object id="827" class="prop" gid="123" x="911" y="608" width="26" height="23" rotation="349.586">
   <properties>
    <property name="foreground" type="bool" value="true"/>
    <property name="noDestroy" type="bool" value="true"/>
    <property name="rotationMult" type="float" value="1"/>
    <property name="squib" type="int" value="-1"/>
    <property name="squibSE" value=""/>
    <property name="static" type="bool" value="false"/>
   </properties>
  </object>
  <object id="828" class="prop" gid="125" x="899" y="612" width="24" height="22" rotation="4.90594">
   <properties>
    <property name="foreground" type="bool" value="true"/>
    <property name="noDestroy" type="bool" value="true"/>
    <property name="rotationMult" type="float" value="1"/>
    <property name="squib" type="int" value="-1"/>
    <property name="squibSE" value=""/>
    <property name="static" type="bool" value="false"/>
   </properties>
  </object>
  <object id="829" class="prop" gid="124" x="882" y="611" width="32" height="20" rotation="4.98863">
   <properties>
    <property name="foreground" type="bool" value="true"/>
    <property name="noDestroy" type="bool" value="true"/>
    <property name="rotationMult" type="float" value="1"/>
    <property name="squib" type="int" value="-1"/>
    <property name="squibSE" value=""/>
    <property name="static" type="bool" value="false"/>
   </properties>
  </object>
  <object id="833" class="prop" gid="128" x="950" y="551" width="26" height="19" rotation="351.903">
   <properties>
    <property name="foreground" type="bool" value="true"/>
    <property name="noDestroy" type="bool" value="true"/>
    <property name="rotationMult" type="float" value="1"/>
    <property name="squib" type="int" value="-1"/>
    <property name="squibSE" value=""/>
    <property name="static" type="bool" value="false"/>
   </properties>
  </object>
  <object id="834" class="prop" gid="132" x="989" y="546" width="12" height="13" rotation="358.432">
   <properties>
    <property name="foreground" type="bool" value="true"/>
    <property name="noDestroy" type="bool" value="true"/>
    <property name="rotationMult" type="float" value="1"/>
    <property name="squib" type="int" value="-1"/>
    <property name="squibSE" value=""/>
    <property name="static" type="bool" value="false"/>
   </properties>
  </object>
  <object id="835" class="prop" gid="131" x="998" y="545" width="11" height="13" rotation="358.432">
   <properties>
    <property name="foreground" type="bool" value="true"/>
    <property name="noDestroy" type="bool" value="true"/>
    <property name="rotationMult" type="float" value="1"/>
    <property name="squib" type="int" value="-1"/>
    <property name="squibSE" value=""/>
    <property name="static" type="bool" value="false"/>
   </properties>
  </object>
  <object id="836" class="prop" gid="128" x="1042" y="498" width="26" height="19" rotation="2.18209">
   <properties>
    <property name="foreground" type="bool" value="true"/>
    <property name="noDestroy" type="bool" value="true"/>
    <property name="rotationMult" type="float" value="1"/>
    <property name="squib" type="int" value="-1"/>
    <property name="squibSE" value=""/>
    <property name="static" type="bool" value="false"/>
   </properties>
  </object>
  <object id="838" class="prop" gid="167" x="929" y="558" width="13" height="27" rotation="7.65142">
   <properties>
    <property name="foreground" type="bool" value="true"/>
    <property name="noDestroy" type="bool" value="true"/>
    <property name="rotationMult" type="float" value="1"/>
    <property name="squib" type="int" value="-1"/>
    <property name="squibSE" value=""/>
    <property name="static" type="bool" value="false"/>
   </properties>
  </object>
  <object id="839" class="prop" gid="168" x="1013" y="546" width="13" height="26" rotation="358.432">
   <properties>
    <property name="foreground" type="bool" value="true"/>
    <property name="noDestroy" type="bool" value="true"/>
    <property name="rotationMult" type="float" value="1"/>
    <property name="squib" type="int" value="-1"/>
    <property name="squibSE" value=""/>
    <property name="static" type="bool" value="false"/>
   </properties>
  </object>
  <object id="840" class="prop" gid="132" x="979" y="544" width="12" height="13" rotation="358.432">
   <properties>
    <property name="foreground" type="bool" value="true"/>
    <property name="noDestroy" type="bool" value="true"/>
    <property name="rotationMult" type="float" value="1"/>
    <property name="squib" type="int" value="-1"/>
    <property name="squibSE" value=""/>
    <property name="static" type="bool" value="false"/>
   </properties>
  </object>
  <object id="844" class="prop" gid="664" x="1155" y="504" width="40" height="43" rotation="334.72">
   <properties>
    <property name="foreground" type="bool" value="true"/>
    <property name="noDestroy" type="bool" value="true"/>
    <property name="rotationMult" type="float" value="1"/>
    <property name="squib" type="int" value="-1"/>
    <property name="squibSE" value=""/>
    <property name="static" type="bool" value="true"/>
   </properties>
  </object>
  <object id="846" class="prop" gid="592" x="1152.96" y="475.567" width="28" height="16" rotation="313.313">
   <properties>
    <property name="foreground" type="bool" value="true"/>
    <property name="noDestroy" type="bool" value="true"/>
    <property name="rotationMult" type="float" value="1"/>
    <property name="squib" type="int" value="-1"/>
    <property name="squibSE" value=""/>
    <property name="static" type="bool" value="true"/>
   </properties>
  </object>
  <object id="855" class="prop" gid="125" x="1158.16" y="492" width="24" height="22" rotation="326.532">
   <properties>
    <property name="foreground" type="bool" value="true"/>
    <property name="noDestroy" type="bool" value="true"/>
    <property name="rotationMult" type="float" value="1"/>
    <property name="squib" type="int" value="-1"/>
    <property name="squibSE" value=""/>
    <property name="static" type="bool" value="false"/>
   </properties>
  </object>
  <object id="867" class="prop" gid="166" x="1114" y="497" width="12" height="29" rotation="358.432">
   <properties>
    <property name="foreground" type="bool" value="true"/>
    <property name="noDestroy" type="bool" value="true"/>
    <property name="rotationMult" type="float" value="1"/>
    <property name="squib" type="int" value="-1"/>
    <property name="squibSE" value=""/>
    <property name="static" type="bool" value="false"/>
   </properties>
  </object>
  <object id="868" class="prop" gid="169" x="1122" y="496" width="20" height="29" rotation="5.08043">
   <properties>
    <property name="foreground" type="bool" value="true"/>
    <property name="noDestroy" type="bool" value="true"/>
    <property name="rotationMult" type="float" value="1"/>
    <property name="squib" type="int" value="-1"/>
    <property name="squibSE" value=""/>
    <property name="static" type="bool" value="false"/>
   </properties>
  </object>
  <object id="869" class="prop" gid="170" x="1094" y="496" width="20" height="27" rotation="5.08043">
   <properties>
    <property name="foreground" type="bool" value="true"/>
    <property name="noDestroy" type="bool" value="true"/>
    <property name="rotationMult" type="float" value="1"/>
    <property name="squib" type="int" value="-1"/>
    <property name="squibSE" value=""/>
    <property name="static" type="bool" value="false"/>
   </properties>
  </object>
  <object id="870" class="prop" gid="124" x="1135" y="477" width="32" height="20" rotation="358.459">
   <properties>
    <property name="foreground" type="bool" value="true"/>
    <property name="noDestroy" type="bool" value="true"/>
    <property name="rotationMult" type="float" value="1"/>
    <property name="squib" type="int" value="-1"/>
    <property name="squibSE" value=""/>
    <property name="static" type="bool" value="false"/>
   </properties>
  </object>
  <object id="871" class="prop" gid="125" x="1104" y="503" width="24" height="22" rotation="4.90594">
   <properties>
    <property name="foreground" type="bool" value="true"/>
    <property name="noDestroy" type="bool" value="true"/>
    <property name="rotationMult" type="float" value="1"/>
    <property name="squib" type="int" value="-1"/>
    <property name="squibSE" value=""/>
    <property name="static" type="bool" value="false"/>
   </properties>
  </object>
  <object id="872" class="prop" gid="124" x="1084" y="499" width="32" height="20" rotation="4.98863">
   <properties>
    <property name="foreground" type="bool" value="true"/>
    <property name="noDestroy" type="bool" value="true"/>
    <property name="rotationMult" type="float" value="1"/>
    <property name="squib" type="int" value="-1"/>
    <property name="squibSE" value=""/>
    <property name="static" type="bool" value="false"/>
   </properties>
  </object>
  <object id="873" class="prop" gid="123" x="1132" y="489" width="26" height="23" rotation="344.915">
   <properties>
    <property name="foreground" type="bool" value="true"/>
    <property name="noDestroy" type="bool" value="true"/>
    <property name="rotationMult" type="float" value="1"/>
    <property name="squib" type="int" value="-1"/>
    <property name="squibSE" value=""/>
    <property name="static" type="bool" value="false"/>
   </properties>
  </object>
  <object id="874" class="prop" gid="124" x="1138" y="501" width="32" height="20" rotation="326.614">
   <properties>
    <property name="foreground" type="bool" value="true"/>
    <property name="noDestroy" type="bool" value="true"/>
    <property name="rotationMult" type="float" value="1"/>
    <property name="squib" type="int" value="-1"/>
    <property name="squibSE" value=""/>
    <property name="static" type="bool" value="false"/>
   </properties>
  </object>
  <object id="875" class="prop" gid="123" x="1119" y="501" width="26" height="23" rotation="349.586">
   <properties>
    <property name="foreground" type="bool" value="true"/>
    <property name="noDestroy" type="bool" value="true"/>
    <property name="rotationMult" type="float" value="1"/>
    <property name="squib" type="int" value="-1"/>
    <property name="squibSE" value=""/>
    <property name="static" type="bool" value="false"/>
   </properties>
  </object>
  <object id="876" class="prop" gid="122" x="1129" y="498" width="35" height="20" rotation="4.90594">
   <properties>
    <property name="foreground" type="bool" value="true"/>
    <property name="noDestroy" type="bool" value="true"/>
    <property name="rotationMult" type="float" value="1"/>
    <property name="squib" type="int" value="-1"/>
    <property name="squibSE" value=""/>
    <property name="static" type="bool" value="false"/>
   </properties>
  </object>
  <object id="877" class="prop" gid="166" x="1156" y="455" width="12" height="29" rotation="347.651">
   <properties>
    <property name="foreground" type="bool" value="true"/>
    <property name="noDestroy" type="bool" value="true"/>
    <property name="rotationMult" type="float" value="1"/>
    <property name="squib" type="int" value="-1"/>
    <property name="squibSE" value=""/>
    <property name="static" type="bool" value="false"/>
   </properties>
  </object>
  <object id="878" class="prop" gid="668" x="586" y="700" width="26" height="21" rotation="209.677">
   <properties>
    <property name="foreground" type="bool" value="true"/>
    <property name="noDestroy" type="bool" value="true"/>
    <property name="rotationMult" type="float" value="1"/>
    <property name="squib" type="int" value="-1"/>
    <property name="squibSE" value=""/>
    <property name="static" type="bool" value="true"/>
   </properties>
  </object>
  <object id="879" class="prop" gid="139" x="499" y="694" width="27" height="22" rotation="166.814">
   <properties>
    <property name="foreground" type="bool" value="true"/>
    <property name="noDestroy" type="bool" value="true"/>
    <property name="rotationMult" type="float" value="1"/>
    <property name="squib" type="int" value="-1"/>
    <property name="squibSE" value=""/>
    <property name="static" type="bool" value="true"/>
   </properties>
  </object>
  <object id="880" class="prop" gid="141" x="446.66" y="702.272" width="25" height="22" rotation="209.953">
   <properties>
    <property name="foreground" type="bool" value="true"/>
    <property name="noDestroy" type="bool" value="true"/>
    <property name="rotationMult" type="float" value="1"/>
    <property name="squib" type="int" value="-1"/>
    <property name="squibSE" value=""/>
    <property name="static" type="bool" value="true"/>
   </properties>
  </object>
  <object id="881" class="prop" gid="137" x="467.38" y="698.669" width="25" height="23" rotation="194.308">
   <properties>
    <property name="foreground" type="bool" value="true"/>
    <property name="noDestroy" type="bool" value="true"/>
    <property name="rotationMult" type="float" value="1"/>
    <property name="squib" type="int" value="-1"/>
    <property name="squibSE" value=""/>
    <property name="static" type="bool" value="true"/>
   </properties>
  </object>
  <object id="882" class="prop" gid="135" x="564.5" y="688.062" width="40" height="44" rotation="203.22">
   <properties>
    <property name="foreground" type="bool" value="true"/>
    <property name="noDestroy" type="bool" value="true"/>
    <property name="rotationMult" type="float" value="1"/>
    <property name="squib" type="int" value="-1"/>
    <property name="squibSE" value=""/>
    <property name="static" type="bool" value="true"/>
   </properties>
  </object>
  <object id="883" class="prop" gid="133" x="503.97" y="682.651" width="47" height="37" rotation="184.15">
   <properties>
    <property name="foreground" type="bool" value="true"/>
    <property name="noDestroy" type="bool" value="true"/>
    <property name="rotationMult" type="float" value="1"/>
    <property name="squib" type="int" value="-1"/>
    <property name="squibSE" value=""/>
    <property name="static" type="bool" value="true"/>
   </properties>
  </object>
  <object id="884" class="prop" gid="144" x="520" y="675" width="20" height="17" rotation="166.814">
   <properties>
    <property name="foreground" type="bool" value="true"/>
    <property name="noDestroy" type="bool" value="true"/>
    <property name="rotationMult" type="float" value="1"/>
    <property name="squib" type="int" value="-1"/>
    <property name="squibSE" value=""/>
    <property name="static" type="bool" value="true"/>
   </properties>
  </object>
  <object id="886" class="prop" gid="151" x="496" y="733" width="21" height="34" rotation="2.99698">
   <properties>
    <property name="foreground" type="bool" value="false"/>
    <property name="noDestroy" type="bool" value="true"/>
    <property name="rotationMult" type="float" value="1"/>
    <property name="squib" type="int" value="-1"/>
    <property name="squibSE" value=""/>
    <property name="static" type="bool" value="true"/>
   </properties>
  </object>
  <object id="887" class="prop" gid="668" x="341" y="783" width="26" height="21" rotation="103.604">
   <properties>
    <property name="foreground" type="bool" value="true"/>
    <property name="noDestroy" type="bool" value="true"/>
    <property name="rotationMult" type="float" value="1"/>
    <property name="squib" type="int" value="-1"/>
    <property name="squibSE" value=""/>
    <property name="static" type="bool" value="true"/>
   </properties>
  </object>
  <object id="888" class="prop" gid="670" x="340" y="753.994" width="25" height="22" rotation="103.981">
   <properties>
    <property name="foreground" type="bool" value="true"/>
    <property name="noDestroy" type="bool" value="true"/>
    <property name="rotationMult" type="float" value="1"/>
    <property name="squib" type="int" value="-1"/>
    <property name="squibSE" value=""/>
    <property name="static" type="bool" value="true"/>
   </properties>
  </object>
  <object id="890" class="prop" gid="670" x="343" y="729" width="25" height="22" rotation="103.981">
   <properties>
    <property name="foreground" type="bool" value="true"/>
    <property name="noDestroy" type="bool" value="true"/>
    <property name="rotationMult" type="float" value="1"/>
    <property name="squib" type="int" value="-1"/>
    <property name="squibSE" value=""/>
    <property name="static" type="bool" value="true"/>
   </properties>
  </object>
  <object id="891" class="prop" gid="149" x="352" y="784" width="17" height="28" rotation="349.784">
   <properties>
    <property name="foreground" type="bool" value="false"/>
    <property name="noDestroy" type="bool" value="true"/>
    <property name="rotationMult" type="float" value="1"/>
    <property name="squib" type="int" value="-1"/>
    <property name="squibSE" value=""/>
    <property name="static" type="bool" value="true"/>
   </properties>
  </object>
  <object id="892" class="prop" gid="595" x="344" y="731" width="23" height="15" rotation="47.8592">
   <properties>
    <property name="foreground" type="bool" value="true"/>
    <property name="noDestroy" type="bool" value="true"/>
    <property name="rotationMult" type="float" value="1"/>
    <property name="squib" type="int" value="-1"/>
    <property name="squibSE" value=""/>
    <property name="static" type="bool" value="true"/>
   </properties>
  </object>
  <object id="900" class="rope" x="2053" y="351">
   <properties>
    <property name="drawStretched" type="bool" value="false"/>
    <property name="segments" type="int" value="8"/>
    <property name="skin" type="int" value="4"/>
    <property name="width" type="float" value="1"/>
   </properties>
   <polyline points="0,0 0,48"/>
  </object>
  <object id="901" class="prop" gid="664" x="357" y="679" width="40" height="43" rotation="164.169">
   <properties>
    <property name="foreground" type="bool" value="true"/>
    <property name="noDestroy" type="bool" value="true"/>
    <property name="rotationMult" type="float" value="1"/>
    <property name="squib" type="int" value="-1"/>
    <property name="squibSE" value=""/>
    <property name="static" type="bool" value="true"/>
   </properties>
  </object>
  <object id="902" class="prop" gid="135" x="259" y="739" width="40" height="44" rotation="316.45">
   <properties>
    <property name="foreground" type="bool" value="true"/>
    <property name="noDestroy" type="bool" value="true"/>
    <property name="rotationMult" type="float" value="1"/>
    <property name="squib" type="int" value="-1"/>
    <property name="squibSE" value=""/>
    <property name="static" type="bool" value="true"/>
   </properties>
  </object>
  <object id="903" class="prop" gid="143" x="310" y="688" width="14" height="14" rotation="15.4216">
   <properties>
    <property name="foreground" type="bool" value="true"/>
    <property name="noDestroy" type="bool" value="true"/>
    <property name="rotationMult" type="float" value="1"/>
    <property name="squib" type="int" value="-1"/>
    <property name="squibSE" value=""/>
    <property name="static" type="bool" value="true"/>
   </properties>
  </object>
  <object id="904" class="prop" gid="128" x="266" y="692" width="26" height="19" rotation="2.18209">
   <properties>
    <property name="foreground" type="bool" value="true"/>
    <property name="noDestroy" type="bool" value="true"/>
    <property name="rotationMult" type="float" value="1"/>
    <property name="squib" type="int" value="-1"/>
    <property name="squibSE" value=""/>
    <property name="static" type="bool" value="false"/>
   </properties>
  </object>
  <object id="905" class="prop" gid="131" x="296" y="692" width="11" height="13" rotation="358.432">
   <properties>
    <property name="foreground" type="bool" value="true"/>
    <property name="noDestroy" type="bool" value="true"/>
    <property name="rotationMult" type="float" value="1"/>
    <property name="squib" type="int" value="-1"/>
    <property name="squibSE" value=""/>
    <property name="static" type="bool" value="false"/>
   </properties>
  </object>
  <object id="906" class="prop" gid="132" x="305" y="691" width="12" height="13" rotation="358.432">
   <properties>
    <property name="foreground" type="bool" value="true"/>
    <property name="noDestroy" type="bool" value="true"/>
    <property name="rotationMult" type="float" value="1"/>
    <property name="squib" type="int" value="-1"/>
    <property name="squibSE" value=""/>
    <property name="static" type="bool" value="false"/>
   </properties>
  </object>
  <object id="907" class="prop" gid="129" x="311" y="693" width="22" height="14" rotation="354.71">
   <properties>
    <property name="foreground" type="bool" value="true"/>
    <property name="noDestroy" type="bool" value="true"/>
    <property name="rotationMult" type="float" value="1"/>
    <property name="squib" type="int" value="-1"/>
    <property name="squibSE" value=""/>
    <property name="static" type="bool" value="false"/>
   </properties>
  </object>
  <object id="908" class="prop" gid="595" x="344" y="685" width="23" height="15" rotation="53.2121">
   <properties>
    <property name="foreground" type="bool" value="true"/>
    <property name="noDestroy" type="bool" value="true"/>
    <property name="rotationMult" type="float" value="1"/>
    <property name="squib" type="int" value="-1"/>
    <property name="squibSE" value=""/>
    <property name="static" type="bool" value="true"/>
   </properties>
  </object>
  <object id="909" class="prop" gid="596" x="328" y="692" width="22" height="18" rotation="5.42039">
   <properties>
    <property name="foreground" type="bool" value="true"/>
    <property name="noDestroy" type="bool" value="true"/>
    <property name="rotationMult" type="float" value="1"/>
    <property name="squib" type="int" value="-1"/>
    <property name="squibSE" value=""/>
    <property name="static" type="bool" value="true"/>
   </properties>
  </object>
  <object id="910" class="prop" gid="132" x="344" y="684" width="12" height="13" rotation="0.877144">
   <properties>
    <property name="foreground" type="bool" value="true"/>
    <property name="noDestroy" type="bool" value="true"/>
    <property name="rotationMult" type="float" value="1"/>
    <property name="squib" type="int" value="-1"/>
    <property name="squibSE" value=""/>
    <property name="static" type="bool" value="false"/>
   </properties>
  </object>
  <object id="911" class="prop" gid="166" x="244" y="691" width="12" height="29" rotation="358.432">
   <properties>
    <property name="foreground" type="bool" value="true"/>
    <property name="noDestroy" type="bool" value="true"/>
    <property name="rotationMult" type="float" value="1"/>
    <property name="squib" type="int" value="-1"/>
    <property name="squibSE" value=""/>
    <property name="static" type="bool" value="false"/>
   </properties>
  </object>
  <object id="912" class="prop" gid="169" x="252" y="690" width="20" height="29" rotation="5.08043">
   <properties>
    <property name="foreground" type="bool" value="true"/>
    <property name="noDestroy" type="bool" value="true"/>
    <property name="rotationMult" type="float" value="1"/>
    <property name="squib" type="int" value="-1"/>
    <property name="squibSE" value=""/>
    <property name="static" type="bool" value="false"/>
   </properties>
  </object>
  <object id="913" class="prop" gid="595" x="243" y="701" width="23" height="15" rotation="332.193">
   <properties>
    <property name="foreground" type="bool" value="true"/>
    <property name="noDestroy" type="bool" value="true"/>
    <property name="rotationMult" type="float" value="1"/>
    <property name="squib" type="int" value="-1"/>
    <property name="squibSE" value=""/>
    <property name="static" type="bool" value="true"/>
   </properties>
  </object>
  <object id="915" class="prop" gid="665" x="243" y="828" width="40" height="39" rotation="341.226">
   <properties>
    <property name="foreground" type="bool" value="true"/>
    <property name="noDestroy" type="bool" value="true"/>
    <property name="rotationMult" type="float" value="1"/>
    <property name="squib" type="int" value="-1"/>
    <property name="squibSE" value=""/>
    <property name="static" type="bool" value="true"/>
   </properties>
  </object>
  <object id="916" class="prop" gid="595" x="244" y="799" width="23" height="15" rotation="330.211">
   <properties>
    <property name="foreground" type="bool" value="true"/>
    <property name="noDestroy" type="bool" value="true"/>
    <property name="rotationMult" type="float" value="1"/>
    <property name="squib" type="int" value="-1"/>
    <property name="squibSE" value=""/>
    <property name="static" type="bool" value="true"/>
   </properties>
  </object>
  <object id="917" class="prop" gid="592" x="246" y="816" width="28" height="16" rotation="288.446">
   <properties>
    <property name="foreground" type="bool" value="true"/>
    <property name="noDestroy" type="bool" value="true"/>
    <property name="rotationMult" type="float" value="1"/>
    <property name="squib" type="int" value="-1"/>
    <property name="squibSE" value=""/>
    <property name="static" type="bool" value="true"/>
   </properties>
  </object>
  <object id="918" class="prop" gid="166" x="241" y="790" width="12" height="29" rotation="352.078">
   <properties>
    <property name="foreground" type="bool" value="true"/>
    <property name="noDestroy" type="bool" value="true"/>
    <property name="rotationMult" type="float" value="1"/>
    <property name="squib" type="int" value="-1"/>
    <property name="squibSE" value=""/>
    <property name="static" type="bool" value="false"/>
   </properties>
  </object>
  <object id="922" class="prop" gid="125" x="225" y="819" width="24" height="22" rotation="4.90594">
   <properties>
    <property name="foreground" type="bool" value="true"/>
    <property name="noDestroy" type="bool" value="true"/>
    <property name="rotationMult" type="float" value="1"/>
    <property name="squib" type="int" value="-1"/>
    <property name="squibSE" value=""/>
    <property name="static" type="bool" value="false"/>
   </properties>
  </object>
  <object id="923" class="prop" gid="124" x="209" y="821" width="32" height="20" rotation="4.98863">
   <properties>
    <property name="foreground" type="bool" value="true"/>
    <property name="noDestroy" type="bool" value="true"/>
    <property name="rotationMult" type="float" value="1"/>
    <property name="squib" type="int" value="-1"/>
    <property name="squibSE" value=""/>
    <property name="static" type="bool" value="false"/>
   </properties>
  </object>
  <object id="930" class="prop" gid="131" x="115" y="819" width="11" height="13" rotation="358.432">
   <properties>
    <property name="foreground" type="bool" value="true"/>
    <property name="noDestroy" type="bool" value="true"/>
    <property name="rotationMult" type="float" value="1"/>
    <property name="squib" type="int" value="-1"/>
    <property name="squibSE" value=""/>
    <property name="static" type="bool" value="false"/>
   </properties>
  </object>
  <object id="931" class="prop" gid="132" x="124" y="818" width="12" height="13" rotation="358.432">
   <properties>
    <property name="foreground" type="bool" value="true"/>
    <property name="noDestroy" type="bool" value="true"/>
    <property name="rotationMult" type="float" value="1"/>
    <property name="squib" type="int" value="-1"/>
    <property name="squibSE" value=""/>
    <property name="static" type="bool" value="false"/>
   </properties>
  </object>
  <object id="932" class="prop" gid="129" x="130" y="819" width="22" height="14" rotation="354.71">
   <properties>
    <property name="foreground" type="bool" value="true"/>
    <property name="noDestroy" type="bool" value="true"/>
    <property name="rotationMult" type="float" value="1"/>
    <property name="squib" type="int" value="-1"/>
    <property name="squibSE" value=""/>
    <property name="static" type="bool" value="false"/>
   </properties>
  </object>
  <object id="933" class="prop" gid="130" x="144" y="816" width="27" height="15" rotation="12.0576">
   <properties>
    <property name="foreground" type="bool" value="true"/>
    <property name="noDestroy" type="bool" value="true"/>
    <property name="rotationMult" type="float" value="1"/>
    <property name="squib" type="int" value="-1"/>
    <property name="squibSE" value=""/>
    <property name="static" type="bool" value="false"/>
   </properties>
  </object>
  <object id="934" class="prop" gid="132" x="166" y="820" width="12" height="13" rotation="358.432">
   <properties>
    <property name="foreground" type="bool" value="true"/>
    <property name="noDestroy" type="bool" value="true"/>
    <property name="rotationMult" type="float" value="1"/>
    <property name="squib" type="int" value="-1"/>
    <property name="squibSE" value=""/>
    <property name="static" type="bool" value="false"/>
   </properties>
  </object>
  <object id="935" class="prop" gid="128" x="176" y="819" width="26" height="19" rotation="2.18209">
   <properties>
    <property name="foreground" type="bool" value="true"/>
    <property name="noDestroy" type="bool" value="true"/>
    <property name="rotationMult" type="float" value="1"/>
    <property name="squib" type="int" value="-1"/>
    <property name="squibSE" value=""/>
    <property name="static" type="bool" value="false"/>
   </properties>
  </object>
  <object id="936" class="prop" gid="132" x="202" y="818" width="12" height="13" rotation="358.432">
   <properties>
    <property name="foreground" type="bool" value="true"/>
    <property name="noDestroy" type="bool" value="true"/>
    <property name="rotationMult" type="float" value="1"/>
    <property name="squib" type="int" value="-1"/>
    <property name="squibSE" value=""/>
    <property name="static" type="bool" value="false"/>
   </properties>
  </object>
  <object id="951" class="prop" gid="169" x="170" y="818" width="20" height="29" rotation="5.08043">
   <properties>
    <property name="foreground" type="bool" value="true"/>
    <property name="noDestroy" type="bool" value="true"/>
    <property name="rotationMult" type="float" value="1"/>
    <property name="squib" type="int" value="-1"/>
    <property name="squibSE" value=""/>
    <property name="static" type="bool" value="false"/>
   </properties>
  </object>
  <object id="952" class="prop" gid="166" x="163" y="820" width="12" height="29" rotation="347.315">
   <properties>
    <property name="foreground" type="bool" value="true"/>
    <property name="noDestroy" type="bool" value="true"/>
    <property name="rotationMult" type="float" value="1"/>
    <property name="squib" type="int" value="-1"/>
    <property name="squibSE" value=""/>
    <property name="static" type="bool" value="false"/>
   </properties>
  </object>
  <object id="968" class="prop" gid="670" x="34" y="761" width="25" height="22" rotation="103.981">
   <properties>
    <property name="foreground" type="bool" value="true"/>
    <property name="noDestroy" type="bool" value="true"/>
    <property name="rotationMult" type="float" value="1"/>
    <property name="squib" type="int" value="-1"/>
    <property name="squibSE" value=""/>
    <property name="static" type="bool" value="true"/>
   </properties>
  </object>
  <object id="969" class="prop" gid="669" x="41" y="705" width="27" height="19" rotation="121.474">
   <properties>
    <property name="foreground" type="bool" value="true"/>
    <property name="noDestroy" type="bool" value="true"/>
    <property name="rotationMult" type="float" value="1"/>
    <property name="squib" type="int" value="-1"/>
    <property name="squibSE" value=""/>
    <property name="static" type="bool" value="true"/>
   </properties>
  </object>
  <object id="970" class="prop" gid="670" x="31.2149" y="740.719" width="25" height="22" rotation="83.0111">
   <properties>
    <property name="foreground" type="bool" value="true"/>
    <property name="noDestroy" type="bool" value="true"/>
    <property name="rotationMult" type="float" value="1"/>
    <property name="squib" type="int" value="-1"/>
    <property name="squibSE" value=""/>
    <property name="static" type="bool" value="true"/>
   </properties>
  </object>
  <object id="971" class="prop" gid="133" x="21" y="659" width="47" height="37" rotation="88.894">
   <properties>
    <property name="foreground" type="bool" value="true"/>
    <property name="noDestroy" type="bool" value="true"/>
    <property name="rotationMult" type="float" value="1"/>
    <property name="squib" type="int" value="-1"/>
    <property name="squibSE" value=""/>
    <property name="static" type="bool" value="true"/>
   </properties>
  </object>
  <object id="974" class="prop" gid="151" x="52" y="739" width="21" height="34" rotation="338.198">
   <properties>
    <property name="foreground" type="bool" value="false"/>
    <property name="noDestroy" type="bool" value="true"/>
    <property name="rotationMult" type="float" value="1"/>
    <property name="squib" type="int" value="-1"/>
    <property name="squibSE" value=""/>
    <property name="static" type="bool" value="true"/>
   </properties>
  </object>
  <object id="975" class="prop" gid="595" x="37" y="743" width="23" height="15" rotation="47.8592">
   <properties>
    <property name="foreground" type="bool" value="true"/>
    <property name="noDestroy" type="bool" value="true"/>
    <property name="rotationMult" type="float" value="1"/>
    <property name="squib" type="int" value="-1"/>
    <property name="squibSE" value=""/>
    <property name="static" type="bool" value="true"/>
   </properties>
  </object>
  <object id="976" class="prop" gid="169" x="62" y="817" width="20" height="29" rotation="5.08043">
   <properties>
    <property name="foreground" type="bool" value="true"/>
    <property name="noDestroy" type="bool" value="true"/>
    <property name="rotationMult" type="float" value="1"/>
    <property name="squib" type="int" value="-1"/>
    <property name="squibSE" value=""/>
    <property name="static" type="bool" value="false"/>
   </properties>
  </object>
  <object id="977" class="prop" gid="128" x="87" y="818" width="26" height="19" rotation="2.18209">
   <properties>
    <property name="foreground" type="bool" value="true"/>
    <property name="noDestroy" type="bool" value="true"/>
    <property name="rotationMult" type="float" value="1"/>
    <property name="squib" type="int" value="-1"/>
    <property name="squibSE" value=""/>
    <property name="static" type="bool" value="false"/>
   </properties>
  </object>
  <object id="978" class="prop" gid="123" x="93" y="824" width="26" height="23" rotation="346.74">
   <properties>
    <property name="foreground" type="bool" value="true"/>
    <property name="noDestroy" type="bool" value="true"/>
    <property name="rotationMult" type="float" value="1"/>
    <property name="squib" type="int" value="-1"/>
    <property name="squibSE" value=""/>
    <property name="static" type="bool" value="false"/>
   </properties>
  </object>
  <object id="979" class="prop" gid="122" x="64" y="820" width="35" height="20" rotation="4.90594">
   <properties>
    <property name="foreground" type="bool" value="true"/>
    <property name="noDestroy" type="bool" value="true"/>
    <property name="rotationMult" type="float" value="1"/>
    <property name="squib" type="int" value="-1"/>
    <property name="squibSE" value=""/>
    <property name="static" type="bool" value="false"/>
   </properties>
  </object>
  <object id="980" class="prop" gid="166" x="45" y="799" width="12" height="29" rotation="19.3263">
   <properties>
    <property name="foreground" type="bool" value="true"/>
    <property name="noDestroy" type="bool" value="true"/>
    <property name="rotationMult" type="float" value="1"/>
    <property name="squib" type="int" value="-1"/>
    <property name="squibSE" value=""/>
    <property name="static" type="bool" value="false"/>
   </properties>
  </object>
  <object id="981" class="prop" gid="123" x="52" y="817" width="26" height="23" rotation="349.586">
   <properties>
    <property name="foreground" type="bool" value="true"/>
    <property name="noDestroy" type="bool" value="true"/>
    <property name="rotationMult" type="float" value="1"/>
    <property name="squib" type="int" value="-1"/>
    <property name="squibSE" value=""/>
    <property name="static" type="bool" value="false"/>
   </properties>
  </object>
  <object id="982" class="prop" gid="125" x="39" y="812" width="24" height="22" rotation="4.90594">
   <properties>
    <property name="foreground" type="bool" value="true"/>
    <property name="noDestroy" type="bool" value="true"/>
    <property name="rotationMult" type="float" value="1"/>
    <property name="squib" type="int" value="-1"/>
    <property name="squibSE" value=""/>
    <property name="static" type="bool" value="false"/>
   </properties>
  </object>
  <object id="983" class="prop" gid="124" x="38" y="819" width="32" height="20" rotation="4.98863">
   <properties>
    <property name="foreground" type="bool" value="true"/>
    <property name="noDestroy" type="bool" value="true"/>
    <property name="rotationMult" type="float" value="1"/>
    <property name="squib" type="int" value="-1"/>
    <property name="squibSE" value=""/>
    <property name="static" type="bool" value="false"/>
   </properties>
  </object>
  <object id="984" class="prop" gid="132" x="51.6774" y="742.796" width="12" height="13" rotation="69.8951">
   <properties>
    <property name="foreground" type="bool" value="true"/>
    <property name="noDestroy" type="bool" value="true"/>
    <property name="rotationMult" type="float" value="1"/>
    <property name="squib" type="int" value="-1"/>
    <property name="squibSE" value=""/>
    <property name="static" type="bool" value="false"/>
   </properties>
  </object>
  <object id="985" class="prop" gid="191" x="250" y="741" width="5" height="66" rotation="318.99">
   <properties>
    <property name="foreground" type="bool" value="true"/>
    <property name="noDestroy" type="bool" value="true"/>
    <property name="rotationMult" type="float" value="1"/>
    <property name="squib" type="int" value="-1"/>
    <property name="squibSE" value=""/>
    <property name="static" type="bool" value="true"/>
   </properties>
  </object>
  <object id="986" class="prop" gid="664" x="278" y="784" width="40" height="43" rotation="293.431">
   <properties>
    <property name="foreground" type="bool" value="true"/>
    <property name="noDestroy" type="bool" value="true"/>
    <property name="rotationMult" type="float" value="1"/>
    <property name="squib" type="int" value="-1"/>
    <property name="squibSE" value=""/>
    <property name="static" type="bool" value="true"/>
   </properties>
  </object>
  <object id="987" class="prop" gid="595" x="255" y="759" width="23" height="15" rotation="278.797">
   <properties>
    <property name="foreground" type="bool" value="true"/>
    <property name="noDestroy" type="bool" value="true"/>
    <property name="rotationMult" type="float" value="1"/>
    <property name="squib" type="int" value="-1"/>
    <property name="squibSE" value=""/>
    <property name="static" type="bool" value="true"/>
   </properties>
  </object>
  <object id="988" class="prop" gid="132" x="243" y="744" width="12" height="13" rotation="339.741">
   <properties>
    <property name="foreground" type="bool" value="true"/>
    <property name="noDestroy" type="bool" value="true"/>
    <property name="rotationMult" type="float" value="1"/>
    <property name="squib" type="int" value="-1"/>
    <property name="squibSE" value=""/>
    <property name="static" type="bool" value="false"/>
   </properties>
  </object>
  <object id="990" class="prop" gid="133" x="280" y="593" width="47" height="37" rotation="223.688">
   <properties>
    <property name="foreground" type="bool" value="true"/>
    <property name="noDestroy" type="bool" value="true"/>
    <property name="rotationMult" type="float" value="1"/>
    <property name="squib" type="int" value="-1"/>
    <property name="squibSE" value=""/>
    <property name="static" type="bool" value="true"/>
   </properties>
  </object>
  <object id="991" class="prop" gid="135" x="324" y="604" width="40" height="44" rotation="231.799">
   <properties>
    <property name="foreground" type="bool" value="true"/>
    <property name="noDestroy" type="bool" value="true"/>
    <property name="rotationMult" type="float" value="1"/>
    <property name="squib" type="int" value="-1"/>
    <property name="squibSE" value=""/>
    <property name="static" type="bool" value="true"/>
   </properties>
  </object>
  <object id="993" class="prop" gid="135" x="94" y="574" width="40" height="44" rotation="175.79">
   <properties>
    <property name="foreground" type="bool" value="true"/>
    <property name="noDestroy" type="bool" value="true"/>
    <property name="rotationMult" type="float" value="1"/>
    <property name="squib" type="int" value="-1"/>
    <property name="squibSE" value=""/>
    <property name="static" type="bool" value="true"/>
   </properties>
  </object>
  <object id="994" class="prop" gid="141" x="193" y="539" width="25" height="22" rotation="209.953">
   <properties>
    <property name="foreground" type="bool" value="true"/>
    <property name="noDestroy" type="bool" value="true"/>
    <property name="rotationMult" type="float" value="1"/>
    <property name="squib" type="int" value="-1"/>
    <property name="squibSE" value=""/>
    <property name="static" type="bool" value="true"/>
   </properties>
  </object>
  <object id="995" class="prop" gid="137" x="213" y="550" width="25" height="23" rotation="194.308">
   <properties>
    <property name="foreground" type="bool" value="true"/>
    <property name="noDestroy" type="bool" value="true"/>
    <property name="rotationMult" type="float" value="1"/>
    <property name="squib" type="int" value="-1"/>
    <property name="squibSE" value=""/>
    <property name="static" type="bool" value="true"/>
   </properties>
  </object>
  <object id="996" class="prop" gid="147" x="133" y="571" width="34" height="40" rotation="335.718">
   <properties>
    <property name="foreground" type="bool" value="false"/>
    <property name="noDestroy" type="bool" value="true"/>
    <property name="rotationMult" type="float" value="1"/>
    <property name="squib" type="int" value="-1"/>
    <property name="squibSE" value=""/>
    <property name="static" type="bool" value="true"/>
   </properties>
  </object>
  <object id="997" class="prop" gid="151" x="110" y="614" width="21" height="34" rotation="338.198">
   <properties>
    <property name="foreground" type="bool" value="false"/>
    <property name="noDestroy" type="bool" value="true"/>
    <property name="rotationMult" type="float" value="1"/>
    <property name="squib" type="int" value="-1"/>
    <property name="squibSE" value=""/>
    <property name="static" type="bool" value="true"/>
   </properties>
  </object>
  <object id="998" class="prop" gid="144" x="109" y="549" width="20" height="17" rotation="126.636">
   <properties>
    <property name="foreground" type="bool" value="true"/>
    <property name="noDestroy" type="bool" value="true"/>
    <property name="rotationMult" type="float" value="1"/>
    <property name="squib" type="int" value="-1"/>
    <property name="squibSE" value=""/>
    <property name="static" type="bool" value="true"/>
   </properties>
  </object>
  <object id="999" class="prop" gid="150" x="59" y="672" width="27" height="41" rotation="327.17">
   <properties>
    <property name="foreground" type="bool" value="false"/>
    <property name="noDestroy" type="bool" value="true"/>
    <property name="rotationMult" type="float" value="1"/>
    <property name="squib" type="int" value="-1"/>
    <property name="squibSE" value=""/>
    <property name="static" type="bool" value="true"/>
   </properties>
  </object>
  <object id="1002" class="prop" gid="133" x="426" y="647" width="47" height="37" rotation="279.503">
   <properties>
    <property name="foreground" type="bool" value="true"/>
    <property name="noDestroy" type="bool" value="true"/>
    <property name="rotationMult" type="float" value="1"/>
    <property name="squib" type="int" value="-1"/>
    <property name="squibSE" value=""/>
    <property name="static" type="bool" value="true"/>
   </properties>
  </object>
  <object id="1004" class="prop" gid="135" x="429" y="701" width="40" height="44" rotation="307.673">
   <properties>
    <property name="foreground" type="bool" value="true"/>
    <property name="noDestroy" type="bool" value="true"/>
    <property name="rotationMult" type="float" value="1"/>
    <property name="squib" type="int" value="-1"/>
    <property name="squibSE" value=""/>
    <property name="static" type="bool" value="true"/>
   </properties>
  </object>
  <object id="1008" class="prop" gid="134" x="342" y="576" width="34" height="46" rotation="150.039">
   <properties>
    <property name="foreground" type="bool" value="true"/>
    <property name="noDestroy" type="bool" value="true"/>
    <property name="rotationMult" type="float" value="1"/>
    <property name="squib" type="int" value="-1"/>
    <property name="squibSE" value=""/>
    <property name="static" type="bool" value="true"/>
   </properties>
  </object>
  <object id="1009" class="prop" gid="133" x="392.832" y="587.665" width="47" height="37" rotation="179.433">
   <properties>
    <property name="foreground" type="bool" value="true"/>
    <property name="noDestroy" type="bool" value="true"/>
    <property name="rotationMult" type="float" value="1"/>
    <property name="squib" type="int" value="-1"/>
    <property name="squibSE" value=""/>
    <property name="static" type="bool" value="true"/>
   </properties>
  </object>
  <object id="1010" class="prop" gid="151" x="349.067" y="657.923" width="21" height="34" rotation="2.76135">
   <properties>
    <property name="foreground" type="bool" value="false"/>
    <property name="noDestroy" type="bool" value="true"/>
    <property name="rotationMult" type="float" value="1"/>
    <property name="squib" type="int" value="-1"/>
    <property name="squibSE" value=""/>
    <property name="static" type="bool" value="true"/>
   </properties>
  </object>
  <object id="1023" class="prop" gid="670" x="546" y="553" width="25" height="22" rotation="103.981">
   <properties>
    <property name="foreground" type="bool" value="true"/>
    <property name="noDestroy" type="bool" value="true"/>
    <property name="rotationMult" type="float" value="1"/>
    <property name="squib" type="int" value="-1"/>
    <property name="squibSE" value=""/>
    <property name="static" type="bool" value="true"/>
   </properties>
  </object>
  <object id="1025" class="prop" gid="668" x="541.33" y="450.988" width="26" height="21" rotation="69.8145">
   <properties>
    <property name="foreground" type="bool" value="true"/>
    <property name="noDestroy" type="bool" value="true"/>
    <property name="rotationMult" type="float" value="1"/>
    <property name="squib" type="int" value="-1"/>
    <property name="squibSE" value=""/>
    <property name="static" type="bool" value="true"/>
   </properties>
  </object>
  <object id="1026" class="prop" gid="669" x="547.4" y="419" width="27" height="19" rotation="82.0995">
   <properties>
    <property name="foreground" type="bool" value="true"/>
    <property name="noDestroy" type="bool" value="true"/>
    <property name="rotationMult" type="float" value="1"/>
    <property name="squib" type="int" value="-1"/>
    <property name="squibSE" value=""/>
    <property name="static" type="bool" value="true"/>
   </properties>
  </object>
  <object id="1027" class="prop" gid="666" x="549" y="524" width="25" height="22" rotation="103.981">
   <properties>
    <property name="foreground" type="bool" value="true"/>
    <property name="noDestroy" type="bool" value="true"/>
    <property name="rotationMult" type="float" value="1"/>
    <property name="squib" type="int" value="-1"/>
    <property name="squibSE" value=""/>
    <property name="static" type="bool" value="true"/>
   </properties>
  </object>
  <object id="1028" class="prop" gid="134" x="559" y="470" width="34" height="46" rotation="149.206">
   <properties>
    <property name="foreground" type="bool" value="true"/>
    <property name="noDestroy" type="bool" value="true"/>
    <property name="rotationMult" type="float" value="1"/>
    <property name="squib" type="int" value="-1"/>
    <property name="squibSE" value=""/>
    <property name="static" type="bool" value="true"/>
   </properties>
  </object>
  <object id="1029" class="prop" gid="594" x="548" y="451" width="24" height="16" rotation="50.3304">
   <properties>
    <property name="foreground" type="bool" value="true"/>
    <property name="noDestroy" type="bool" value="true"/>
    <property name="rotationMult" type="float" value="1"/>
    <property name="squib" type="int" value="-1"/>
    <property name="squibSE" value=""/>
    <property name="static" type="bool" value="true"/>
   </properties>
  </object>
  <object id="1030" class="prop" gid="132" x="562" y="452" width="12" height="13" rotation="53.0943">
   <properties>
    <property name="foreground" type="bool" value="true"/>
    <property name="noDestroy" type="bool" value="true"/>
    <property name="rotationMult" type="float" value="1"/>
    <property name="squib" type="int" value="-1"/>
    <property name="squibSE" value=""/>
    <property name="static" type="bool" value="false"/>
   </properties>
  </object>
  <object id="1031" class="prop" gid="149" x="554" y="597" width="17" height="28" rotation="349.784">
   <properties>
    <property name="foreground" type="bool" value="false"/>
    <property name="noDestroy" type="bool" value="true"/>
    <property name="rotationMult" type="float" value="1"/>
    <property name="squib" type="int" value="-1"/>
    <property name="squibSE" value=""/>
    <property name="static" type="bool" value="true"/>
   </properties>
  </object>
  <object id="1033" class="prop" gid="123" x="580" y="617" width="26" height="23" rotation="346.74">
   <properties>
    <property name="foreground" type="bool" value="true"/>
    <property name="noDestroy" type="bool" value="true"/>
    <property name="rotationMult" type="float" value="1"/>
    <property name="squib" type="int" value="-1"/>
    <property name="squibSE" value=""/>
    <property name="static" type="bool" value="false"/>
   </properties>
  </object>
  <object id="1034" class="prop" gid="122" x="550" y="612" width="35" height="20" rotation="4.90594">
   <properties>
    <property name="foreground" type="bool" value="true"/>
    <property name="noDestroy" type="bool" value="true"/>
    <property name="rotationMult" type="float" value="1"/>
    <property name="squib" type="int" value="-1"/>
    <property name="squibSE" value=""/>
    <property name="static" type="bool" value="false"/>
   </properties>
  </object>
  <object id="1035" class="prop" gid="166" x="578" y="608" width="12" height="29" rotation="15.569">
   <properties>
    <property name="foreground" type="bool" value="true"/>
    <property name="noDestroy" type="bool" value="true"/>
    <property name="rotationMult" type="float" value="1"/>
    <property name="squib" type="int" value="-1"/>
    <property name="squibSE" value=""/>
    <property name="static" type="bool" value="false"/>
   </properties>
  </object>
  <object id="1037" class="prop" gid="167" x="565" y="492" width="13" height="27" rotation="7.65142">
   <properties>
    <property name="foreground" type="bool" value="true"/>
    <property name="noDestroy" type="bool" value="true"/>
    <property name="rotationMult" type="float" value="1"/>
    <property name="squib" type="int" value="-1"/>
    <property name="squibSE" value=""/>
    <property name="static" type="bool" value="false"/>
   </properties>
  </object>
  <object id="1038" class="prop" gid="594" x="557" y="478" width="24" height="16" rotation="72.3285">
   <properties>
    <property name="foreground" type="bool" value="true"/>
    <property name="noDestroy" type="bool" value="true"/>
    <property name="rotationMult" type="float" value="1"/>
    <property name="squib" type="int" value="-1"/>
    <property name="squibSE" value=""/>
    <property name="static" type="bool" value="true"/>
   </properties>
  </object>
  <object id="1039" class="prop" gid="158" x="567" y="510" width="44" height="15" rotation="14.8444">
   <properties>
    <property name="foreground" type="bool" value="true"/>
    <property name="noDestroy" type="bool" value="true"/>
    <property name="rotationMult" type="float" value="1"/>
    <property name="squib" type="int" value="-1"/>
    <property name="squibSE" value=""/>
    <property name="static" type="bool" value="true"/>
   </properties>
  </object>
  <object id="1053" class="prop" gid="133" x="858.31" y="421.098" width="47" height="37" rotation="213.605">
   <properties>
    <property name="foreground" type="bool" value="true"/>
    <property name="noDestroy" type="bool" value="true"/>
    <property name="rotationMult" type="float" value="1"/>
    <property name="squib" type="int" value="-1"/>
    <property name="squibSE" value=""/>
    <property name="static" type="bool" value="true"/>
   </properties>
  </object>
  <object id="1054" class="prop" gid="133" x="880" y="395" width="47" height="37" rotation="163.649">
   <properties>
    <property name="foreground" type="bool" value="true"/>
    <property name="noDestroy" type="bool" value="true"/>
    <property name="rotationMult" type="float" value="1"/>
    <property name="squib" type="int" value="-1"/>
    <property name="squibSE" value=""/>
    <property name="static" type="bool" value="true"/>
   </properties>
  </object>
  <object id="1055" class="prop" gid="135" x="921" y="391" width="40" height="44" rotation="178.856">
   <properties>
    <property name="foreground" type="bool" value="true"/>
    <property name="noDestroy" type="bool" value="true"/>
    <property name="rotationMult" type="float" value="1"/>
    <property name="squib" type="int" value="-1"/>
    <property name="squibSE" value=""/>
    <property name="static" type="bool" value="true"/>
   </properties>
  </object>
  <object id="1056" class="prop" gid="136" x="944" y="396" width="40" height="39" rotation="168.622">
   <properties>
    <property name="foreground" type="bool" value="true"/>
    <property name="noDestroy" type="bool" value="true"/>
    <property name="rotationMult" type="float" value="1"/>
    <property name="squib" type="int" value="-1"/>
    <property name="squibSE" value=""/>
    <property name="static" type="bool" value="true"/>
   </properties>
  </object>
  <object id="1057" class="prop" gid="134" x="962" y="380" width="34" height="46" rotation="141.513">
   <properties>
    <property name="foreground" type="bool" value="true"/>
    <property name="noDestroy" type="bool" value="true"/>
    <property name="rotationMult" type="float" value="1"/>
    <property name="squib" type="int" value="-1"/>
    <property name="squibSE" value=""/>
    <property name="static" type="bool" value="true"/>
   </properties>
  </object>
  <object id="1060" class="prop" gid="138" x="790.15" y="407.743" width="24" height="18" rotation="149.283">
   <properties>
    <property name="foreground" type="bool" value="true"/>
    <property name="noDestroy" type="bool" value="true"/>
    <property name="rotationMult" type="float" value="1"/>
    <property name="squib" type="int" value="-1"/>
    <property name="squibSE" value=""/>
    <property name="static" type="bool" value="true"/>
   </properties>
  </object>
  <object id="1061" class="prop" gid="137" x="776" y="412" width="25" height="23" rotation="186.396">
   <properties>
    <property name="foreground" type="bool" value="true"/>
    <property name="noDestroy" type="bool" value="true"/>
    <property name="rotationMult" type="float" value="1"/>
    <property name="squib" type="int" value="-1"/>
    <property name="squibSE" value=""/>
    <property name="static" type="bool" value="true"/>
   </properties>
  </object>
  <object id="1062" class="prop" gid="138" x="707" y="413" width="24" height="18" rotation="186.396">
   <properties>
    <property name="foreground" type="bool" value="true"/>
    <property name="noDestroy" type="bool" value="true"/>
    <property name="rotationMult" type="float" value="1"/>
    <property name="squib" type="int" value="-1"/>
    <property name="squibSE" value=""/>
    <property name="static" type="bool" value="true"/>
   </properties>
  </object>
  <object id="1063" class="prop" gid="139" x="682" y="406" width="27" height="22" rotation="166.814">
   <properties>
    <property name="foreground" type="bool" value="true"/>
    <property name="noDestroy" type="bool" value="true"/>
    <property name="rotationMult" type="float" value="1"/>
    <property name="squib" type="int" value="-1"/>
    <property name="squibSE" value=""/>
    <property name="static" type="bool" value="true"/>
   </properties>
  </object>
  <object id="1064" class="prop" gid="140" x="756" y="414" width="27" height="19" rotation="196.755">
   <properties>
    <property name="foreground" type="bool" value="true"/>
    <property name="noDestroy" type="bool" value="true"/>
    <property name="rotationMult" type="float" value="1"/>
    <property name="squib" type="int" value="-1"/>
    <property name="squibSE" value=""/>
    <property name="static" type="bool" value="true"/>
   </properties>
  </object>
  <object id="1065" class="prop" gid="141" x="629.66" y="414.272" width="25" height="22" rotation="209.953">
   <properties>
    <property name="foreground" type="bool" value="true"/>
    <property name="noDestroy" type="bool" value="true"/>
    <property name="rotationMult" type="float" value="1"/>
    <property name="squib" type="int" value="-1"/>
    <property name="squibSE" value=""/>
    <property name="static" type="bool" value="true"/>
   </properties>
  </object>
  <object id="1066" class="prop" gid="137" x="650.38" y="410.669" width="25" height="23" rotation="194.308">
   <properties>
    <property name="foreground" type="bool" value="true"/>
    <property name="noDestroy" type="bool" value="true"/>
    <property name="rotationMult" type="float" value="1"/>
    <property name="squib" type="int" value="-1"/>
    <property name="squibSE" value=""/>
    <property name="static" type="bool" value="true"/>
   </properties>
  </object>
  <object id="1067" class="prop" gid="135" x="747.5" y="400.062" width="40" height="44" rotation="203.22">
   <properties>
    <property name="foreground" type="bool" value="true"/>
    <property name="noDestroy" type="bool" value="true"/>
    <property name="rotationMult" type="float" value="1"/>
    <property name="squib" type="int" value="-1"/>
    <property name="squibSE" value=""/>
    <property name="static" type="bool" value="true"/>
   </properties>
  </object>
  <object id="1068" class="prop" gid="133" x="686.97" y="394.651" width="47" height="37" rotation="184.15">
   <properties>
    <property name="foreground" type="bool" value="true"/>
    <property name="noDestroy" type="bool" value="true"/>
    <property name="rotationMult" type="float" value="1"/>
    <property name="squib" type="int" value="-1"/>
    <property name="squibSE" value=""/>
    <property name="static" type="bool" value="true"/>
   </properties>
  </object>
  <object id="1069" class="prop" gid="133" x="814" y="388" width="47" height="37" rotation="170.907">
   <properties>
    <property name="foreground" type="bool" value="true"/>
    <property name="noDestroy" type="bool" value="true"/>
    <property name="rotationMult" type="float" value="1"/>
    <property name="squib" type="int" value="-1"/>
    <property name="squibSE" value=""/>
    <property name="static" type="bool" value="true"/>
   </properties>
  </object>
  <object id="1070" class="prop" gid="137" x="771" y="385" width="25" height="23" rotation="166.445">
   <properties>
    <property name="foreground" type="bool" value="true"/>
    <property name="noDestroy" type="bool" value="true"/>
    <property name="rotationMult" type="float" value="1"/>
    <property name="squib" type="int" value="-1"/>
    <property name="squibSE" value=""/>
    <property name="static" type="bool" value="true"/>
   </properties>
  </object>
  <object id="1071" class="prop" gid="144" x="703" y="387" width="20" height="17" rotation="166.814">
   <properties>
    <property name="foreground" type="bool" value="true"/>
    <property name="noDestroy" type="bool" value="true"/>
    <property name="rotationMult" type="float" value="1"/>
    <property name="squib" type="int" value="-1"/>
    <property name="squibSE" value=""/>
    <property name="static" type="bool" value="true"/>
   </properties>
  </object>
  <object id="1072" class="prop" gid="145" x="622" y="394" width="14" height="18" rotation="209.953">
   <properties>
    <property name="foreground" type="bool" value="true"/>
    <property name="noDestroy" type="bool" value="true"/>
    <property name="rotationMult" type="float" value="1"/>
    <property name="squib" type="int" value="-1"/>
    <property name="squibSE" value=""/>
    <property name="static" type="bool" value="true"/>
   </properties>
  </object>
  <object id="1073" class="prop" gid="134" x="611.752" y="407.29" width="34" height="46" rotation="227.364">
   <properties>
    <property name="foreground" type="bool" value="true"/>
    <property name="noDestroy" type="bool" value="true"/>
    <property name="rotationMult" type="float" value="1"/>
    <property name="squib" type="int" value="-1"/>
    <property name="squibSE" value=""/>
    <property name="static" type="bool" value="true"/>
   </properties>
  </object>
  <object id="1074" class="prop" gid="151" x="746" y="463" width="21" height="34" rotation="2.76135">
   <properties>
    <property name="foreground" type="bool" value="false"/>
    <property name="noDestroy" type="bool" value="true"/>
    <property name="rotationMult" type="float" value="1"/>
    <property name="squib" type="int" value="-1"/>
    <property name="squibSE" value=""/>
    <property name="static" type="bool" value="true"/>
   </properties>
  </object>
  <object id="1075" class="prop" gid="154" x="818" y="467" width="26" height="28" rotation="2.99698">
   <properties>
    <property name="foreground" type="bool" value="false"/>
    <property name="noDestroy" type="bool" value="true"/>
    <property name="rotationMult" type="float" value="1"/>
    <property name="squib" type="int" value="-1"/>
    <property name="squibSE" value=""/>
    <property name="static" type="bool" value="true"/>
   </properties>
  </object>
  <object id="1077" class="prop" gid="150" x="989" y="453" width="27" height="41" rotation="327.17">
   <properties>
    <property name="foreground" type="bool" value="false"/>
    <property name="noDestroy" type="bool" value="true"/>
    <property name="rotationMult" type="float" value="1"/>
    <property name="squib" type="int" value="-1"/>
    <property name="squibSE" value=""/>
    <property name="static" type="bool" value="true"/>
   </properties>
  </object>
  <object id="1078" class="prop" gid="152" x="577" y="450" width="19" height="25" rotation="344.291">
   <properties>
    <property name="foreground" type="bool" value="false"/>
    <property name="noDestroy" type="bool" value="true"/>
    <property name="rotationMult" type="float" value="1"/>
    <property name="squib" type="int" value="-1"/>
    <property name="squibSE" value=""/>
    <property name="static" type="bool" value="true"/>
   </properties>
  </object>
  <object id="1083" class="prop" gid="150" x="1143" y="304" width="27" height="41" rotation="16.8345">
   <properties>
    <property name="foreground" type="bool" value="false"/>
    <property name="noDestroy" type="bool" value="true"/>
    <property name="rotationMult" type="float" value="1"/>
    <property name="squib" type="int" value="-1"/>
    <property name="squibSE" value=""/>
    <property name="static" type="bool" value="true"/>
   </properties>
  </object>
  <object id="1084" class="prop" gid="664" x="1153" y="363.106" width="40" height="43" rotation="1.07856">
   <properties>
    <property name="foreground" type="bool" value="true"/>
    <property name="noDestroy" type="bool" value="true"/>
    <property name="rotationMult" type="float" value="1"/>
    <property name="squib" type="int" value="-1"/>
    <property name="squibSE" value=""/>
    <property name="static" type="bool" value="true"/>
   </properties>
  </object>
  <object id="1085" class="prop" gid="668" x="1165" y="382.106" width="26" height="21" rotation="336.518">
   <properties>
    <property name="foreground" type="bool" value="true"/>
    <property name="noDestroy" type="bool" value="true"/>
    <property name="rotationMult" type="float" value="1"/>
    <property name="squib" type="int" value="-1"/>
    <property name="squibSE" value=""/>
    <property name="static" type="bool" value="true"/>
   </properties>
  </object>
  <object id="1086" class="prop" gid="592" x="1158" y="357" width="28" height="16" rotation="298.772">
   <properties>
    <property name="foreground" type="bool" value="true"/>
    <property name="noDestroy" type="bool" value="true"/>
    <property name="rotationMult" type="float" value="1"/>
    <property name="squib" type="int" value="-1"/>
    <property name="squibSE" value=""/>
    <property name="static" type="bool" value="true"/>
   </properties>
  </object>
  <object id="1087" class="prop" gid="596" x="1161" y="341.106" width="22" height="18" rotation="336.673">
   <properties>
    <property name="foreground" type="bool" value="true"/>
    <property name="noDestroy" type="bool" value="true"/>
    <property name="rotationMult" type="float" value="1"/>
    <property name="squib" type="int" value="-1"/>
    <property name="squibSE" value=""/>
    <property name="static" type="bool" value="true"/>
   </properties>
  </object>
  <object id="1088" class="prop" gid="596" x="1166" y="331.106" width="22" height="18" rotation="4.32404">
   <properties>
    <property name="foreground" type="bool" value="true"/>
    <property name="noDestroy" type="bool" value="true"/>
    <property name="rotationMult" type="float" value="1"/>
    <property name="squib" type="int" value="-1"/>
    <property name="squibSE" value=""/>
    <property name="static" type="bool" value="true"/>
   </properties>
  </object>
  <object id="1089" class="prop" gid="168" x="1161.95" y="331" width="13" height="26" rotation="333.573">
   <properties>
    <property name="foreground" type="bool" value="true"/>
    <property name="noDestroy" type="bool" value="true"/>
    <property name="rotationMult" type="float" value="1"/>
    <property name="squib" type="int" value="-1"/>
    <property name="squibSE" value=""/>
    <property name="static" type="bool" value="false"/>
   </properties>
  </object>
  <object id="1090" class="prop" gid="132" x="1159.81" y="334.148" width="12" height="13" rotation="301.996">
   <properties>
    <property name="foreground" type="bool" value="true"/>
    <property name="noDestroy" type="bool" value="true"/>
    <property name="rotationMult" type="float" value="1"/>
    <property name="squib" type="int" value="-1"/>
    <property name="squibSE" value=""/>
    <property name="static" type="bool" value="false"/>
   </properties>
  </object>
  <object id="1091" class="prop" gid="131" x="1157" y="342" width="11" height="13" rotation="283.09">
   <properties>
    <property name="foreground" type="bool" value="true"/>
    <property name="noDestroy" type="bool" value="true"/>
    <property name="rotationMult" type="float" value="1"/>
    <property name="squib" type="int" value="-1"/>
    <property name="squibSE" value=""/>
    <property name="static" type="bool" value="false"/>
   </properties>
  </object>
  <object id="1092" class="prop" gid="670" x="1173" y="412.106" width="25" height="22" rotation="305.845">
   <properties>
    <property name="foreground" type="bool" value="true"/>
    <property name="noDestroy" type="bool" value="true"/>
    <property name="rotationMult" type="float" value="1"/>
    <property name="squib" type="int" value="-1"/>
    <property name="squibSE" value=""/>
    <property name="static" type="bool" value="true"/>
   </properties>
  </object>
  <object id="1093" class="prop" gid="669" x="1175" y="437.106" width="27" height="19" rotation="315.549">
   <properties>
    <property name="foreground" type="bool" value="true"/>
    <property name="noDestroy" type="bool" value="true"/>
    <property name="rotationMult" type="float" value="1"/>
    <property name="squib" type="int" value="-1"/>
    <property name="squibSE" value=""/>
    <property name="static" type="bool" value="true"/>
   </properties>
  </object>
  <object id="1094" class="prop" gid="191" x="997" y="390" width="5" height="66" rotation="55.5432">
   <properties>
    <property name="foreground" type="bool" value="true"/>
    <property name="noDestroy" type="bool" value="true"/>
    <property name="rotationMult" type="float" value="1"/>
    <property name="squib" type="int" value="-1"/>
    <property name="squibSE" value=""/>
    <property name="static" type="bool" value="true"/>
   </properties>
  </object>
  <object id="1095" class="prop" gid="664" x="995" y="360" width="40" height="43" rotation="142.579">
   <properties>
    <property name="foreground" type="bool" value="true"/>
    <property name="noDestroy" type="bool" value="true"/>
    <property name="rotationMult" type="float" value="1"/>
    <property name="squib" type="int" value="-1"/>
    <property name="squibSE" value=""/>
    <property name="static" type="bool" value="true"/>
   </properties>
  </object>
  <object id="1096" class="prop" gid="595" x="990" y="368" width="23" height="15" rotation="48.0578">
   <properties>
    <property name="foreground" type="bool" value="true"/>
    <property name="noDestroy" type="bool" value="true"/>
    <property name="rotationMult" type="float" value="1"/>
    <property name="squib" type="int" value="-1"/>
    <property name="squibSE" value=""/>
    <property name="static" type="bool" value="true"/>
   </properties>
  </object>
  <object id="1097" class="prop" gid="131" x="1003" y="368" width="11" height="13" rotation="51.9445">
   <properties>
    <property name="foreground" type="bool" value="true"/>
    <property name="noDestroy" type="bool" value="true"/>
    <property name="rotationMult" type="float" value="1"/>
    <property name="squib" type="int" value="-1"/>
    <property name="squibSE" value=""/>
    <property name="static" type="bool" value="false"/>
   </properties>
  </object>
  <object id="1098" class="prop" gid="131" x="991" y="366" width="11" height="13" rotation="11.5297">
   <properties>
    <property name="foreground" type="bool" value="true"/>
    <property name="noDestroy" type="bool" value="true"/>
    <property name="rotationMult" type="float" value="1"/>
    <property name="squib" type="int" value="-1"/>
    <property name="squibSE" value=""/>
    <property name="static" type="bool" value="false"/>
   </properties>
  </object>
  <object id="1099" class="prop" gid="122" x="945" y="359.623" width="35" height="20" rotation="353.944">
   <properties>
    <property name="foreground" type="bool" value="true"/>
    <property name="noDestroy" type="bool" value="true"/>
    <property name="rotationMult" type="float" value="1"/>
    <property name="squib" type="int" value="-1"/>
    <property name="squibSE" value=""/>
    <property name="static" type="bool" value="false"/>
   </properties>
  </object>
  <object id="1101" class="prop" gid="169" x="921" y="354" width="20" height="29" rotation="5.08043">
   <properties>
    <property name="foreground" type="bool" value="true"/>
    <property name="noDestroy" type="bool" value="true"/>
    <property name="rotationMult" type="float" value="1"/>
    <property name="squib" type="int" value="-1"/>
    <property name="squibSE" value=""/>
    <property name="static" type="bool" value="false"/>
   </properties>
  </object>
  <object id="1103" class="prop" gid="169" x="880" y="354.833" width="20" height="29" rotation="5.08043">
   <properties>
    <property name="foreground" type="bool" value="true"/>
    <property name="noDestroy" type="bool" value="true"/>
    <property name="rotationMult" type="float" value="1"/>
    <property name="squib" type="int" value="-1"/>
    <property name="squibSE" value=""/>
    <property name="static" type="bool" value="false"/>
   </properties>
  </object>
  <object id="1104" class="prop" gid="129" x="866.89" y="355.065" width="22" height="14" rotation="353.32">
   <properties>
    <property name="foreground" type="bool" value="true"/>
    <property name="noDestroy" type="bool" value="true"/>
    <property name="rotationMult" type="float" value="1"/>
    <property name="squib" type="int" value="-1"/>
    <property name="squibSE" value=""/>
    <property name="static" type="bool" value="false"/>
   </properties>
  </object>
  <object id="1105" class="prop" gid="122" x="842.85" y="355.442" width="35" height="20" rotation="4.90594">
   <properties>
    <property name="foreground" type="bool" value="true"/>
    <property name="noDestroy" type="bool" value="true"/>
    <property name="rotationMult" type="float" value="1"/>
    <property name="squib" type="int" value="-1"/>
    <property name="squibSE" value=""/>
    <property name="static" type="bool" value="false"/>
   </properties>
  </object>
  <object id="1106" class="prop" gid="123" x="836.09" y="358.832" width="26" height="23" rotation="350.442">
   <properties>
    <property name="foreground" type="bool" value="true"/>
    <property name="noDestroy" type="bool" value="true"/>
    <property name="rotationMult" type="float" value="1"/>
    <property name="squib" type="int" value="-1"/>
    <property name="squibSE" value=""/>
    <property name="static" type="bool" value="false"/>
   </properties>
  </object>
  <object id="1107" class="prop" gid="123" x="780.38" y="355.199" width="26" height="23" rotation="15.7439">
   <properties>
    <property name="foreground" type="bool" value="true"/>
    <property name="noDestroy" type="bool" value="true"/>
    <property name="rotationMult" type="float" value="1"/>
    <property name="squib" type="int" value="-1"/>
    <property name="squibSE" value=""/>
    <property name="static" type="bool" value="false"/>
   </properties>
  </object>
  <object id="1108" class="prop" gid="122" x="796.24" y="356.368" width="35" height="20" rotation="4.69192">
   <properties>
    <property name="foreground" type="bool" value="true"/>
    <property name="noDestroy" type="bool" value="true"/>
    <property name="rotationMult" type="float" value="1"/>
    <property name="squib" type="int" value="-1"/>
    <property name="squibSE" value=""/>
    <property name="static" type="bool" value="false"/>
   </properties>
  </object>
  <object id="1109" class="prop" gid="169" x="821.01" y="355.275" width="20" height="29" rotation="357.023">
   <properties>
    <property name="foreground" type="bool" value="true"/>
    <property name="noDestroy" type="bool" value="true"/>
    <property name="rotationMult" type="float" value="1"/>
    <property name="squib" type="int" value="-1"/>
    <property name="squibSE" value=""/>
    <property name="static" type="bool" value="false"/>
   </properties>
  </object>
  <object id="1111" class="prop" gid="131" x="903" y="354.833" width="11" height="13" rotation="358.432">
   <properties>
    <property name="foreground" type="bool" value="true"/>
    <property name="noDestroy" type="bool" value="true"/>
    <property name="rotationMult" type="float" value="1"/>
    <property name="squib" type="int" value="-1"/>
    <property name="squibSE" value=""/>
    <property name="static" type="bool" value="false"/>
   </properties>
  </object>
  <object id="1112" class="prop" gid="131" x="778" y="353.833" width="11" height="13" rotation="358.432">
   <properties>
    <property name="foreground" type="bool" value="true"/>
    <property name="noDestroy" type="bool" value="true"/>
    <property name="rotationMult" type="float" value="1"/>
    <property name="squib" type="int" value="-1"/>
    <property name="squibSE" value=""/>
    <property name="static" type="bool" value="false"/>
   </properties>
  </object>
  <object id="1113" class="prop" gid="128" x="758" y="356.833" width="26" height="19" rotation="1.53143">
   <properties>
    <property name="foreground" type="bool" value="true"/>
    <property name="noDestroy" type="bool" value="true"/>
    <property name="rotationMult" type="float" value="1"/>
    <property name="squib" type="int" value="-1"/>
    <property name="squibSE" value=""/>
    <property name="static" type="bool" value="false"/>
   </properties>
  </object>
  <object id="1114" class="prop" gid="167" x="786" y="353.833" width="13" height="27" rotation="346.537">
   <properties>
    <property name="foreground" type="bool" value="true"/>
    <property name="noDestroy" type="bool" value="true"/>
    <property name="rotationMult" type="float" value="1"/>
    <property name="squib" type="int" value="-1"/>
    <property name="squibSE" value=""/>
    <property name="static" type="bool" value="false"/>
   </properties>
  </object>
  <object id="1115" class="prop" gid="167" x="850.96" y="352" width="13" height="27" rotation="12.2755">
   <properties>
    <property name="foreground" type="bool" value="true"/>
    <property name="noDestroy" type="bool" value="true"/>
    <property name="rotationMult" type="float" value="1"/>
    <property name="squib" type="int" value="-1"/>
    <property name="squibSE" value=""/>
    <property name="static" type="bool" value="false"/>
   </properties>
  </object>
  <object id="1116" class="prop" gid="145" x="975" y="351" width="14" height="18" rotation="78.2205">
   <properties>
    <property name="foreground" type="bool" value="true"/>
    <property name="noDestroy" type="bool" value="true"/>
    <property name="rotationMult" type="float" value="1"/>
    <property name="squib" type="int" value="-1"/>
    <property name="squibSE" value=""/>
    <property name="static" type="bool" value="true"/>
   </properties>
  </object>
  <object id="1117" class="prop" gid="132" x="974" y="351" width="12" height="13" rotation="17.6976">
   <properties>
    <property name="foreground" type="bool" value="true"/>
    <property name="noDestroy" type="bool" value="true"/>
    <property name="rotationMult" type="float" value="1"/>
    <property name="squib" type="int" value="-1"/>
    <property name="squibSE" value=""/>
    <property name="static" type="bool" value="false"/>
   </properties>
  </object>
  <object id="1122" class="prop" gid="122" x="642" y="358.579" width="35" height="20" rotation="353.944">
   <properties>
    <property name="foreground" type="bool" value="true"/>
    <property name="noDestroy" type="bool" value="true"/>
    <property name="rotationMult" type="float" value="1"/>
    <property name="squib" type="int" value="-1"/>
    <property name="squibSE" value=""/>
    <property name="static" type="bool" value="false"/>
   </properties>
  </object>
  <object id="1123" class="prop" gid="123" x="667" y="358" width="26" height="23">
   <properties>
    <property name="foreground" type="bool" value="true"/>
    <property name="noDestroy" type="bool" value="true"/>
    <property name="rotationMult" type="float" value="1"/>
    <property name="squib" type="int" value="-1"/>
    <property name="squibSE" value=""/>
    <property name="static" type="bool" value="false"/>
   </properties>
  </object>
  <object id="1125" class="prop" gid="168" x="682" y="353" width="13" height="26" rotation="11.9861">
   <properties>
    <property name="foreground" type="bool" value="true"/>
    <property name="noDestroy" type="bool" value="true"/>
    <property name="rotationMult" type="float" value="1"/>
    <property name="squib" type="int" value="-1"/>
    <property name="squibSE" value=""/>
    <property name="static" type="bool" value="false"/>
   </properties>
  </object>
  <object id="1126" class="prop" gid="122" x="620.91" y="360.623" width="35" height="20" rotation="353.944">
   <properties>
    <property name="foreground" type="bool" value="true"/>
    <property name="noDestroy" type="bool" value="true"/>
    <property name="rotationMult" type="float" value="1"/>
    <property name="squib" type="int" value="-1"/>
    <property name="squibSE" value=""/>
    <property name="static" type="bool" value="false"/>
   </properties>
  </object>
  <object id="1127" class="prop" gid="170" x="610.91" y="357.833" width="20" height="27" rotation="343.547">
   <properties>
    <property name="foreground" type="bool" value="true"/>
    <property name="noDestroy" type="bool" value="true"/>
    <property name="rotationMult" type="float" value="1"/>
    <property name="squib" type="int" value="-1"/>
    <property name="squibSE" value=""/>
    <property name="static" type="bool" value="false"/>
   </properties>
  </object>
  <object id="1129" class="prop" gid="128" x="587" y="356" width="26" height="19" rotation="2.18209">
   <properties>
    <property name="foreground" type="bool" value="true"/>
    <property name="noDestroy" type="bool" value="true"/>
    <property name="rotationMult" type="float" value="1"/>
    <property name="squib" type="int" value="-1"/>
    <property name="squibSE" value=""/>
    <property name="static" type="bool" value="false"/>
   </properties>
  </object>
  <object id="1130" class="prop" gid="169" x="555.91" y="355.833" width="20" height="29" rotation="5.08043">
   <properties>
    <property name="foreground" type="bool" value="true"/>
    <property name="noDestroy" type="bool" value="true"/>
    <property name="rotationMult" type="float" value="1"/>
    <property name="squib" type="int" value="-1"/>
    <property name="squibSE" value=""/>
    <property name="static" type="bool" value="false"/>
   </properties>
  </object>
  <object id="1131" class="prop" gid="129" x="542.8" y="356.065" width="22" height="14" rotation="353.32">
   <properties>
    <property name="foreground" type="bool" value="true"/>
    <property name="noDestroy" type="bool" value="true"/>
    <property name="rotationMult" type="float" value="1"/>
    <property name="squib" type="int" value="-1"/>
    <property name="squibSE" value=""/>
    <property name="static" type="bool" value="false"/>
   </properties>
  </object>
  <object id="1132" class="prop" gid="122" x="518.76" y="356.442" width="35" height="20" rotation="4.90594">
   <properties>
    <property name="foreground" type="bool" value="true"/>
    <property name="noDestroy" type="bool" value="true"/>
    <property name="rotationMult" type="float" value="1"/>
    <property name="squib" type="int" value="-1"/>
    <property name="squibSE" value=""/>
    <property name="static" type="bool" value="false"/>
   </properties>
  </object>
  <object id="1133" class="prop" gid="123" x="512" y="359.832" width="26" height="23" rotation="350.442">
   <properties>
    <property name="foreground" type="bool" value="true"/>
    <property name="noDestroy" type="bool" value="true"/>
    <property name="rotationMult" type="float" value="1"/>
    <property name="squib" type="int" value="-1"/>
    <property name="squibSE" value=""/>
    <property name="static" type="bool" value="false"/>
   </properties>
  </object>
  <object id="1134" class="prop" gid="131" x="577" y="355" width="11" height="13" rotation="358.432">
   <properties>
    <property name="foreground" type="bool" value="true"/>
    <property name="noDestroy" type="bool" value="true"/>
    <property name="rotationMult" type="float" value="1"/>
    <property name="squib" type="int" value="-1"/>
    <property name="squibSE" value=""/>
    <property name="static" type="bool" value="false"/>
   </properties>
  </object>
  <object id="1135" class="prop" gid="167" x="526.87" y="353" width="13" height="27" rotation="12.2755">
   <properties>
    <property name="foreground" type="bool" value="true"/>
    <property name="noDestroy" type="bool" value="true"/>
    <property name="rotationMult" type="float" value="1"/>
    <property name="squib" type="int" value="-1"/>
    <property name="squibSE" value=""/>
    <property name="static" type="bool" value="false"/>
   </properties>
  </object>
  <object id="1136" class="prop" gid="122" x="1027.98" y="181" width="35" height="20" rotation="4.90594">
   <properties>
    <property name="foreground" type="bool" value="true"/>
    <property name="noDestroy" type="bool" value="true"/>
    <property name="rotationMult" type="float" value="1"/>
    <property name="squib" type="int" value="-1"/>
    <property name="squibSE" value=""/>
    <property name="static" type="bool" value="false"/>
   </properties>
  </object>
  <object id="1137" class="prop" gid="123" x="1017.98" y="183" width="26" height="23" rotation="349.586">
   <properties>
    <property name="foreground" type="bool" value="true"/>
    <property name="noDestroy" type="bool" value="true"/>
    <property name="rotationMult" type="float" value="1"/>
    <property name="squib" type="int" value="-1"/>
    <property name="squibSE" value=""/>
    <property name="static" type="bool" value="false"/>
   </properties>
  </object>
  <object id="1138" class="prop" gid="125" x="1003.98" y="184" width="24" height="22" rotation="4.90594">
   <properties>
    <property name="foreground" type="bool" value="true"/>
    <property name="noDestroy" type="bool" value="true"/>
    <property name="rotationMult" type="float" value="1"/>
    <property name="squib" type="int" value="-1"/>
    <property name="squibSE" value=""/>
    <property name="static" type="bool" value="false"/>
   </properties>
  </object>
  <object id="1139" class="prop" gid="124" x="986.98" y="179" width="32" height="20" rotation="4.98863">
   <properties>
    <property name="foreground" type="bool" value="true"/>
    <property name="noDestroy" type="bool" value="true"/>
    <property name="rotationMult" type="float" value="1"/>
    <property name="squib" type="int" value="-1"/>
    <property name="squibSE" value=""/>
    <property name="static" type="bool" value="false"/>
   </properties>
  </object>
  <object id="1140" class="prop" gid="122" x="1190" y="177" width="35" height="20" rotation="15.5548">
   <properties>
    <property name="foreground" type="bool" value="true"/>
    <property name="noDestroy" type="bool" value="true"/>
    <property name="rotationMult" type="float" value="1"/>
    <property name="squib" type="int" value="-1"/>
    <property name="squibSE" value=""/>
    <property name="static" type="bool" value="false"/>
   </properties>
  </object>
  <object id="1141" class="prop" gid="123" x="1241.98" y="178" width="26" height="23" rotation="10.2882">
   <properties>
    <property name="foreground" type="bool" value="true"/>
    <property name="noDestroy" type="bool" value="true"/>
    <property name="rotationMult" type="float" value="1"/>
    <property name="squib" type="int" value="-1"/>
    <property name="squibSE" value=""/>
    <property name="static" type="bool" value="false"/>
   </properties>
  </object>
  <object id="1142" class="prop" gid="125" x="1260" y="181" width="24" height="22" rotation="4.90594">
   <properties>
    <property name="foreground" type="bool" value="true"/>
    <property name="noDestroy" type="bool" value="true"/>
    <property name="rotationMult" type="float" value="1"/>
    <property name="squib" type="int" value="-1"/>
    <property name="squibSE" value=""/>
    <property name="static" type="bool" value="false"/>
   </properties>
  </object>
  <object id="1143" class="prop" gid="122" x="709" y="179" width="35" height="20">
   <properties>
    <property name="foreground" type="bool" value="true"/>
    <property name="noDestroy" type="bool" value="true"/>
    <property name="rotationMult" type="float" value="1"/>
    <property name="squib" type="int" value="-1"/>
    <property name="squibSE" value=""/>
    <property name="static" type="bool" value="false"/>
   </properties>
  </object>
  <object id="1144" class="prop" gid="123" x="758.98" y="183" width="26" height="23" rotation="346.74">
   <properties>
    <property name="foreground" type="bool" value="true"/>
    <property name="noDestroy" type="bool" value="true"/>
    <property name="rotationMult" type="float" value="1"/>
    <property name="squib" type="int" value="-1"/>
    <property name="squibSE" value=""/>
    <property name="static" type="bool" value="false"/>
   </properties>
  </object>
  <object id="1145" class="prop" gid="124" x="736.15" y="180" width="32" height="20">
   <properties>
    <property name="foreground" type="bool" value="true"/>
    <property name="noDestroy" type="bool" value="true"/>
    <property name="rotationMult" type="float" value="1"/>
    <property name="squib" type="int" value="-1"/>
    <property name="squibSE" value=""/>
    <property name="static" type="bool" value="false"/>
   </properties>
  </object>
  <object id="1146" class="prop" gid="125" x="723" y="178" width="24" height="22" rotation="20.7915">
   <properties>
    <property name="foreground" type="bool" value="true"/>
    <property name="noDestroy" type="bool" value="true"/>
    <property name="rotationMult" type="float" value="1"/>
    <property name="squib" type="int" value="-1"/>
    <property name="squibSE" value=""/>
    <property name="static" type="bool" value="false"/>
   </properties>
  </object>
  <object id="1147" class="prop" gid="128" x="804" y="180" width="26" height="19" rotation="2.18209">
   <properties>
    <property name="foreground" type="bool" value="true"/>
    <property name="noDestroy" type="bool" value="true"/>
    <property name="rotationMult" type="float" value="1"/>
    <property name="squib" type="int" value="-1"/>
    <property name="squibSE" value=""/>
    <property name="static" type="bool" value="false"/>
   </properties>
  </object>
  <object id="1148" class="prop" gid="131" x="840.98" y="179" width="11" height="13" rotation="358.432">
   <properties>
    <property name="foreground" type="bool" value="true"/>
    <property name="noDestroy" type="bool" value="true"/>
    <property name="rotationMult" type="float" value="1"/>
    <property name="squib" type="int" value="-1"/>
    <property name="squibSE" value=""/>
    <property name="static" type="bool" value="false"/>
   </properties>
  </object>
  <object id="1149" class="prop" gid="132" x="849.98" y="178" width="12" height="13" rotation="358.432">
   <properties>
    <property name="foreground" type="bool" value="true"/>
    <property name="noDestroy" type="bool" value="true"/>
    <property name="rotationMult" type="float" value="1"/>
    <property name="squib" type="int" value="-1"/>
    <property name="squibSE" value=""/>
    <property name="static" type="bool" value="false"/>
   </properties>
  </object>
  <object id="1150" class="prop" gid="129" x="856.98" y="181" width="22" height="14" rotation="354.71">
   <properties>
    <property name="foreground" type="bool" value="true"/>
    <property name="noDestroy" type="bool" value="true"/>
    <property name="rotationMult" type="float" value="1"/>
    <property name="squib" type="int" value="-1"/>
    <property name="squibSE" value=""/>
    <property name="static" type="bool" value="false"/>
   </properties>
  </object>
  <object id="1151" class="prop" gid="130" x="869.98" y="177" width="27" height="15" rotation="12.0576">
   <properties>
    <property name="foreground" type="bool" value="true"/>
    <property name="noDestroy" type="bool" value="true"/>
    <property name="rotationMult" type="float" value="1"/>
    <property name="squib" type="int" value="-1"/>
    <property name="squibSE" value=""/>
    <property name="static" type="bool" value="false"/>
   </properties>
  </object>
  <object id="1152" class="prop" gid="132" x="891.98" y="180" width="12" height="13" rotation="358.432">
   <properties>
    <property name="foreground" type="bool" value="true"/>
    <property name="noDestroy" type="bool" value="true"/>
    <property name="rotationMult" type="float" value="1"/>
    <property name="squib" type="int" value="-1"/>
    <property name="squibSE" value=""/>
    <property name="static" type="bool" value="false"/>
   </properties>
  </object>
  <object id="1153" class="prop" gid="128" x="904.98" y="180" width="26" height="19" rotation="2.18209">
   <properties>
    <property name="foreground" type="bool" value="true"/>
    <property name="noDestroy" type="bool" value="true"/>
    <property name="rotationMult" type="float" value="1"/>
    <property name="squib" type="int" value="-1"/>
    <property name="squibSE" value=""/>
    <property name="static" type="bool" value="false"/>
   </properties>
  </object>
  <object id="1154" class="prop" gid="131" x="949.98" y="179" width="11" height="13" rotation="358.432">
   <properties>
    <property name="foreground" type="bool" value="true"/>
    <property name="noDestroy" type="bool" value="true"/>
    <property name="rotationMult" type="float" value="1"/>
    <property name="squib" type="int" value="-1"/>
    <property name="squibSE" value=""/>
    <property name="static" type="bool" value="false"/>
   </properties>
  </object>
  <object id="1155" class="prop" gid="132" x="927.98" y="178" width="12" height="13" rotation="358.432">
   <properties>
    <property name="foreground" type="bool" value="true"/>
    <property name="noDestroy" type="bool" value="true"/>
    <property name="rotationMult" type="float" value="1"/>
    <property name="squib" type="int" value="-1"/>
    <property name="squibSE" value=""/>
    <property name="static" type="bool" value="false"/>
   </properties>
  </object>
  <object id="1156" class="prop" gid="128" x="1060.98" y="179" width="26" height="19" rotation="2.18209">
   <properties>
    <property name="foreground" type="bool" value="true"/>
    <property name="noDestroy" type="bool" value="true"/>
    <property name="rotationMult" type="float" value="1"/>
    <property name="squib" type="int" value="-1"/>
    <property name="squibSE" value=""/>
    <property name="static" type="bool" value="false"/>
   </properties>
  </object>
  <object id="1157" class="prop" gid="131" x="1082.98" y="178" width="11" height="13" rotation="358.432">
   <properties>
    <property name="foreground" type="bool" value="true"/>
    <property name="noDestroy" type="bool" value="true"/>
    <property name="rotationMult" type="float" value="1"/>
    <property name="squib" type="int" value="-1"/>
    <property name="squibSE" value=""/>
    <property name="static" type="bool" value="false"/>
   </properties>
  </object>
  <object id="1158" class="prop" gid="132" x="1091.98" y="177" width="12" height="13" rotation="358.432">
   <properties>
    <property name="foreground" type="bool" value="true"/>
    <property name="noDestroy" type="bool" value="true"/>
    <property name="rotationMult" type="float" value="1"/>
    <property name="squib" type="int" value="-1"/>
    <property name="squibSE" value=""/>
    <property name="static" type="bool" value="false"/>
   </properties>
  </object>
  <object id="1159" class="prop" gid="129" x="1220.98" y="180" width="22" height="14" rotation="354.71">
   <properties>
    <property name="foreground" type="bool" value="true"/>
    <property name="noDestroy" type="bool" value="true"/>
    <property name="rotationMult" type="float" value="1"/>
    <property name="squib" type="int" value="-1"/>
    <property name="squibSE" value=""/>
    <property name="static" type="bool" value="false"/>
   </properties>
  </object>
  <object id="1160" class="prop" gid="130" x="1111.65" y="178.67" width="27" height="15" rotation="357.05">
   <properties>
    <property name="foreground" type="bool" value="true"/>
    <property name="noDestroy" type="bool" value="true"/>
    <property name="rotationMult" type="float" value="1"/>
    <property name="squib" type="int" value="-1"/>
    <property name="squibSE" value=""/>
    <property name="static" type="bool" value="false"/>
   </properties>
  </object>
  <object id="1161" class="prop" gid="132" x="1145.98" y="179" width="12" height="13" rotation="358.432">
   <properties>
    <property name="foreground" type="bool" value="true"/>
    <property name="noDestroy" type="bool" value="true"/>
    <property name="rotationMult" type="float" value="1"/>
    <property name="squib" type="int" value="-1"/>
    <property name="squibSE" value=""/>
    <property name="static" type="bool" value="false"/>
   </properties>
  </object>
  <object id="1162" class="prop" gid="169" x="1176.98" y="178" width="20" height="29" rotation="2.18209">
   <properties>
    <property name="foreground" type="bool" value="true"/>
    <property name="noDestroy" type="bool" value="true"/>
    <property name="rotationMult" type="float" value="1"/>
    <property name="squib" type="int" value="-1"/>
    <property name="squibSE" value=""/>
    <property name="static" type="bool" value="false"/>
   </properties>
  </object>
  <object id="1163" class="prop" gid="131" x="1157.98" y="178" width="11" height="13" rotation="358.432">
   <properties>
    <property name="foreground" type="bool" value="true"/>
    <property name="noDestroy" type="bool" value="true"/>
    <property name="rotationMult" type="float" value="1"/>
    <property name="squib" type="int" value="-1"/>
    <property name="squibSE" value=""/>
    <property name="static" type="bool" value="false"/>
   </properties>
  </object>
  <object id="1164" class="prop" gid="132" x="1169.98" y="177" width="12" height="13" rotation="358.432">
   <properties>
    <property name="foreground" type="bool" value="true"/>
    <property name="noDestroy" type="bool" value="true"/>
    <property name="rotationMult" type="float" value="1"/>
    <property name="squib" type="int" value="-1"/>
    <property name="squibSE" value=""/>
    <property name="static" type="bool" value="false"/>
   </properties>
  </object>
  <object id="1165" class="prop" gid="166" x="987.98" y="178" width="12" height="29" rotation="358.432">
   <properties>
    <property name="foreground" type="bool" value="true"/>
    <property name="noDestroy" type="bool" value="true"/>
    <property name="rotationMult" type="float" value="1"/>
    <property name="squib" type="int" value="-1"/>
    <property name="squibSE" value=""/>
    <property name="static" type="bool" value="false"/>
   </properties>
  </object>
  <object id="1166" class="prop" gid="167" x="969.98" y="177" width="13" height="27" rotation="7.65142">
   <properties>
    <property name="foreground" type="bool" value="true"/>
    <property name="noDestroy" type="bool" value="true"/>
    <property name="rotationMult" type="float" value="1"/>
    <property name="squib" type="int" value="-1"/>
    <property name="squibSE" value=""/>
    <property name="static" type="bool" value="false"/>
   </properties>
  </object>
  <object id="1167" class="prop" gid="168" x="778.98" y="177" width="13" height="26" rotation="7.65142">
   <properties>
    <property name="foreground" type="bool" value="true"/>
    <property name="noDestroy" type="bool" value="true"/>
    <property name="rotationMult" type="float" value="1"/>
    <property name="squib" type="int" value="-1"/>
    <property name="squibSE" value=""/>
    <property name="static" type="bool" value="false"/>
   </properties>
  </object>
  <object id="1168" class="prop" gid="122" x="667" y="180" width="35" height="20" rotation="4.90594">
   <properties>
    <property name="foreground" type="bool" value="true"/>
    <property name="noDestroy" type="bool" value="true"/>
    <property name="rotationMult" type="float" value="1"/>
    <property name="squib" type="int" value="-1"/>
    <property name="squibSE" value=""/>
    <property name="static" type="bool" value="false"/>
   </properties>
  </object>
  <object id="1169" class="prop" gid="123" x="657" y="182" width="26" height="23" rotation="349.586">
   <properties>
    <property name="foreground" type="bool" value="true"/>
    <property name="noDestroy" type="bool" value="true"/>
    <property name="rotationMult" type="float" value="1"/>
    <property name="squib" type="int" value="-1"/>
    <property name="squibSE" value=""/>
    <property name="static" type="bool" value="false"/>
   </properties>
  </object>
  <object id="1170" class="prop" gid="125" x="643" y="183" width="24" height="22" rotation="4.90594">
   <properties>
    <property name="foreground" type="bool" value="true"/>
    <property name="noDestroy" type="bool" value="true"/>
    <property name="rotationMult" type="float" value="1"/>
    <property name="squib" type="int" value="-1"/>
    <property name="squibSE" value=""/>
    <property name="static" type="bool" value="false"/>
   </properties>
  </object>
  <object id="1171" class="prop" gid="124" x="626" y="180" width="32" height="20" rotation="4.98863">
   <properties>
    <property name="foreground" type="bool" value="true"/>
    <property name="noDestroy" type="bool" value="true"/>
    <property name="rotationMult" type="float" value="1"/>
    <property name="squib" type="int" value="-1"/>
    <property name="squibSE" value=""/>
    <property name="static" type="bool" value="false"/>
   </properties>
  </object>
  <object id="1172" class="prop" gid="132" x="484" y="178" width="12" height="13" rotation="358.432">
   <properties>
    <property name="foreground" type="bool" value="true"/>
    <property name="noDestroy" type="bool" value="true"/>
    <property name="rotationMult" type="float" value="1"/>
    <property name="squib" type="int" value="-1"/>
    <property name="squibSE" value=""/>
    <property name="static" type="bool" value="false"/>
   </properties>
  </object>
  <object id="1173" class="prop" gid="129" x="496" y="180" width="22" height="14" rotation="354.71">
   <properties>
    <property name="foreground" type="bool" value="true"/>
    <property name="noDestroy" type="bool" value="true"/>
    <property name="rotationMult" type="float" value="1"/>
    <property name="squib" type="int" value="-1"/>
    <property name="squibSE" value=""/>
    <property name="static" type="bool" value="false"/>
   </properties>
  </object>
  <object id="1174" class="prop" gid="130" x="509" y="176" width="27" height="15" rotation="12.0576">
   <properties>
    <property name="foreground" type="bool" value="true"/>
    <property name="noDestroy" type="bool" value="true"/>
    <property name="rotationMult" type="float" value="1"/>
    <property name="squib" type="int" value="-1"/>
    <property name="squibSE" value=""/>
    <property name="static" type="bool" value="false"/>
   </properties>
  </object>
  <object id="1175" class="prop" gid="132" x="531" y="179" width="12" height="13" rotation="358.432">
   <properties>
    <property name="foreground" type="bool" value="true"/>
    <property name="noDestroy" type="bool" value="true"/>
    <property name="rotationMult" type="float" value="1"/>
    <property name="squib" type="int" value="-1"/>
    <property name="squibSE" value=""/>
    <property name="static" type="bool" value="false"/>
   </properties>
  </object>
  <object id="1176" class="prop" gid="128" x="544" y="181" width="26" height="19" rotation="2.18209">
   <properties>
    <property name="foreground" type="bool" value="true"/>
    <property name="noDestroy" type="bool" value="true"/>
    <property name="rotationMult" type="float" value="1"/>
    <property name="squib" type="int" value="-1"/>
    <property name="squibSE" value=""/>
    <property name="static" type="bool" value="false"/>
   </properties>
  </object>
  <object id="1177" class="prop" gid="131" x="589" y="180" width="11" height="13" rotation="358.432">
   <properties>
    <property name="foreground" type="bool" value="true"/>
    <property name="noDestroy" type="bool" value="true"/>
    <property name="rotationMult" type="float" value="1"/>
    <property name="squib" type="int" value="-1"/>
    <property name="squibSE" value=""/>
    <property name="static" type="bool" value="false"/>
   </properties>
  </object>
  <object id="1178" class="prop" gid="132" x="567" y="179" width="12" height="13" rotation="358.432">
   <properties>
    <property name="foreground" type="bool" value="true"/>
    <property name="noDestroy" type="bool" value="true"/>
    <property name="rotationMult" type="float" value="1"/>
    <property name="squib" type="int" value="-1"/>
    <property name="squibSE" value=""/>
    <property name="static" type="bool" value="false"/>
   </properties>
  </object>
  <object id="1179" class="prop" gid="166" x="627" y="179" width="12" height="29" rotation="358.432">
   <properties>
    <property name="foreground" type="bool" value="true"/>
    <property name="noDestroy" type="bool" value="true"/>
    <property name="rotationMult" type="float" value="1"/>
    <property name="squib" type="int" value="-1"/>
    <property name="squibSE" value=""/>
    <property name="static" type="bool" value="false"/>
   </properties>
  </object>
  <object id="1180" class="prop" gid="167" x="609" y="178" width="13" height="27" rotation="7.65142">
   <properties>
    <property name="foreground" type="bool" value="true"/>
    <property name="noDestroy" type="bool" value="true"/>
    <property name="rotationMult" type="float" value="1"/>
    <property name="squib" type="int" value="-1"/>
    <property name="squibSE" value=""/>
    <property name="static" type="bool" value="false"/>
   </properties>
  </object>
  <object id="1181" class="prop" gid="125" x="476.62" y="181" width="24" height="22" rotation="7.04443">
   <properties>
    <property name="foreground" type="bool" value="true"/>
    <property name="noDestroy" type="bool" value="true"/>
    <property name="rotationMult" type="float" value="1"/>
    <property name="squib" type="int" value="-1"/>
    <property name="squibSE" value=""/>
    <property name="static" type="bool" value="false"/>
   </properties>
  </object>
  <object id="1182" class="prop" gid="122" x="457.09" y="181.348" width="35" height="20" rotation="353.944">
   <properties>
    <property name="foreground" type="bool" value="true"/>
    <property name="noDestroy" type="bool" value="true"/>
    <property name="rotationMult" type="float" value="1"/>
    <property name="squib" type="int" value="-1"/>
    <property name="squibSE" value=""/>
    <property name="static" type="bool" value="false"/>
   </properties>
  </object>
  <object id="1183" class="prop" gid="122" x="436" y="183.392" width="35" height="20" rotation="353.944">
   <properties>
    <property name="foreground" type="bool" value="true"/>
    <property name="noDestroy" type="bool" value="true"/>
    <property name="rotationMult" type="float" value="1"/>
    <property name="squib" type="int" value="-1"/>
    <property name="squibSE" value=""/>
    <property name="static" type="bool" value="false"/>
   </properties>
  </object>
  <object id="1185" class="prop" gid="169" x="1495" y="418" width="20" height="29" rotation="5.08043">
   <properties>
    <property name="foreground" type="bool" value="true"/>
    <property name="noDestroy" type="bool" value="true"/>
    <property name="rotationMult" type="float" value="1"/>
    <property name="squib" type="int" value="-1"/>
    <property name="squibSE" value=""/>
    <property name="static" type="bool" value="false"/>
   </properties>
  </object>
  <object id="1186" class="prop" gid="128" x="1476" y="419" width="26" height="19" rotation="2.18209">
   <properties>
    <property name="foreground" type="bool" value="true"/>
    <property name="noDestroy" type="bool" value="true"/>
    <property name="rotationMult" type="float" value="1"/>
    <property name="squib" type="int" value="-1"/>
    <property name="squibSE" value=""/>
    <property name="static" type="bool" value="false"/>
   </properties>
  </object>
  <object id="1187" class="prop" gid="169" x="1462" y="417" width="20" height="29" rotation="5.08043">
   <properties>
    <property name="foreground" type="bool" value="true"/>
    <property name="noDestroy" type="bool" value="true"/>
    <property name="rotationMult" type="float" value="1"/>
    <property name="squib" type="int" value="-1"/>
    <property name="squibSE" value=""/>
    <property name="static" type="bool" value="false"/>
   </properties>
  </object>
  <object id="1189" class="prop" gid="128" x="1295" y="342" width="26" height="19" rotation="351.903">
   <properties>
    <property name="foreground" type="bool" value="true"/>
    <property name="noDestroy" type="bool" value="true"/>
    <property name="rotationMult" type="float" value="1"/>
    <property name="squib" type="int" value="-1"/>
    <property name="squibSE" value=""/>
    <property name="static" type="bool" value="false"/>
   </properties>
  </object>
  <object id="1190" class="prop" gid="132" x="1334" y="337" width="12" height="13" rotation="358.432">
   <properties>
    <property name="foreground" type="bool" value="true"/>
    <property name="noDestroy" type="bool" value="true"/>
    <property name="rotationMult" type="float" value="1"/>
    <property name="squib" type="int" value="-1"/>
    <property name="squibSE" value=""/>
    <property name="static" type="bool" value="false"/>
   </properties>
  </object>
  <object id="1191" class="prop" gid="132" x="1324" y="335" width="12" height="13" rotation="358.432">
   <properties>
    <property name="foreground" type="bool" value="true"/>
    <property name="noDestroy" type="bool" value="true"/>
    <property name="rotationMult" type="float" value="1"/>
    <property name="squib" type="int" value="-1"/>
    <property name="squibSE" value=""/>
    <property name="static" type="bool" value="false"/>
   </properties>
  </object>
  <object id="1192" class="prop" gid="153" x="669" y="450" width="19" height="19" rotation="335.734">
   <properties>
    <property name="foreground" type="bool" value="false"/>
    <property name="noDestroy" type="bool" value="true"/>
    <property name="rotationMult" type="float" value="1"/>
    <property name="squib" type="int" value="-1"/>
    <property name="squibSE" value=""/>
    <property name="static" type="bool" value="true"/>
   </properties>
  </object>
  <object id="1194" class="prop" gid="128" x="1340" y="337" width="26" height="19" rotation="44.4689">
   <properties>
    <property name="foreground" type="bool" value="true"/>
    <property name="noDestroy" type="bool" value="true"/>
    <property name="rotationMult" type="float" value="1"/>
    <property name="squib" type="int" value="-1"/>
    <property name="squibSE" value=""/>
    <property name="static" type="bool" value="false"/>
   </properties>
  </object>
  <object id="1195" class="prop" gid="131" x="1359" y="356" width="11" height="13" rotation="35.1697">
   <properties>
    <property name="foreground" type="bool" value="true"/>
    <property name="noDestroy" type="bool" value="true"/>
    <property name="rotationMult" type="float" value="1"/>
    <property name="squib" type="int" value="-1"/>
    <property name="squibSE" value=""/>
    <property name="static" type="bool" value="false"/>
   </properties>
  </object>
  <object id="1196" class="prop" gid="132" x="1370" y="370" width="12" height="13" rotation="358.432">
   <properties>
    <property name="foreground" type="bool" value="true"/>
    <property name="noDestroy" type="bool" value="true"/>
    <property name="rotationMult" type="float" value="1"/>
    <property name="squib" type="int" value="-1"/>
    <property name="squibSE" value=""/>
    <property name="static" type="bool" value="false"/>
   </properties>
  </object>
  <object id="1197" class="prop" gid="129" x="1387" y="377" width="22" height="14" rotation="21.3698">
   <properties>
    <property name="foreground" type="bool" value="true"/>
    <property name="noDestroy" type="bool" value="true"/>
    <property name="rotationMult" type="float" value="1"/>
    <property name="squib" type="int" value="-1"/>
    <property name="squibSE" value=""/>
    <property name="static" type="bool" value="false"/>
   </properties>
  </object>
  <object id="1198" class="prop" gid="130" x="1414" y="391" width="27" height="15" rotation="23.9605">
   <properties>
    <property name="foreground" type="bool" value="true"/>
    <property name="noDestroy" type="bool" value="true"/>
    <property name="rotationMult" type="float" value="1"/>
    <property name="squib" type="int" value="-1"/>
    <property name="squibSE" value=""/>
    <property name="static" type="bool" value="false"/>
   </properties>
  </object>
  <object id="1199" class="prop" gid="132" x="1408" y="390" width="12" height="13" rotation="358.432">
   <properties>
    <property name="foreground" type="bool" value="true"/>
    <property name="noDestroy" type="bool" value="true"/>
    <property name="rotationMult" type="float" value="1"/>
    <property name="squib" type="int" value="-1"/>
    <property name="squibSE" value=""/>
    <property name="static" type="bool" value="false"/>
   </properties>
  </object>
  <object id="1200" class="prop" gid="128" x="1439" y="403" width="26" height="19" rotation="30.6485">
   <properties>
    <property name="foreground" type="bool" value="true"/>
    <property name="noDestroy" type="bool" value="true"/>
    <property name="rotationMult" type="float" value="1"/>
    <property name="squib" type="int" value="-1"/>
    <property name="squibSE" value=""/>
    <property name="static" type="bool" value="false"/>
   </properties>
  </object>
  <object id="1201" class="prop" gid="166" x="1377" y="372" width="12" height="29" rotation="39.642">
   <properties>
    <property name="foreground" type="bool" value="true"/>
    <property name="noDestroy" type="bool" value="true"/>
    <property name="rotationMult" type="float" value="1"/>
    <property name="squib" type="int" value="-1"/>
    <property name="squibSE" value=""/>
    <property name="static" type="bool" value="false"/>
   </properties>
  </object>
  <object id="1202" class="prop" gid="133" x="1381" y="237.098" width="47" height="37" rotation="213.605">
   <properties>
    <property name="foreground" type="bool" value="true"/>
    <property name="noDestroy" type="bool" value="true"/>
    <property name="rotationMult" type="float" value="1"/>
    <property name="squib" type="int" value="-1"/>
    <property name="squibSE" value=""/>
    <property name="static" type="bool" value="true"/>
   </properties>
  </object>
  <object id="1203" class="prop" gid="133" x="1413" y="268" width="47" height="37" rotation="247.576">
   <properties>
    <property name="foreground" type="bool" value="true"/>
    <property name="noDestroy" type="bool" value="true"/>
    <property name="rotationMult" type="float" value="1"/>
    <property name="squib" type="int" value="-1"/>
    <property name="squibSE" value=""/>
    <property name="static" type="bool" value="true"/>
   </properties>
  </object>
  <object id="1204" class="prop" gid="664" x="1482" y="320" width="40" height="43" rotation="253.843">
   <properties>
    <property name="foreground" type="bool" value="true"/>
    <property name="noDestroy" type="bool" value="true"/>
    <property name="rotationMult" type="float" value="1"/>
    <property name="squib" type="int" value="-1"/>
    <property name="squibSE" value=""/>
    <property name="static" type="bool" value="true"/>
   </properties>
  </object>
  <object id="1205" class="prop" gid="669" x="1437" y="295" width="27" height="19" rotation="247.407">
   <properties>
    <property name="foreground" type="bool" value="true"/>
    <property name="noDestroy" type="bool" value="true"/>
    <property name="rotationMult" type="float" value="1"/>
    <property name="squib" type="int" value="-1"/>
    <property name="squibSE" value=""/>
    <property name="static" type="bool" value="true"/>
   </properties>
  </object>
  <object id="1207" class="prop" gid="154" x="1339" y="283" width="26" height="28" rotation="2.99698">
   <properties>
    <property name="foreground" type="bool" value="false"/>
    <property name="noDestroy" type="bool" value="true"/>
    <property name="rotationMult" type="float" value="1"/>
    <property name="squib" type="int" value="-1"/>
    <property name="squibSE" value=""/>
    <property name="static" type="bool" value="true"/>
   </properties>
  </object>
  <object id="1208" class="prop" gid="152" x="1392" y="291" width="19" height="25" rotation="21.7718">
   <properties>
    <property name="foreground" type="bool" value="false"/>
    <property name="noDestroy" type="bool" value="true"/>
    <property name="rotationMult" type="float" value="1"/>
    <property name="squib" type="int" value="-1"/>
    <property name="squibSE" value=""/>
    <property name="static" type="bool" value="true"/>
   </properties>
  </object>
  <object id="1209" class="prop" gid="133" x="973.31" y="993.098" width="47" height="37" rotation="213.605">
   <properties>
    <property name="foreground" type="bool" value="true"/>
    <property name="noDestroy" type="bool" value="true"/>
    <property name="rotationMult" type="float" value="1"/>
    <property name="squib" type="int" value="-1"/>
    <property name="squibSE" value=""/>
    <property name="static" type="bool" value="true"/>
   </properties>
  </object>
  <object id="1210" class="prop" gid="133" x="995" y="967" width="47" height="37" rotation="163.649">
   <properties>
    <property name="foreground" type="bool" value="true"/>
    <property name="noDestroy" type="bool" value="true"/>
    <property name="rotationMult" type="float" value="1"/>
    <property name="squib" type="int" value="-1"/>
    <property name="squibSE" value=""/>
    <property name="static" type="bool" value="true"/>
   </properties>
  </object>
  <object id="1211" class="prop" gid="135" x="1036" y="963" width="40" height="44" rotation="178.856">
   <properties>
    <property name="foreground" type="bool" value="true"/>
    <property name="noDestroy" type="bool" value="true"/>
    <property name="rotationMult" type="float" value="1"/>
    <property name="squib" type="int" value="-1"/>
    <property name="squibSE" value=""/>
    <property name="static" type="bool" value="true"/>
   </properties>
  </object>
  <object id="1212" class="prop" gid="136" x="1058" y="973" width="40" height="39" rotation="168.622">
   <properties>
    <property name="foreground" type="bool" value="true"/>
    <property name="noDestroy" type="bool" value="true"/>
    <property name="rotationMult" type="float" value="1"/>
    <property name="squib" type="int" value="-1"/>
    <property name="squibSE" value=""/>
    <property name="static" type="bool" value="true"/>
   </properties>
  </object>
  <object id="1213" class="prop" gid="134" x="1076" y="957" width="34" height="46" rotation="141.513">
   <properties>
    <property name="foreground" type="bool" value="true"/>
    <property name="noDestroy" type="bool" value="true"/>
    <property name="rotationMult" type="float" value="1"/>
    <property name="squib" type="int" value="-1"/>
    <property name="squibSE" value=""/>
    <property name="static" type="bool" value="true"/>
   </properties>
  </object>
  <object id="1214" class="prop" gid="133" x="1128" y="961" width="47" height="37" rotation="170.907">
   <properties>
    <property name="foreground" type="bool" value="true"/>
    <property name="noDestroy" type="bool" value="true"/>
    <property name="rotationMult" type="float" value="1"/>
    <property name="squib" type="int" value="-1"/>
    <property name="squibSE" value=""/>
    <property name="static" type="bool" value="true"/>
   </properties>
  </object>
  <object id="1215" class="prop" gid="133" x="1131" y="953" width="47" height="37" rotation="121.468">
   <properties>
    <property name="foreground" type="bool" value="true"/>
    <property name="noDestroy" type="bool" value="true"/>
    <property name="rotationMult" type="float" value="1"/>
    <property name="squib" type="int" value="-1"/>
    <property name="squibSE" value=""/>
    <property name="static" type="bool" value="true"/>
   </properties>
  </object>
  <object id="1216" class="prop" gid="137" x="1066" y="988" width="25" height="23" rotation="149.868">
   <properties>
    <property name="foreground" type="bool" value="true"/>
    <property name="noDestroy" type="bool" value="true"/>
    <property name="rotationMult" type="float" value="1"/>
    <property name="squib" type="int" value="-1"/>
    <property name="squibSE" value=""/>
    <property name="static" type="bool" value="true"/>
   </properties>
  </object>
  <object id="1217" class="prop" gid="138" x="1009" y="1009" width="24" height="18" rotation="242.083">
   <properties>
    <property name="foreground" type="bool" value="true"/>
    <property name="noDestroy" type="bool" value="true"/>
    <property name="rotationMult" type="float" value="1"/>
    <property name="squib" type="int" value="-1"/>
    <property name="squibSE" value=""/>
    <property name="static" type="bool" value="true"/>
   </properties>
  </object>
  <object id="1218" class="prop" gid="138" x="905.15" y="979.743" width="24" height="18" rotation="149.283">
   <properties>
    <property name="foreground" type="bool" value="true"/>
    <property name="noDestroy" type="bool" value="true"/>
    <property name="rotationMult" type="float" value="1"/>
    <property name="squib" type="int" value="-1"/>
    <property name="squibSE" value=""/>
    <property name="static" type="bool" value="true"/>
   </properties>
  </object>
  <object id="1219" class="prop" gid="137" x="891" y="984" width="25" height="23" rotation="186.396">
   <properties>
    <property name="foreground" type="bool" value="true"/>
    <property name="noDestroy" type="bool" value="true"/>
    <property name="rotationMult" type="float" value="1"/>
    <property name="squib" type="int" value="-1"/>
    <property name="squibSE" value=""/>
    <property name="static" type="bool" value="true"/>
   </properties>
  </object>
  <object id="1220" class="prop" gid="138" x="822" y="985" width="24" height="18" rotation="186.396">
   <properties>
    <property name="foreground" type="bool" value="true"/>
    <property name="noDestroy" type="bool" value="true"/>
    <property name="rotationMult" type="float" value="1"/>
    <property name="squib" type="int" value="-1"/>
    <property name="squibSE" value=""/>
    <property name="static" type="bool" value="true"/>
   </properties>
  </object>
  <object id="1221" class="prop" gid="139" x="797" y="978" width="27" height="22" rotation="166.814">
   <properties>
    <property name="foreground" type="bool" value="true"/>
    <property name="noDestroy" type="bool" value="true"/>
    <property name="rotationMult" type="float" value="1"/>
    <property name="squib" type="int" value="-1"/>
    <property name="squibSE" value=""/>
    <property name="static" type="bool" value="true"/>
   </properties>
  </object>
  <object id="1222" class="prop" gid="140" x="871" y="986" width="27" height="19" rotation="196.755">
   <properties>
    <property name="foreground" type="bool" value="true"/>
    <property name="noDestroy" type="bool" value="true"/>
    <property name="rotationMult" type="float" value="1"/>
    <property name="squib" type="int" value="-1"/>
    <property name="squibSE" value=""/>
    <property name="static" type="bool" value="true"/>
   </properties>
  </object>
  <object id="1223" class="prop" gid="141" x="744.66" y="986.272" width="25" height="22" rotation="209.953">
   <properties>
    <property name="foreground" type="bool" value="true"/>
    <property name="noDestroy" type="bool" value="true"/>
    <property name="rotationMult" type="float" value="1"/>
    <property name="squib" type="int" value="-1"/>
    <property name="squibSE" value=""/>
    <property name="static" type="bool" value="true"/>
   </properties>
  </object>
  <object id="1224" class="prop" gid="137" x="765.38" y="982.669" width="25" height="23" rotation="194.308">
   <properties>
    <property name="foreground" type="bool" value="true"/>
    <property name="noDestroy" type="bool" value="true"/>
    <property name="rotationMult" type="float" value="1"/>
    <property name="squib" type="int" value="-1"/>
    <property name="squibSE" value=""/>
    <property name="static" type="bool" value="true"/>
   </properties>
  </object>
  <object id="1225" class="prop" gid="135" x="862.5" y="972.062" width="40" height="44" rotation="203.22">
   <properties>
    <property name="foreground" type="bool" value="true"/>
    <property name="noDestroy" type="bool" value="true"/>
    <property name="rotationMult" type="float" value="1"/>
    <property name="squib" type="int" value="-1"/>
    <property name="squibSE" value=""/>
    <property name="static" type="bool" value="true"/>
   </properties>
  </object>
  <object id="1226" class="prop" gid="133" x="801.97" y="966.651" width="47" height="37" rotation="184.15">
   <properties>
    <property name="foreground" type="bool" value="true"/>
    <property name="noDestroy" type="bool" value="true"/>
    <property name="rotationMult" type="float" value="1"/>
    <property name="squib" type="int" value="-1"/>
    <property name="squibSE" value=""/>
    <property name="static" type="bool" value="true"/>
   </properties>
  </object>
  <object id="1227" class="prop" gid="133" x="929" y="960" width="47" height="37" rotation="170.907">
   <properties>
    <property name="foreground" type="bool" value="true"/>
    <property name="noDestroy" type="bool" value="true"/>
    <property name="rotationMult" type="float" value="1"/>
    <property name="squib" type="int" value="-1"/>
    <property name="squibSE" value=""/>
    <property name="static" type="bool" value="true"/>
   </properties>
  </object>
  <object id="1228" class="prop" gid="137" x="886" y="957" width="25" height="23" rotation="166.445">
   <properties>
    <property name="foreground" type="bool" value="true"/>
    <property name="noDestroy" type="bool" value="true"/>
    <property name="rotationMult" type="float" value="1"/>
    <property name="squib" type="int" value="-1"/>
    <property name="squibSE" value=""/>
    <property name="static" type="bool" value="true"/>
   </properties>
  </object>
  <object id="1229" class="prop" gid="144" x="818" y="959" width="20" height="17" rotation="166.814">
   <properties>
    <property name="foreground" type="bool" value="true"/>
    <property name="noDestroy" type="bool" value="true"/>
    <property name="rotationMult" type="float" value="1"/>
    <property name="squib" type="int" value="-1"/>
    <property name="squibSE" value=""/>
    <property name="static" type="bool" value="true"/>
   </properties>
  </object>
  <object id="1230" class="prop" gid="145" x="737" y="966" width="14" height="18" rotation="209.953">
   <properties>
    <property name="foreground" type="bool" value="true"/>
    <property name="noDestroy" type="bool" value="true"/>
    <property name="rotationMult" type="float" value="1"/>
    <property name="squib" type="int" value="-1"/>
    <property name="squibSE" value=""/>
    <property name="static" type="bool" value="true"/>
   </properties>
  </object>
  <object id="1231" class="prop" gid="134" x="693" y="1008" width="34" height="46" rotation="330.224">
   <properties>
    <property name="foreground" type="bool" value="true"/>
    <property name="noDestroy" type="bool" value="true"/>
    <property name="rotationMult" type="float" value="1"/>
    <property name="squib" type="int" value="-1"/>
    <property name="squibSE" value=""/>
    <property name="static" type="bool" value="true"/>
   </properties>
  </object>
  <object id="1232" class="prop" gid="157" x="753" y="1011" width="35" height="12">
   <properties>
    <property name="foreground" type="bool" value="true"/>
    <property name="noDestroy" type="bool" value="true"/>
    <property name="rotationMult" type="float" value="1"/>
    <property name="squib" type="int" value="-1"/>
    <property name="squibSE" value=""/>
    <property name="static" type="bool" value="true"/>
   </properties>
  </object>
  <object id="1233" class="prop" gid="158" x="776" y="1015" width="44" height="15">
   <properties>
    <property name="foreground" type="bool" value="true"/>
    <property name="noDestroy" type="bool" value="true"/>
    <property name="rotationMult" type="float" value="1"/>
    <property name="squib" type="int" value="-1"/>
    <property name="squibSE" value=""/>
    <property name="static" type="bool" value="true"/>
   </properties>
  </object>
  <object id="1234" class="prop" gid="157" x="832" y="1012" width="35" height="12">
   <properties>
    <property name="foreground" type="bool" value="true"/>
    <property name="noDestroy" type="bool" value="true"/>
    <property name="rotationMult" type="float" value="1"/>
    <property name="squib" type="int" value="-1"/>
    <property name="squibSE" value=""/>
    <property name="static" type="bool" value="true"/>
   </properties>
  </object>
  <object id="1235" class="prop" gid="159" x="870" y="1013" width="55" height="13">
   <properties>
    <property name="foreground" type="bool" value="true"/>
    <property name="noDestroy" type="bool" value="true"/>
    <property name="rotationMult" type="float" value="1"/>
    <property name="squib" type="int" value="-1"/>
    <property name="squibSE" value=""/>
    <property name="static" type="bool" value="true"/>
   </properties>
  </object>
  <object id="1236" class="prop" gid="158" x="898" y="1012" width="44" height="15" rotation="20.1243">
   <properties>
    <property name="foreground" type="bool" value="true"/>
    <property name="noDestroy" type="bool" value="true"/>
    <property name="rotationMult" type="float" value="1"/>
    <property name="squib" type="int" value="-1"/>
    <property name="squibSE" value=""/>
    <property name="static" type="bool" value="true"/>
   </properties>
  </object>
  <object id="1237" class="prop" gid="164" x="1098" y="1043" width="29" height="43">
   <properties>
    <property name="foreground" type="bool" value="true"/>
    <property name="noDestroy" type="bool" value="true"/>
    <property name="rotationMult" type="float" value="1"/>
    <property name="squib" type="int" value="-1"/>
    <property name="squibSE" value=""/>
    <property name="static" type="bool" value="true"/>
   </properties>
  </object>
  <object id="1238" class="prop" gid="161" x="1055" y="1049" width="18" height="45">
   <properties>
    <property name="foreground" type="bool" value="true"/>
    <property name="noDestroy" type="bool" value="true"/>
    <property name="rotationMult" type="float" value="1"/>
    <property name="squib" type="int" value="-1"/>
    <property name="squibSE" value=""/>
    <property name="static" type="bool" value="true"/>
   </properties>
  </object>
  <object id="1239" class="prop" gid="157" x="968" y="1023" width="35" height="12">
   <properties>
    <property name="foreground" type="bool" value="true"/>
    <property name="noDestroy" type="bool" value="true"/>
    <property name="rotationMult" type="float" value="1"/>
    <property name="squib" type="int" value="-1"/>
    <property name="squibSE" value=""/>
    <property name="static" type="bool" value="true"/>
   </properties>
  </object>
  <object id="1240" class="prop" gid="158" x="997" y="1029" width="44" height="15">
   <properties>
    <property name="foreground" type="bool" value="true"/>
    <property name="noDestroy" type="bool" value="true"/>
    <property name="rotationMult" type="float" value="1"/>
    <property name="squib" type="int" value="-1"/>
    <property name="squibSE" value=""/>
    <property name="static" type="bool" value="true"/>
   </properties>
  </object>
  <object id="1241" class="prop" gid="155" x="697" y="1029" width="47" height="33">
   <properties>
    <property name="foreground" type="bool" value="true"/>
    <property name="noDestroy" type="bool" value="true"/>
    <property name="rotationMult" type="float" value="1"/>
    <property name="squib" type="int" value="-1"/>
    <property name="squibSE" value=""/>
    <property name="static" type="bool" value="true"/>
   </properties>
  </object>
  <object id="1242" class="prop" gid="153" x="1082" y="1029" width="19" height="19" rotation="335.734">
   <properties>
    <property name="foreground" type="bool" value="false"/>
    <property name="noDestroy" type="bool" value="true"/>
    <property name="rotationMult" type="float" value="1"/>
    <property name="squib" type="int" value="-1"/>
    <property name="squibSE" value=""/>
    <property name="static" type="bool" value="true"/>
   </properties>
  </object>
  <object id="1243" class="prop" gid="152" x="949" y="1034" width="19" height="25" rotation="2.99698">
   <properties>
    <property name="foreground" type="bool" value="false"/>
    <property name="noDestroy" type="bool" value="true"/>
    <property name="rotationMult" type="float" value="1"/>
    <property name="squib" type="int" value="-1"/>
    <property name="squibSE" value=""/>
    <property name="static" type="bool" value="true"/>
   </properties>
  </object>
  <object id="1244" class="prop" gid="151" x="858" y="1036" width="21" height="34" rotation="2.99698">
   <properties>
    <property name="foreground" type="bool" value="false"/>
    <property name="noDestroy" type="bool" value="true"/>
    <property name="rotationMult" type="float" value="1"/>
    <property name="squib" type="int" value="-1"/>
    <property name="squibSE" value=""/>
    <property name="static" type="bool" value="true"/>
   </properties>
  </object>
  <object id="1245" class="prop" gid="154" x="731" y="1026" width="26" height="28" rotation="2.99698">
   <properties>
    <property name="foreground" type="bool" value="false"/>
    <property name="noDestroy" type="bool" value="true"/>
    <property name="rotationMult" type="float" value="1"/>
    <property name="squib" type="int" value="-1"/>
    <property name="squibSE" value=""/>
    <property name="static" type="bool" value="true"/>
   </properties>
  </object>
  <object id="1246" class="prop" gid="133" x="1313.31" y="995.098" width="47" height="37" rotation="213.605">
   <properties>
    <property name="foreground" type="bool" value="true"/>
    <property name="noDestroy" type="bool" value="true"/>
    <property name="rotationMult" type="float" value="1"/>
    <property name="squib" type="int" value="-1"/>
    <property name="squibSE" value=""/>
    <property name="static" type="bool" value="true"/>
   </properties>
  </object>
  <object id="1247" class="prop" gid="138" x="1245.15" y="981.743" width="24" height="18" rotation="149.283">
   <properties>
    <property name="foreground" type="bool" value="true"/>
    <property name="noDestroy" type="bool" value="true"/>
    <property name="rotationMult" type="float" value="1"/>
    <property name="squib" type="int" value="-1"/>
    <property name="squibSE" value=""/>
    <property name="static" type="bool" value="true"/>
   </properties>
  </object>
  <object id="1248" class="prop" gid="137" x="1231" y="986" width="25" height="23" rotation="186.396">
   <properties>
    <property name="foreground" type="bool" value="true"/>
    <property name="noDestroy" type="bool" value="true"/>
    <property name="rotationMult" type="float" value="1"/>
    <property name="squib" type="int" value="-1"/>
    <property name="squibSE" value=""/>
    <property name="static" type="bool" value="true"/>
   </properties>
  </object>
  <object id="1249" class="prop" gid="140" x="1211" y="988" width="27" height="19" rotation="196.755">
   <properties>
    <property name="foreground" type="bool" value="true"/>
    <property name="noDestroy" type="bool" value="true"/>
    <property name="rotationMult" type="float" value="1"/>
    <property name="squib" type="int" value="-1"/>
    <property name="squibSE" value=""/>
    <property name="static" type="bool" value="true"/>
   </properties>
  </object>
  <object id="1250" class="prop" gid="135" x="1202.5" y="974.062" width="40" height="44" rotation="203.22">
   <properties>
    <property name="foreground" type="bool" value="true"/>
    <property name="noDestroy" type="bool" value="true"/>
    <property name="rotationMult" type="float" value="1"/>
    <property name="squib" type="int" value="-1"/>
    <property name="squibSE" value=""/>
    <property name="static" type="bool" value="true"/>
   </properties>
  </object>
  <object id="1251" class="prop" gid="133" x="1269" y="962" width="47" height="37" rotation="170.907">
   <properties>
    <property name="foreground" type="bool" value="true"/>
    <property name="noDestroy" type="bool" value="true"/>
    <property name="rotationMult" type="float" value="1"/>
    <property name="squib" type="int" value="-1"/>
    <property name="squibSE" value=""/>
    <property name="static" type="bool" value="true"/>
   </properties>
  </object>
  <object id="1252" class="prop" gid="137" x="1226" y="959" width="25" height="23" rotation="166.445">
   <properties>
    <property name="foreground" type="bool" value="true"/>
    <property name="noDestroy" type="bool" value="true"/>
    <property name="rotationMult" type="float" value="1"/>
    <property name="squib" type="int" value="-1"/>
    <property name="squibSE" value=""/>
    <property name="static" type="bool" value="true"/>
   </properties>
  </object>
  <object id="1253" class="prop" gid="157" x="1172" y="1014" width="35" height="12">
   <properties>
    <property name="foreground" type="bool" value="true"/>
    <property name="noDestroy" type="bool" value="true"/>
    <property name="rotationMult" type="float" value="1"/>
    <property name="squib" type="int" value="-1"/>
    <property name="squibSE" value=""/>
    <property name="static" type="bool" value="true"/>
   </properties>
  </object>
  <object id="1254" class="prop" gid="159" x="1210" y="1015" width="55" height="13">
   <properties>
    <property name="foreground" type="bool" value="true"/>
    <property name="noDestroy" type="bool" value="true"/>
    <property name="rotationMult" type="float" value="1"/>
    <property name="squib" type="int" value="-1"/>
    <property name="squibSE" value=""/>
    <property name="static" type="bool" value="true"/>
   </properties>
  </object>
  <object id="1255" class="prop" gid="158" x="1238" y="1014" width="44" height="15" rotation="20.1243">
   <properties>
    <property name="foreground" type="bool" value="true"/>
    <property name="noDestroy" type="bool" value="true"/>
    <property name="rotationMult" type="float" value="1"/>
    <property name="squib" type="int" value="-1"/>
    <property name="squibSE" value=""/>
    <property name="static" type="bool" value="true"/>
   </properties>
  </object>
  <object id="1256" class="prop" gid="151" x="1198" y="1038" width="21" height="34" rotation="2.99698">
   <properties>
    <property name="foreground" type="bool" value="false"/>
    <property name="noDestroy" type="bool" value="true"/>
    <property name="rotationMult" type="float" value="1"/>
    <property name="squib" type="int" value="-1"/>
    <property name="squibSE" value=""/>
    <property name="static" type="bool" value="true"/>
   </properties>
  </object>
  <object id="1271" class="prop" gid="138" x="1500.15" y="981.743" width="24" height="18" rotation="149.283">
   <properties>
    <property name="foreground" type="bool" value="true"/>
    <property name="noDestroy" type="bool" value="true"/>
    <property name="rotationMult" type="float" value="1"/>
    <property name="squib" type="int" value="-1"/>
    <property name="squibSE" value=""/>
    <property name="static" type="bool" value="true"/>
   </properties>
  </object>
  <object id="1272" class="prop" gid="137" x="1486" y="986" width="25" height="23" rotation="186.396">
   <properties>
    <property name="foreground" type="bool" value="true"/>
    <property name="noDestroy" type="bool" value="true"/>
    <property name="rotationMult" type="float" value="1"/>
    <property name="squib" type="int" value="-1"/>
    <property name="squibSE" value=""/>
    <property name="static" type="bool" value="true"/>
   </properties>
  </object>
  <object id="1273" class="prop" gid="138" x="1417" y="987" width="24" height="18" rotation="186.396">
   <properties>
    <property name="foreground" type="bool" value="true"/>
    <property name="noDestroy" type="bool" value="true"/>
    <property name="rotationMult" type="float" value="1"/>
    <property name="squib" type="int" value="-1"/>
    <property name="squibSE" value=""/>
    <property name="static" type="bool" value="true"/>
   </properties>
  </object>
  <object id="1274" class="prop" gid="139" x="1392" y="980" width="27" height="22" rotation="166.814">
   <properties>
    <property name="foreground" type="bool" value="true"/>
    <property name="noDestroy" type="bool" value="true"/>
    <property name="rotationMult" type="float" value="1"/>
    <property name="squib" type="int" value="-1"/>
    <property name="squibSE" value=""/>
    <property name="static" type="bool" value="true"/>
   </properties>
  </object>
  <object id="1275" class="prop" gid="140" x="1466" y="988" width="27" height="19" rotation="196.755">
   <properties>
    <property name="foreground" type="bool" value="true"/>
    <property name="noDestroy" type="bool" value="true"/>
    <property name="rotationMult" type="float" value="1"/>
    <property name="squib" type="int" value="-1"/>
    <property name="squibSE" value=""/>
    <property name="static" type="bool" value="true"/>
   </properties>
  </object>
  <object id="1276" class="prop" gid="141" x="1339.66" y="988.272" width="25" height="22" rotation="209.953">
   <properties>
    <property name="foreground" type="bool" value="true"/>
    <property name="noDestroy" type="bool" value="true"/>
    <property name="rotationMult" type="float" value="1"/>
    <property name="squib" type="int" value="-1"/>
    <property name="squibSE" value=""/>
    <property name="static" type="bool" value="true"/>
   </properties>
  </object>
  <object id="1277" class="prop" gid="137" x="1360.38" y="984.669" width="25" height="23" rotation="194.308">
   <properties>
    <property name="foreground" type="bool" value="true"/>
    <property name="noDestroy" type="bool" value="true"/>
    <property name="rotationMult" type="float" value="1"/>
    <property name="squib" type="int" value="-1"/>
    <property name="squibSE" value=""/>
    <property name="static" type="bool" value="true"/>
   </properties>
  </object>
  <object id="1278" class="prop" gid="135" x="1457.5" y="974.062" width="40" height="44" rotation="203.22">
   <properties>
    <property name="foreground" type="bool" value="true"/>
    <property name="noDestroy" type="bool" value="true"/>
    <property name="rotationMult" type="float" value="1"/>
    <property name="squib" type="int" value="-1"/>
    <property name="squibSE" value=""/>
    <property name="static" type="bool" value="true"/>
   </properties>
  </object>
  <object id="1279" class="prop" gid="133" x="1396.97" y="968.651" width="47" height="37" rotation="184.15">
   <properties>
    <property name="foreground" type="bool" value="true"/>
    <property name="noDestroy" type="bool" value="true"/>
    <property name="rotationMult" type="float" value="1"/>
    <property name="squib" type="int" value="-1"/>
    <property name="squibSE" value=""/>
    <property name="static" type="bool" value="true"/>
   </properties>
  </object>
  <object id="1280" class="prop" gid="133" x="1524" y="962" width="47" height="37" rotation="170.907">
   <properties>
    <property name="foreground" type="bool" value="true"/>
    <property name="noDestroy" type="bool" value="true"/>
    <property name="rotationMult" type="float" value="1"/>
    <property name="squib" type="int" value="-1"/>
    <property name="squibSE" value=""/>
    <property name="static" type="bool" value="true"/>
   </properties>
  </object>
  <object id="1281" class="prop" gid="137" x="1481" y="959" width="25" height="23" rotation="166.445">
   <properties>
    <property name="foreground" type="bool" value="true"/>
    <property name="noDestroy" type="bool" value="true"/>
    <property name="rotationMult" type="float" value="1"/>
    <property name="squib" type="int" value="-1"/>
    <property name="squibSE" value=""/>
    <property name="static" type="bool" value="true"/>
   </properties>
  </object>
  <object id="1282" class="prop" gid="144" x="1413" y="961" width="20" height="17" rotation="166.814">
   <properties>
    <property name="foreground" type="bool" value="true"/>
    <property name="noDestroy" type="bool" value="true"/>
    <property name="rotationMult" type="float" value="1"/>
    <property name="squib" type="int" value="-1"/>
    <property name="squibSE" value=""/>
    <property name="static" type="bool" value="true"/>
   </properties>
  </object>
  <object id="1283" class="prop" gid="145" x="1318" y="974" width="14" height="18" rotation="209.953">
   <properties>
    <property name="foreground" type="bool" value="true"/>
    <property name="noDestroy" type="bool" value="true"/>
    <property name="rotationMult" type="float" value="1"/>
    <property name="squib" type="int" value="-1"/>
    <property name="squibSE" value=""/>
    <property name="static" type="bool" value="true"/>
   </properties>
  </object>
  <object id="1284" class="prop" gid="157" x="1348" y="1013" width="35" height="12">
   <properties>
    <property name="foreground" type="bool" value="true"/>
    <property name="noDestroy" type="bool" value="true"/>
    <property name="rotationMult" type="float" value="1"/>
    <property name="squib" type="int" value="-1"/>
    <property name="squibSE" value=""/>
    <property name="static" type="bool" value="true"/>
   </properties>
  </object>
  <object id="1285" class="prop" gid="158" x="1371" y="1017" width="44" height="15">
   <properties>
    <property name="foreground" type="bool" value="true"/>
    <property name="noDestroy" type="bool" value="true"/>
    <property name="rotationMult" type="float" value="1"/>
    <property name="squib" type="int" value="-1"/>
    <property name="squibSE" value=""/>
    <property name="static" type="bool" value="true"/>
   </properties>
  </object>
  <object id="1286" class="prop" gid="157" x="1427" y="1014" width="35" height="12">
   <properties>
    <property name="foreground" type="bool" value="true"/>
    <property name="noDestroy" type="bool" value="true"/>
    <property name="rotationMult" type="float" value="1"/>
    <property name="squib" type="int" value="-1"/>
    <property name="squibSE" value=""/>
    <property name="static" type="bool" value="true"/>
   </properties>
  </object>
  <object id="1287" class="prop" gid="159" x="1467" y="1014" width="55" height="13">
   <properties>
    <property name="foreground" type="bool" value="true"/>
    <property name="noDestroy" type="bool" value="true"/>
    <property name="rotationMult" type="float" value="1"/>
    <property name="squib" type="int" value="-1"/>
    <property name="squibSE" value=""/>
    <property name="static" type="bool" value="true"/>
   </properties>
  </object>
  <object id="1288" class="prop" gid="155" x="1294.21" y="1041.94" width="47" height="33" rotation="344.99">
   <properties>
    <property name="foreground" type="bool" value="true"/>
    <property name="noDestroy" type="bool" value="true"/>
    <property name="rotationMult" type="float" value="1"/>
    <property name="squib" type="int" value="-1"/>
    <property name="squibSE" value=""/>
    <property name="static" type="bool" value="true"/>
   </properties>
  </object>
  <object id="1289" class="prop" gid="151" x="1453" y="1038" width="21" height="34" rotation="2.99698">
   <properties>
    <property name="foreground" type="bool" value="false"/>
    <property name="noDestroy" type="bool" value="true"/>
    <property name="rotationMult" type="float" value="1"/>
    <property name="squib" type="int" value="-1"/>
    <property name="squibSE" value=""/>
    <property name="static" type="bool" value="true"/>
   </properties>
  </object>
  <object id="1290" class="prop" gid="154" x="1326" y="1028" width="26" height="28" rotation="2.99698">
   <properties>
    <property name="foreground" type="bool" value="false"/>
    <property name="noDestroy" type="bool" value="true"/>
    <property name="rotationMult" type="float" value="1"/>
    <property name="squib" type="int" value="-1"/>
    <property name="squibSE" value=""/>
    <property name="static" type="bool" value="true"/>
   </properties>
  </object>
  <object id="1325" class="prop" gid="191" x="1294" y="1142" width="5" height="66">
   <properties>
    <property name="foreground" type="bool" value="true"/>
    <property name="noDestroy" type="bool" value="true"/>
    <property name="rotationMult" type="float" value="1"/>
    <property name="squib" type="int" value="-1"/>
    <property name="squibSE" value=""/>
    <property name="static" type="bool" value="true"/>
   </properties>
  </object>
  <object id="1326" class="prop" gid="192" x="1294" y="1154" width="5" height="22">
   <properties>
    <property name="foreground" type="bool" value="true"/>
    <property name="noDestroy" type="bool" value="true"/>
    <property name="rotationMult" type="float" value="1"/>
    <property name="squib" type="int" value="-1"/>
    <property name="squibSE" value=""/>
    <property name="static" type="bool" value="true"/>
   </properties>
  </object>
  <object id="1360" class="prop" gid="192" x="1358" y="1168" width="5" height="22">
   <properties>
    <property name="foreground" type="bool" value="true"/>
    <property name="noDestroy" type="bool" value="true"/>
    <property name="rotationMult" type="float" value="1"/>
    <property name="squib" type="int" value="-1"/>
    <property name="squibSE" value=""/>
    <property name="static" type="bool" value="true"/>
   </properties>
  </object>
  <object id="1393" class="prop" gid="191" x="1358" y="1142" width="5" height="66">
   <properties>
    <property name="foreground" type="bool" value="true"/>
    <property name="noDestroy" type="bool" value="true"/>
    <property name="rotationMult" type="float" value="1"/>
    <property name="squib" type="int" value="-1"/>
    <property name="squibSE" value=""/>
    <property name="static" type="bool" value="true"/>
   </properties>
  </object>
  <object id="1394" class="prop" gid="192" x="1358" y="1154" width="5" height="22">
   <properties>
    <property name="foreground" type="bool" value="true"/>
    <property name="noDestroy" type="bool" value="true"/>
    <property name="rotationMult" type="float" value="1"/>
    <property name="squib" type="int" value="-1"/>
    <property name="squibSE" value=""/>
    <property name="static" type="bool" value="true"/>
   </properties>
  </object>
  <object id="1395" class="prop" gid="192" x="1294" y="1168" width="5" height="22">
   <properties>
    <property name="foreground" type="bool" value="true"/>
    <property name="noDestroy" type="bool" value="true"/>
    <property name="rotationMult" type="float" value="1"/>
    <property name="squib" type="int" value="-1"/>
    <property name="squibSE" value=""/>
    <property name="static" type="bool" value="true"/>
   </properties>
  </object>
  <object id="1396" class="prop" gid="169" x="1373" y="1168.83" width="20" height="29" rotation="5.08043">
   <properties>
    <property name="foreground" type="bool" value="true"/>
    <property name="noDestroy" type="bool" value="true"/>
    <property name="rotationMult" type="float" value="1"/>
    <property name="squib" type="int" value="-1"/>
    <property name="squibSE" value=""/>
    <property name="static" type="bool" value="false"/>
   </properties>
  </object>
  <object id="1397" class="prop" gid="128" x="1354" y="1170.83" width="26" height="19" rotation="2.18209">
   <properties>
    <property name="foreground" type="bool" value="true"/>
    <property name="noDestroy" type="bool" value="true"/>
    <property name="rotationMult" type="float" value="1"/>
    <property name="squib" type="int" value="-1"/>
    <property name="squibSE" value=""/>
    <property name="static" type="bool" value="false"/>
   </properties>
  </object>
  <object id="1398" class="prop" gid="169" x="1340" y="1169.83" width="20" height="29" rotation="5.08043">
   <properties>
    <property name="foreground" type="bool" value="true"/>
    <property name="noDestroy" type="bool" value="true"/>
    <property name="rotationMult" type="float" value="1"/>
    <property name="squib" type="int" value="-1"/>
    <property name="squibSE" value=""/>
    <property name="static" type="bool" value="false"/>
   </properties>
  </object>
  <object id="1399" class="prop" gid="129" x="1326.89" y="1170.07" width="22" height="14" rotation="353.32">
   <properties>
    <property name="foreground" type="bool" value="true"/>
    <property name="noDestroy" type="bool" value="true"/>
    <property name="rotationMult" type="float" value="1"/>
    <property name="squib" type="int" value="-1"/>
    <property name="squibSE" value=""/>
    <property name="static" type="bool" value="false"/>
   </properties>
  </object>
  <object id="1400" class="prop" gid="122" x="1302.85" y="1170.44" width="35" height="20" rotation="4.90594">
   <properties>
    <property name="foreground" type="bool" value="true"/>
    <property name="noDestroy" type="bool" value="true"/>
    <property name="rotationMult" type="float" value="1"/>
    <property name="squib" type="int" value="-1"/>
    <property name="squibSE" value=""/>
    <property name="static" type="bool" value="false"/>
   </properties>
  </object>
  <object id="1401" class="prop" gid="123" x="1296.09" y="1173.83" width="26" height="23" rotation="350.442">
   <properties>
    <property name="foreground" type="bool" value="true"/>
    <property name="noDestroy" type="bool" value="true"/>
    <property name="rotationMult" type="float" value="1"/>
    <property name="squib" type="int" value="-1"/>
    <property name="squibSE" value=""/>
    <property name="static" type="bool" value="false"/>
   </properties>
  </object>
  <object id="1402" class="prop" gid="123" x="1240.38" y="1170.2" width="26" height="23" rotation="15.7439">
   <properties>
    <property name="foreground" type="bool" value="true"/>
    <property name="noDestroy" type="bool" value="true"/>
    <property name="rotationMult" type="float" value="1"/>
    <property name="squib" type="int" value="-1"/>
    <property name="squibSE" value=""/>
    <property name="static" type="bool" value="false"/>
   </properties>
  </object>
  <object id="1403" class="prop" gid="122" x="1256" y="1172" width="35" height="20" rotation="4.69192">
   <properties>
    <property name="foreground" type="bool" value="true"/>
    <property name="noDestroy" type="bool" value="true"/>
    <property name="rotationMult" type="float" value="1"/>
    <property name="squib" type="int" value="-1"/>
    <property name="squibSE" value=""/>
    <property name="static" type="bool" value="false"/>
   </properties>
  </object>
  <object id="1404" class="prop" gid="169" x="1281" y="1172" width="20" height="29" rotation="357.023">
   <properties>
    <property name="foreground" type="bool" value="true"/>
    <property name="noDestroy" type="bool" value="true"/>
    <property name="rotationMult" type="float" value="1"/>
    <property name="squib" type="int" value="-1"/>
    <property name="squibSE" value=""/>
    <property name="static" type="bool" value="false"/>
   </properties>
  </object>
  <object id="1405" class="prop" gid="131" x="1363" y="1169.83" width="11" height="13" rotation="358.432">
   <properties>
    <property name="foreground" type="bool" value="true"/>
    <property name="noDestroy" type="bool" value="true"/>
    <property name="rotationMult" type="float" value="1"/>
    <property name="squib" type="int" value="-1"/>
    <property name="squibSE" value=""/>
    <property name="static" type="bool" value="false"/>
   </properties>
  </object>
  <object id="1406" class="prop" gid="131" x="1238" y="1168.83" width="11" height="13" rotation="358.432">
   <properties>
    <property name="foreground" type="bool" value="true"/>
    <property name="noDestroy" type="bool" value="true"/>
    <property name="rotationMult" type="float" value="1"/>
    <property name="squib" type="int" value="-1"/>
    <property name="squibSE" value=""/>
    <property name="static" type="bool" value="false"/>
   </properties>
  </object>
  <object id="1407" class="prop" gid="128" x="1218" y="1171.83" width="26" height="19" rotation="1.53143">
   <properties>
    <property name="foreground" type="bool" value="true"/>
    <property name="noDestroy" type="bool" value="true"/>
    <property name="rotationMult" type="float" value="1"/>
    <property name="squib" type="int" value="-1"/>
    <property name="squibSE" value=""/>
    <property name="static" type="bool" value="false"/>
   </properties>
  </object>
  <object id="1408" class="prop" gid="167" x="1246" y="1168.83" width="13" height="27" rotation="346.537">
   <properties>
    <property name="foreground" type="bool" value="true"/>
    <property name="noDestroy" type="bool" value="true"/>
    <property name="rotationMult" type="float" value="1"/>
    <property name="squib" type="int" value="-1"/>
    <property name="squibSE" value=""/>
    <property name="static" type="bool" value="false"/>
   </properties>
  </object>
  <object id="1409" class="prop" gid="167" x="1310.96" y="1167" width="13" height="27" rotation="12.2755">
   <properties>
    <property name="foreground" type="bool" value="true"/>
    <property name="noDestroy" type="bool" value="true"/>
    <property name="rotationMult" type="float" value="1"/>
    <property name="squib" type="int" value="-1"/>
    <property name="squibSE" value=""/>
    <property name="static" type="bool" value="false"/>
   </properties>
  </object>
  <object id="1410" class="prop" gid="122" x="1168" y="1172" width="35" height="20">
   <properties>
    <property name="foreground" type="bool" value="true"/>
    <property name="noDestroy" type="bool" value="true"/>
    <property name="rotationMult" type="float" value="1"/>
    <property name="squib" type="int" value="-1"/>
    <property name="squibSE" value=""/>
    <property name="static" type="bool" value="false"/>
   </properties>
  </object>
  <object id="1411" class="prop" gid="123" x="1156.83" y="1175.46" width="26" height="23" rotation="346.74">
   <properties>
    <property name="foreground" type="bool" value="true"/>
    <property name="noDestroy" type="bool" value="true"/>
    <property name="rotationMult" type="float" value="1"/>
    <property name="squib" type="int" value="-1"/>
    <property name="squibSE" value=""/>
    <property name="static" type="bool" value="false"/>
   </properties>
  </object>
  <object id="1412" class="prop" gid="124" x="1195.15" y="1173" width="32" height="20">
   <properties>
    <property name="foreground" type="bool" value="true"/>
    <property name="noDestroy" type="bool" value="true"/>
    <property name="rotationMult" type="float" value="1"/>
    <property name="squib" type="int" value="-1"/>
    <property name="squibSE" value=""/>
    <property name="static" type="bool" value="false"/>
   </properties>
  </object>
  <object id="1413" class="prop" gid="125" x="1121" y="1171" width="24" height="22" rotation="7.04443">
   <properties>
    <property name="foreground" type="bool" value="true"/>
    <property name="noDestroy" type="bool" value="true"/>
    <property name="rotationMult" type="float" value="1"/>
    <property name="squib" type="int" value="-1"/>
    <property name="squibSE" value=""/>
    <property name="static" type="bool" value="false"/>
   </properties>
  </object>
  <object id="1414" class="prop" gid="122" x="1101" y="1175" width="35" height="20" rotation="353.944">
   <properties>
    <property name="foreground" type="bool" value="true"/>
    <property name="noDestroy" type="bool" value="true"/>
    <property name="rotationMult" type="float" value="1"/>
    <property name="squib" type="int" value="-1"/>
    <property name="squibSE" value=""/>
    <property name="static" type="bool" value="false"/>
   </properties>
  </object>
  <object id="1415" class="prop" gid="123" x="1134" y="1175.79" width="26" height="23">
   <properties>
    <property name="foreground" type="bool" value="true"/>
    <property name="noDestroy" type="bool" value="true"/>
    <property name="rotationMult" type="float" value="1"/>
    <property name="squib" type="int" value="-1"/>
    <property name="squibSE" value=""/>
    <property name="static" type="bool" value="false"/>
   </properties>
  </object>
  <object id="1416" class="prop" gid="125" x="1182" y="1171" width="24" height="22" rotation="20.7915">
   <properties>
    <property name="foreground" type="bool" value="true"/>
    <property name="noDestroy" type="bool" value="true"/>
    <property name="rotationMult" type="float" value="1"/>
    <property name="squib" type="int" value="-1"/>
    <property name="squibSE" value=""/>
    <property name="static" type="bool" value="false"/>
   </properties>
  </object>
  <object id="1417" class="prop" gid="168" x="1142" y="1168" width="13" height="26" rotation="11.9861">
   <properties>
    <property name="foreground" type="bool" value="true"/>
    <property name="noDestroy" type="bool" value="true"/>
    <property name="rotationMult" type="float" value="1"/>
    <property name="squib" type="int" value="-1"/>
    <property name="squibSE" value=""/>
    <property name="static" type="bool" value="false"/>
   </properties>
  </object>
  <object id="1418" class="prop" gid="122" x="1080.91" y="1175.62" width="35" height="20" rotation="353.944">
   <properties>
    <property name="foreground" type="bool" value="true"/>
    <property name="noDestroy" type="bool" value="true"/>
    <property name="rotationMult" type="float" value="1"/>
    <property name="squib" type="int" value="-1"/>
    <property name="squibSE" value=""/>
    <property name="static" type="bool" value="false"/>
   </properties>
  </object>
  <object id="1419" class="prop" gid="170" x="1070.91" y="1172.83" width="20" height="27" rotation="343.547">
   <properties>
    <property name="foreground" type="bool" value="true"/>
    <property name="noDestroy" type="bool" value="true"/>
    <property name="rotationMult" type="float" value="1"/>
    <property name="squib" type="int" value="-1"/>
    <property name="squibSE" value=""/>
    <property name="static" type="bool" value="false"/>
   </properties>
  </object>
  <object id="1420" class="prop" gid="169" x="1048.91" y="1169.83" width="20" height="29" rotation="5.08043">
   <properties>
    <property name="foreground" type="bool" value="true"/>
    <property name="noDestroy" type="bool" value="true"/>
    <property name="rotationMult" type="float" value="1"/>
    <property name="squib" type="int" value="-1"/>
    <property name="squibSE" value=""/>
    <property name="static" type="bool" value="false"/>
   </properties>
  </object>
  <object id="1421" class="prop" gid="128" x="1029.91" y="1171.83" width="26" height="19" rotation="2.18209">
   <properties>
    <property name="foreground" type="bool" value="true"/>
    <property name="noDestroy" type="bool" value="true"/>
    <property name="rotationMult" type="float" value="1"/>
    <property name="squib" type="int" value="-1"/>
    <property name="squibSE" value=""/>
    <property name="static" type="bool" value="false"/>
   </properties>
  </object>
  <object id="1422" class="prop" gid="169" x="1015.91" y="1170.83" width="20" height="29" rotation="5.08043">
   <properties>
    <property name="foreground" type="bool" value="true"/>
    <property name="noDestroy" type="bool" value="true"/>
    <property name="rotationMult" type="float" value="1"/>
    <property name="squib" type="int" value="-1"/>
    <property name="squibSE" value=""/>
    <property name="static" type="bool" value="false"/>
   </properties>
  </object>
  <object id="1423" class="prop" gid="129" x="1002.8" y="1171.07" width="22" height="14" rotation="353.32">
   <properties>
    <property name="foreground" type="bool" value="true"/>
    <property name="noDestroy" type="bool" value="true"/>
    <property name="rotationMult" type="float" value="1"/>
    <property name="squib" type="int" value="-1"/>
    <property name="squibSE" value=""/>
    <property name="static" type="bool" value="false"/>
   </properties>
  </object>
  <object id="1424" class="prop" gid="122" x="978.76" y="1171.44" width="35" height="20" rotation="4.90594">
   <properties>
    <property name="foreground" type="bool" value="true"/>
    <property name="noDestroy" type="bool" value="true"/>
    <property name="rotationMult" type="float" value="1"/>
    <property name="squib" type="int" value="-1"/>
    <property name="squibSE" value=""/>
    <property name="static" type="bool" value="false"/>
   </properties>
  </object>
  <object id="1425" class="prop" gid="123" x="972" y="1174.83" width="26" height="23" rotation="350.442">
   <properties>
    <property name="foreground" type="bool" value="true"/>
    <property name="noDestroy" type="bool" value="true"/>
    <property name="rotationMult" type="float" value="1"/>
    <property name="squib" type="int" value="-1"/>
    <property name="squibSE" value=""/>
    <property name="static" type="bool" value="false"/>
   </properties>
  </object>
  <object id="1426" class="prop" gid="131" x="1038.91" y="1170.83" width="11" height="13" rotation="358.432">
   <properties>
    <property name="foreground" type="bool" value="true"/>
    <property name="noDestroy" type="bool" value="true"/>
    <property name="rotationMult" type="float" value="1"/>
    <property name="squib" type="int" value="-1"/>
    <property name="squibSE" value=""/>
    <property name="static" type="bool" value="false"/>
   </properties>
  </object>
  <object id="1427" class="prop" gid="167" x="986.87" y="1168" width="13" height="27" rotation="12.2755">
   <properties>
    <property name="foreground" type="bool" value="true"/>
    <property name="noDestroy" type="bool" value="true"/>
    <property name="rotationMult" type="float" value="1"/>
    <property name="squib" type="int" value="-1"/>
    <property name="squibSE" value=""/>
    <property name="static" type="bool" value="false"/>
   </properties>
  </object>
  <object id="1428" class="prop" gid="128" x="926" y="1124" width="26" height="19" rotation="45.3806">
   <properties>
    <property name="foreground" type="bool" value="true"/>
    <property name="noDestroy" type="bool" value="true"/>
    <property name="rotationMult" type="float" value="1"/>
    <property name="squib" type="int" value="-1"/>
    <property name="squibSE" value=""/>
    <property name="static" type="bool" value="false"/>
   </properties>
  </object>
  <object id="1429" class="prop" gid="131" x="948" y="1143" width="11" height="13" rotation="43.6439">
   <properties>
    <property name="foreground" type="bool" value="true"/>
    <property name="noDestroy" type="bool" value="true"/>
    <property name="rotationMult" type="float" value="1"/>
    <property name="squib" type="int" value="-1"/>
    <property name="squibSE" value=""/>
    <property name="static" type="bool" value="false"/>
   </properties>
  </object>
  <object id="1430" class="prop" gid="167" x="962" y="1158" width="13" height="27" rotation="12.2755">
   <properties>
    <property name="foreground" type="bool" value="true"/>
    <property name="noDestroy" type="bool" value="true"/>
    <property name="rotationMult" type="float" value="1"/>
    <property name="squib" type="int" value="-1"/>
    <property name="squibSE" value=""/>
    <property name="static" type="bool" value="false"/>
   </properties>
  </object>
  <object id="1431" class="prop" gid="123" x="894" y="1103" width="26" height="23" rotation="15.7439">
   <properties>
    <property name="foreground" type="bool" value="true"/>
    <property name="noDestroy" type="bool" value="true"/>
    <property name="rotationMult" type="float" value="1"/>
    <property name="squib" type="int" value="-1"/>
    <property name="squibSE" value=""/>
    <property name="static" type="bool" value="false"/>
   </properties>
  </object>
  <object id="1432" class="prop" gid="131" x="913" y="1105" width="11" height="13" rotation="58.7124">
   <properties>
    <property name="foreground" type="bool" value="true"/>
    <property name="noDestroy" type="bool" value="true"/>
    <property name="rotationMult" type="float" value="1"/>
    <property name="squib" type="int" value="-1"/>
    <property name="squibSE" value=""/>
    <property name="static" type="bool" value="false"/>
   </properties>
  </object>
  <object id="1434" class="prop" gid="167" x="919" y="1120" width="13" height="27" rotation="14.0147">
   <properties>
    <property name="foreground" type="bool" value="true"/>
    <property name="noDestroy" type="bool" value="true"/>
    <property name="rotationMult" type="float" value="1"/>
    <property name="squib" type="int" value="-1"/>
    <property name="squibSE" value=""/>
    <property name="static" type="bool" value="false"/>
   </properties>
  </object>
  <object id="1435" class="prop" gid="128" x="799" y="1107" width="26" height="19" rotation="2.18209">
   <properties>
    <property name="foreground" type="bool" value="true"/>
    <property name="noDestroy" type="bool" value="true"/>
    <property name="rotationMult" type="float" value="1"/>
    <property name="squib" type="int" value="-1"/>
    <property name="squibSE" value=""/>
    <property name="static" type="bool" value="false"/>
   </properties>
  </object>
  <object id="1436" class="prop" gid="128" x="658" y="1107" width="26" height="19" rotation="2.18209">
   <properties>
    <property name="foreground" type="bool" value="true"/>
    <property name="noDestroy" type="bool" value="true"/>
    <property name="rotationMult" type="float" value="1"/>
    <property name="squib" type="int" value="-1"/>
    <property name="squibSE" value=""/>
    <property name="static" type="bool" value="false"/>
   </properties>
  </object>
  <object id="1437" class="prop" gid="131" x="687" y="1107" width="11" height="13" rotation="358.432">
   <properties>
    <property name="foreground" type="bool" value="true"/>
    <property name="noDestroy" type="bool" value="true"/>
    <property name="rotationMult" type="float" value="1"/>
    <property name="squib" type="int" value="-1"/>
    <property name="squibSE" value=""/>
    <property name="static" type="bool" value="false"/>
   </properties>
  </object>
  <object id="1438" class="prop" gid="132" x="696" y="1106" width="12" height="13" rotation="358.432">
   <properties>
    <property name="foreground" type="bool" value="true"/>
    <property name="noDestroy" type="bool" value="true"/>
    <property name="rotationMult" type="float" value="1"/>
    <property name="squib" type="int" value="-1"/>
    <property name="squibSE" value=""/>
    <property name="static" type="bool" value="false"/>
   </properties>
  </object>
  <object id="1439" class="prop" gid="129" x="702" y="1108" width="22" height="14" rotation="354.71">
   <properties>
    <property name="foreground" type="bool" value="true"/>
    <property name="noDestroy" type="bool" value="true"/>
    <property name="rotationMult" type="float" value="1"/>
    <property name="squib" type="int" value="-1"/>
    <property name="squibSE" value=""/>
    <property name="static" type="bool" value="false"/>
   </properties>
  </object>
  <object id="1440" class="prop" gid="130" x="716" y="1104" width="27" height="15" rotation="12.0576">
   <properties>
    <property name="foreground" type="bool" value="true"/>
    <property name="noDestroy" type="bool" value="true"/>
    <property name="rotationMult" type="float" value="1"/>
    <property name="squib" type="int" value="-1"/>
    <property name="squibSE" value=""/>
    <property name="static" type="bool" value="false"/>
   </properties>
  </object>
  <object id="1441" class="prop" gid="132" x="738" y="1108" width="12" height="13" rotation="358.432">
   <properties>
    <property name="foreground" type="bool" value="true"/>
    <property name="noDestroy" type="bool" value="true"/>
    <property name="rotationMult" type="float" value="1"/>
    <property name="squib" type="int" value="-1"/>
    <property name="squibSE" value=""/>
    <property name="static" type="bool" value="false"/>
   </properties>
  </object>
  <object id="1442" class="prop" gid="128" x="748" y="1107" width="26" height="19" rotation="2.18209">
   <properties>
    <property name="foreground" type="bool" value="true"/>
    <property name="noDestroy" type="bool" value="true"/>
    <property name="rotationMult" type="float" value="1"/>
    <property name="squib" type="int" value="-1"/>
    <property name="squibSE" value=""/>
    <property name="static" type="bool" value="false"/>
   </properties>
  </object>
  <object id="1443" class="prop" gid="132" x="774" y="1106" width="12" height="13" rotation="358.432">
   <properties>
    <property name="foreground" type="bool" value="true"/>
    <property name="noDestroy" type="bool" value="true"/>
    <property name="rotationMult" type="float" value="1"/>
    <property name="squib" type="int" value="-1"/>
    <property name="squibSE" value=""/>
    <property name="static" type="bool" value="false"/>
   </properties>
  </object>
  <object id="1446" class="prop" gid="128" x="839" y="1106.83" width="26" height="19" rotation="2.18209">
   <properties>
    <property name="foreground" type="bool" value="true"/>
    <property name="noDestroy" type="bool" value="true"/>
    <property name="rotationMult" type="float" value="1"/>
    <property name="squib" type="int" value="-1"/>
    <property name="squibSE" value=""/>
    <property name="static" type="bool" value="false"/>
   </properties>
  </object>
  <object id="1447" class="prop" gid="169" x="823" y="1106" width="20" height="29" rotation="5.08043">
   <properties>
    <property name="foreground" type="bool" value="true"/>
    <property name="noDestroy" type="bool" value="true"/>
    <property name="rotationMult" type="float" value="1"/>
    <property name="squib" type="int" value="-1"/>
    <property name="squibSE" value=""/>
    <property name="static" type="bool" value="false"/>
   </properties>
  </object>
  <object id="1448" class="prop" gid="131" x="848" y="1105.83" width="11" height="13" rotation="358.432">
   <properties>
    <property name="foreground" type="bool" value="true"/>
    <property name="noDestroy" type="bool" value="true"/>
    <property name="rotationMult" type="float" value="1"/>
    <property name="squib" type="int" value="-1"/>
    <property name="squibSE" value=""/>
    <property name="static" type="bool" value="false"/>
   </properties>
  </object>
  <object id="1449" class="prop" gid="167" x="860" y="1104" width="13" height="27" rotation="12.2755">
   <properties>
    <property name="foreground" type="bool" value="true"/>
    <property name="noDestroy" type="bool" value="true"/>
    <property name="rotationMult" type="float" value="1"/>
    <property name="squib" type="int" value="-1"/>
    <property name="squibSE" value=""/>
    <property name="static" type="bool" value="false"/>
   </properties>
  </object>
  <object id="1450" class="prop" gid="123" x="901" y="1098" width="26" height="23" rotation="48.5116">
   <properties>
    <property name="foreground" type="bool" value="true"/>
    <property name="noDestroy" type="bool" value="true"/>
    <property name="rotationMult" type="float" value="1"/>
    <property name="squib" type="int" value="-1"/>
    <property name="squibSE" value=""/>
    <property name="static" type="bool" value="false"/>
   </properties>
  </object>
  <object id="1451" class="prop" gid="135" x="1456" y="1061" width="40" height="44" rotation="132.927">
   <properties>
    <property name="foreground" type="bool" value="true"/>
    <property name="noDestroy" type="bool" value="true"/>
    <property name="rotationMult" type="float" value="1"/>
    <property name="squib" type="int" value="-1"/>
    <property name="squibSE" value=""/>
    <property name="static" type="bool" value="true"/>
   </properties>
  </object>
  <object id="1452" class="prop" gid="595" x="1456" y="1071" width="23" height="15" rotation="53.2121">
   <properties>
    <property name="foreground" type="bool" value="true"/>
    <property name="noDestroy" type="bool" value="true"/>
    <property name="rotationMult" type="float" value="1"/>
    <property name="squib" type="int" value="-1"/>
    <property name="squibSE" value=""/>
    <property name="static" type="bool" value="true"/>
   </properties>
  </object>
  <object id="1453" class="prop" gid="596" x="1444" y="1076" width="22" height="18" rotation="5.42039">
   <properties>
    <property name="foreground" type="bool" value="true"/>
    <property name="noDestroy" type="bool" value="true"/>
    <property name="rotationMult" type="float" value="1"/>
    <property name="squib" type="int" value="-1"/>
    <property name="squibSE" value=""/>
    <property name="static" type="bool" value="true"/>
   </properties>
  </object>
  <object id="1454" class="prop" gid="132" x="1458" y="1070" width="12" height="13" rotation="0.877144">
   <properties>
    <property name="foreground" type="bool" value="true"/>
    <property name="noDestroy" type="bool" value="true"/>
    <property name="rotationMult" type="float" value="1"/>
    <property name="squib" type="int" value="-1"/>
    <property name="squibSE" value=""/>
    <property name="static" type="bool" value="false"/>
   </properties>
  </object>
  <object id="1455" class="prop" gid="664" x="1409" y="1117" width="40" height="43" rotation="293.431">
   <properties>
    <property name="foreground" type="bool" value="true"/>
    <property name="noDestroy" type="bool" value="true"/>
    <property name="rotationMult" type="float" value="1"/>
    <property name="squib" type="int" value="-1"/>
    <property name="squibSE" value=""/>
    <property name="static" type="bool" value="true"/>
   </properties>
  </object>
  <object id="1456" class="prop" gid="595" x="1378" y="1081" width="23" height="15" rotation="335.586">
   <properties>
    <property name="foreground" type="bool" value="true"/>
    <property name="noDestroy" type="bool" value="true"/>
    <property name="rotationMult" type="float" value="1"/>
    <property name="squib" type="int" value="-1"/>
    <property name="squibSE" value=""/>
    <property name="static" type="bool" value="true"/>
   </properties>
  </object>
  <object id="1457" class="prop" gid="166" x="1387" y="1068" width="12" height="29" rotation="17.2018">
   <properties>
    <property name="foreground" type="bool" value="true"/>
    <property name="noDestroy" type="bool" value="true"/>
    <property name="rotationMult" type="float" value="1"/>
    <property name="squib" type="int" value="-1"/>
    <property name="squibSE" value=""/>
    <property name="static" type="bool" value="false"/>
   </properties>
  </object>
  <object id="1458" class="prop" gid="169" x="1425" y="1076" width="20" height="29" rotation="5.08043">
   <properties>
    <property name="foreground" type="bool" value="true"/>
    <property name="noDestroy" type="bool" value="true"/>
    <property name="rotationMult" type="float" value="1"/>
    <property name="squib" type="int" value="-1"/>
    <property name="squibSE" value=""/>
    <property name="static" type="bool" value="false"/>
   </properties>
  </object>
  <object id="1462" class="prop" gid="592" x="713" y="363" width="28" height="16">
   <properties>
    <property name="foreground" type="bool" value="true"/>
    <property name="noDestroy" type="bool" value="true"/>
    <property name="rotationMult" type="float" value="1"/>
    <property name="squib" type="int" value="-1"/>
    <property name="squibSE" value=""/>
    <property name="static" type="bool" value="true"/>
   </properties>
  </object>
  <object id="1463" class="prop" gid="123" x="695" y="361.464" width="26" height="23" rotation="346.74">
   <properties>
    <property name="foreground" type="bool" value="true"/>
    <property name="noDestroy" type="bool" value="true"/>
    <property name="rotationMult" type="float" value="1"/>
    <property name="squib" type="int" value="-1"/>
    <property name="squibSE" value=""/>
    <property name="static" type="bool" value="false"/>
   </properties>
  </object>
  <object id="1464" class="prop" gid="124" x="733.32" y="359" width="32" height="20">
   <properties>
    <property name="foreground" type="bool" value="true"/>
    <property name="noDestroy" type="bool" value="true"/>
    <property name="rotationMult" type="float" value="1"/>
    <property name="squib" type="int" value="-1"/>
    <property name="squibSE" value=""/>
    <property name="static" type="bool" value="false"/>
   </properties>
  </object>
  <object id="1465" class="prop" gid="664" x="1530" y="1064" width="40" height="43" rotation="312.811">
   <properties>
    <property name="foreground" type="bool" value="true"/>
    <property name="noDestroy" type="bool" value="true"/>
    <property name="rotationMult" type="float" value="1"/>
    <property name="squib" type="int" value="-1"/>
    <property name="squibSE" value=""/>
    <property name="static" type="bool" value="true"/>
   </properties>
  </object>
  <object id="1466" class="prop" gid="665" x="1534" y="1107" width="40" height="39" rotation="296.195">
   <properties>
    <property name="foreground" type="bool" value="true"/>
    <property name="noDestroy" type="bool" value="true"/>
    <property name="rotationMult" type="float" value="1"/>
    <property name="squib" type="int" value="-1"/>
    <property name="squibSE" value=""/>
    <property name="static" type="bool" value="true"/>
   </properties>
  </object>
  <object id="1467" class="prop" gid="668" x="1552" y="1075" width="26" height="21" rotation="269.347">
   <properties>
    <property name="foreground" type="bool" value="true"/>
    <property name="noDestroy" type="bool" value="true"/>
    <property name="rotationMult" type="float" value="1"/>
    <property name="squib" type="int" value="-1"/>
    <property name="squibSE" value=""/>
    <property name="static" type="bool" value="true"/>
   </properties>
  </object>
  <object id="1468" class="prop" gid="670" x="1550" y="1120" width="25" height="22" rotation="283.865">
   <properties>
    <property name="foreground" type="bool" value="true"/>
    <property name="noDestroy" type="bool" value="true"/>
    <property name="rotationMult" type="float" value="1"/>
    <property name="squib" type="int" value="-1"/>
    <property name="squibSE" value=""/>
    <property name="static" type="bool" value="true"/>
   </properties>
  </object>
  <object id="1469" class="prop" gid="662" x="1535" y="1221" width="44" height="37" rotation="291.877">
   <properties>
    <property name="foreground" type="bool" value="true"/>
    <property name="noDestroy" type="bool" value="true"/>
    <property name="rotationMult" type="float" value="1"/>
    <property name="squib" type="int" value="-1"/>
    <property name="squibSE" value=""/>
    <property name="static" type="bool" value="true"/>
   </properties>
  </object>
  <object id="1470" class="prop" gid="669" x="1529" y="1249" width="27" height="19" rotation="285.078">
   <properties>
    <property name="foreground" type="bool" value="true"/>
    <property name="noDestroy" type="bool" value="true"/>
    <property name="rotationMult" type="float" value="1"/>
    <property name="squib" type="int" value="-1"/>
    <property name="squibSE" value=""/>
    <property name="static" type="bool" value="true"/>
   </properties>
  </object>
  <object id="1471" class="prop" gid="134" x="1523" y="1159" width="34" height="46" rotation="320.136">
   <properties>
    <property name="foreground" type="bool" value="true"/>
    <property name="noDestroy" type="bool" value="true"/>
    <property name="rotationMult" type="float" value="1"/>
    <property name="squib" type="int" value="-1"/>
    <property name="squibSE" value=""/>
    <property name="static" type="bool" value="true"/>
   </properties>
  </object>
  <object id="1472" class="prop" gid="592" x="1513" y="1195" width="28" height="16" rotation="303.395">
   <properties>
    <property name="foreground" type="bool" value="true"/>
    <property name="noDestroy" type="bool" value="true"/>
    <property name="rotationMult" type="float" value="1"/>
    <property name="squib" type="int" value="-1"/>
    <property name="squibSE" value=""/>
    <property name="static" type="bool" value="true"/>
   </properties>
  </object>
  <object id="1473" class="prop" gid="594" x="1509" y="1125" width="24" height="16" rotation="318.52">
   <properties>
    <property name="foreground" type="bool" value="true"/>
    <property name="noDestroy" type="bool" value="true"/>
    <property name="rotationMult" type="float" value="1"/>
    <property name="squib" type="int" value="-1"/>
    <property name="squibSE" value=""/>
    <property name="static" type="bool" value="true"/>
   </properties>
  </object>
  <object id="1474" class="prop" gid="595" x="1514" y="1030" width="23" height="15" rotation="316.744">
   <properties>
    <property name="foreground" type="bool" value="true"/>
    <property name="noDestroy" type="bool" value="true"/>
    <property name="rotationMult" type="float" value="1"/>
    <property name="squib" type="int" value="-1"/>
    <property name="squibSE" value=""/>
    <property name="static" type="bool" value="true"/>
   </properties>
  </object>
  <object id="1475" class="prop" gid="595" x="1514" y="1079" width="23" height="15" rotation="297.886">
   <properties>
    <property name="foreground" type="bool" value="true"/>
    <property name="noDestroy" type="bool" value="true"/>
    <property name="rotationMult" type="float" value="1"/>
    <property name="squib" type="int" value="-1"/>
    <property name="squibSE" value=""/>
    <property name="static" type="bool" value="true"/>
   </properties>
  </object>
  <object id="1476" class="prop" gid="132" x="1517" y="1173" width="12" height="13" rotation="326.179">
   <properties>
    <property name="foreground" type="bool" value="true"/>
    <property name="noDestroy" type="bool" value="true"/>
    <property name="rotationMult" type="float" value="1"/>
    <property name="squib" type="int" value="-1"/>
    <property name="squibSE" value=""/>
    <property name="static" type="bool" value="false"/>
   </properties>
  </object>
  <object id="1477" class="prop" gid="668" x="1532" y="1170" width="26" height="21" rotation="336.518">
   <properties>
    <property name="foreground" type="bool" value="true"/>
    <property name="noDestroy" type="bool" value="true"/>
    <property name="rotationMult" type="float" value="1"/>
    <property name="squib" type="int" value="-1"/>
    <property name="squibSE" value=""/>
    <property name="static" type="bool" value="true"/>
   </properties>
  </object>
  <object id="1479" class="prop" gid="662" x="1455" y="1114" width="44" height="37" rotation="112.126">
   <properties>
    <property name="foreground" type="bool" value="true"/>
    <property name="noDestroy" type="bool" value="true"/>
    <property name="rotationMult" type="float" value="1"/>
    <property name="squib" type="int" value="-1"/>
    <property name="squibSE" value=""/>
    <property name="static" type="bool" value="true"/>
   </properties>
  </object>
  <object id="1480" class="prop" gid="149" x="1490.19" y="1192" width="17" height="28" rotation="297.069">
   <properties>
    <property name="foreground" type="bool" value="false"/>
    <property name="noDestroy" type="bool" value="true"/>
    <property name="rotationMult" type="float" value="1"/>
    <property name="squib" type="int" value="-1"/>
    <property name="squibSE" value=""/>
    <property name="static" type="bool" value="true"/>
   </properties>
  </object>
  <object id="1481" class="prop" gid="148" x="1477" y="1212.15" width="21" height="37" rotation="325.398">
   <properties>
    <property name="foreground" type="bool" value="false"/>
    <property name="noDestroy" type="bool" value="true"/>
    <property name="rotationMult" type="float" value="1"/>
    <property name="squib" type="int" value="-1"/>
    <property name="squibSE" value=""/>
    <property name="static" type="bool" value="true"/>
   </properties>
  </object>
  <object id="1482" class="prop" gid="668" x="1464" y="1208" width="26" height="21" rotation="113.27">
   <properties>
    <property name="foreground" type="bool" value="true"/>
    <property name="noDestroy" type="bool" value="true"/>
    <property name="rotationMult" type="float" value="1"/>
    <property name="squib" type="int" value="-1"/>
    <property name="squibSE" value=""/>
    <property name="static" type="bool" value="true"/>
   </properties>
  </object>
  <object id="1483" class="prop" gid="593" x="1462.28" y="1118.48" width="24" height="15" rotation="57.2395">
   <properties>
    <property name="foreground" type="bool" value="true"/>
    <property name="noDestroy" type="bool" value="true"/>
    <property name="rotationMult" type="float" value="1"/>
    <property name="squib" type="int" value="-1"/>
    <property name="squibSE" value=""/>
    <property name="static" type="bool" value="true"/>
   </properties>
  </object>
  <object id="1484" class="prop" gid="593" x="1474.87" y="1127.05" width="24" height="15" rotation="97.2302">
   <properties>
    <property name="foreground" type="bool" value="true"/>
    <property name="noDestroy" type="bool" value="true"/>
    <property name="rotationMult" type="float" value="1"/>
    <property name="squib" type="int" value="-1"/>
    <property name="squibSE" value=""/>
    <property name="static" type="bool" value="true"/>
   </properties>
  </object>
  <object id="1485" class="prop" gid="152" x="1474" y="1263" width="19" height="25" rotation="331.433">
   <properties>
    <property name="foreground" type="bool" value="false"/>
    <property name="noDestroy" type="bool" value="true"/>
    <property name="rotationMult" type="float" value="1"/>
    <property name="squib" type="int" value="-1"/>
    <property name="squibSE" value=""/>
    <property name="static" type="bool" value="true"/>
   </properties>
  </object>
  <object id="1489" class="prop" gid="665" x="616" y="1046" width="40" height="39" rotation="120.538">
   <properties>
    <property name="foreground" type="bool" value="true"/>
    <property name="noDestroy" type="bool" value="true"/>
    <property name="rotationMult" type="float" value="1"/>
    <property name="squib" type="int" value="-1"/>
    <property name="squibSE" value=""/>
    <property name="static" type="bool" value="true"/>
   </properties>
  </object>
  <object id="1491" class="prop" gid="670" x="595" y="1028" width="25" height="22" rotation="108.208">
   <properties>
    <property name="foreground" type="bool" value="true"/>
    <property name="noDestroy" type="bool" value="true"/>
    <property name="rotationMult" type="float" value="1"/>
    <property name="squib" type="int" value="-1"/>
    <property name="squibSE" value=""/>
    <property name="static" type="bool" value="true"/>
   </properties>
  </object>
  <object id="1492" class="prop" gid="662" x="611.032" y="927.254" width="44" height="37" rotation="116.22">
   <properties>
    <property name="foreground" type="bool" value="true"/>
    <property name="noDestroy" type="bool" value="true"/>
    <property name="rotationMult" type="float" value="1"/>
    <property name="squib" type="int" value="-1"/>
    <property name="squibSE" value=""/>
    <property name="static" type="bool" value="true"/>
   </properties>
  </object>
  <object id="1493" class="prop" gid="669" x="614" y="976" width="27" height="19" rotation="151.239">
   <properties>
    <property name="foreground" type="bool" value="true"/>
    <property name="noDestroy" type="bool" value="true"/>
    <property name="rotationMult" type="float" value="1"/>
    <property name="squib" type="int" value="-1"/>
    <property name="squibSE" value=""/>
    <property name="static" type="bool" value="true"/>
   </properties>
  </object>
  <object id="1494" class="prop" gid="668" x="608.331" y="910" width="26" height="21" rotation="74.0406">
   <properties>
    <property name="foreground" type="bool" value="true"/>
    <property name="noDestroy" type="bool" value="true"/>
    <property name="rotationMult" type="float" value="1"/>
    <property name="squib" type="int" value="-1"/>
    <property name="squibSE" value=""/>
    <property name="static" type="bool" value="true"/>
   </properties>
  </object>
  <object id="1495" class="prop" gid="134" x="626" y="993" width="34" height="46" rotation="152.626">
   <properties>
    <property name="foreground" type="bool" value="true"/>
    <property name="noDestroy" type="bool" value="true"/>
    <property name="rotationMult" type="float" value="1"/>
    <property name="squib" type="int" value="-1"/>
    <property name="squibSE" value=""/>
    <property name="static" type="bool" value="true"/>
   </properties>
  </object>
  <object id="1496" class="prop" gid="592" x="616" y="936" width="28" height="16" rotation="49.944">
   <properties>
    <property name="foreground" type="bool" value="true"/>
    <property name="noDestroy" type="bool" value="true"/>
    <property name="rotationMult" type="float" value="1"/>
    <property name="squib" type="int" value="-1"/>
    <property name="squibSE" value=""/>
    <property name="static" type="bool" value="true"/>
   </properties>
  </object>
  <object id="1497" class="prop" gid="594" x="615" y="1001" width="24" height="16" rotation="43.0916">
   <properties>
    <property name="foreground" type="bool" value="true"/>
    <property name="noDestroy" type="bool" value="true"/>
    <property name="rotationMult" type="float" value="1"/>
    <property name="squib" type="int" value="-1"/>
    <property name="squibSE" value=""/>
    <property name="static" type="bool" value="true"/>
   </properties>
  </object>
  <object id="1498" class="prop" gid="595" x="618" y="1055" width="23" height="15" rotation="31.2326">
   <properties>
    <property name="foreground" type="bool" value="true"/>
    <property name="noDestroy" type="bool" value="true"/>
    <property name="rotationMult" type="float" value="1"/>
    <property name="squib" type="int" value="-1"/>
    <property name="squibSE" value=""/>
    <property name="static" type="bool" value="true"/>
   </properties>
  </object>
  <object id="1499" class="prop" gid="132" x="633" y="941" width="12" height="13" rotation="72.728">
   <properties>
    <property name="foreground" type="bool" value="true"/>
    <property name="noDestroy" type="bool" value="true"/>
    <property name="rotationMult" type="float" value="1"/>
    <property name="squib" type="int" value="-1"/>
    <property name="squibSE" value=""/>
    <property name="static" type="bool" value="false"/>
   </properties>
  </object>
  <object id="1500" class="prop" gid="152" x="638" y="1002" width="19" height="25" rotation="313.098">
   <properties>
    <property name="foreground" type="bool" value="false"/>
    <property name="noDestroy" type="bool" value="true"/>
    <property name="rotationMult" type="float" value="1"/>
    <property name="squib" type="int" value="-1"/>
    <property name="squibSE" value=""/>
    <property name="static" type="bool" value="true"/>
   </properties>
  </object>
  <object id="1501" class="prop" gid="122" x="632" y="1109" width="35" height="20" rotation="4.90594">
   <properties>
    <property name="foreground" type="bool" value="true"/>
    <property name="noDestroy" type="bool" value="true"/>
    <property name="rotationMult" type="float" value="1"/>
    <property name="squib" type="int" value="-1"/>
    <property name="squibSE" value=""/>
    <property name="static" type="bool" value="false"/>
   </properties>
  </object>
  <object id="1502" class="prop" gid="123" x="620" y="1112" width="26" height="23" rotation="349.586">
   <properties>
    <property name="foreground" type="bool" value="true"/>
    <property name="noDestroy" type="bool" value="true"/>
    <property name="rotationMult" type="float" value="1"/>
    <property name="squib" type="int" value="-1"/>
    <property name="squibSE" value=""/>
    <property name="static" type="bool" value="false"/>
   </properties>
  </object>
  <object id="1504" class="prop" gid="670" x="697" y="944" width="25" height="22" rotation="292.366">
   <properties>
    <property name="foreground" type="bool" value="true"/>
    <property name="noDestroy" type="bool" value="true"/>
    <property name="rotationMult" type="float" value="1"/>
    <property name="squib" type="int" value="-1"/>
    <property name="squibSE" value=""/>
    <property name="static" type="bool" value="true"/>
   </properties>
  </object>
  <object id="1505" class="prop" gid="129" x="432" y="315" width="22" height="14" rotation="21.3698">
   <properties>
    <property name="foreground" type="bool" value="true"/>
    <property name="noDestroy" type="bool" value="true"/>
    <property name="rotationMult" type="float" value="1"/>
    <property name="squib" type="int" value="-1"/>
    <property name="squibSE" value=""/>
    <property name="static" type="bool" value="false"/>
   </properties>
  </object>
  <object id="1506" class="prop" gid="130" x="459" y="329" width="27" height="15" rotation="23.9605">
   <properties>
    <property name="foreground" type="bool" value="true"/>
    <property name="noDestroy" type="bool" value="true"/>
    <property name="rotationMult" type="float" value="1"/>
    <property name="squib" type="int" value="-1"/>
    <property name="squibSE" value=""/>
    <property name="static" type="bool" value="false"/>
   </properties>
  </object>
  <object id="1507" class="prop" gid="132" x="453" y="328" width="12" height="13" rotation="358.432">
   <properties>
    <property name="foreground" type="bool" value="true"/>
    <property name="noDestroy" type="bool" value="true"/>
    <property name="rotationMult" type="float" value="1"/>
    <property name="squib" type="int" value="-1"/>
    <property name="squibSE" value=""/>
    <property name="static" type="bool" value="false"/>
   </properties>
  </object>
  <object id="1508" class="prop" gid="128" x="484" y="341" width="26" height="19" rotation="30.6485">
   <properties>
    <property name="foreground" type="bool" value="true"/>
    <property name="noDestroy" type="bool" value="true"/>
    <property name="rotationMult" type="float" value="1"/>
    <property name="squib" type="int" value="-1"/>
    <property name="squibSE" value=""/>
    <property name="static" type="bool" value="false"/>
   </properties>
  </object>
  <object id="1509" class="prop" gid="166" x="418" y="307" width="12" height="29" rotation="39.642">
   <properties>
    <property name="foreground" type="bool" value="true"/>
    <property name="noDestroy" type="bool" value="true"/>
    <property name="rotationMult" type="float" value="1"/>
    <property name="squib" type="int" value="-1"/>
    <property name="squibSE" value=""/>
    <property name="static" type="bool" value="false"/>
   </properties>
  </object>
  <object id="1510" class="prop" gid="129" x="327" y="263" width="22" height="14" rotation="21.3698">
   <properties>
    <property name="foreground" type="bool" value="true"/>
    <property name="noDestroy" type="bool" value="true"/>
    <property name="rotationMult" type="float" value="1"/>
    <property name="squib" type="int" value="-1"/>
    <property name="squibSE" value=""/>
    <property name="static" type="bool" value="false"/>
   </properties>
  </object>
  <object id="1512" class="prop" gid="132" x="348" y="276" width="12" height="13" rotation="358.432">
   <properties>
    <property name="foreground" type="bool" value="true"/>
    <property name="noDestroy" type="bool" value="true"/>
    <property name="rotationMult" type="float" value="1"/>
    <property name="squib" type="int" value="-1"/>
    <property name="squibSE" value=""/>
    <property name="static" type="bool" value="false"/>
   </properties>
  </object>
  <object id="1513" class="prop" gid="128" x="379" y="289" width="26" height="19" rotation="30.6485">
   <properties>
    <property name="foreground" type="bool" value="true"/>
    <property name="noDestroy" type="bool" value="true"/>
    <property name="rotationMult" type="float" value="1"/>
    <property name="squib" type="int" value="-1"/>
    <property name="squibSE" value=""/>
    <property name="static" type="bool" value="false"/>
   </properties>
  </object>
  <object id="1514" class="prop" gid="168" x="364.581" y="282.986" width="13" height="26" rotation="9.41188">
   <properties>
    <property name="foreground" type="bool" value="true"/>
    <property name="noDestroy" type="bool" value="true"/>
    <property name="rotationMult" type="float" value="1"/>
    <property name="squib" type="int" value="-1"/>
    <property name="squibSE" value=""/>
    <property name="static" type="bool" value="false"/>
   </properties>
  </object>
  <object id="1515" class="prop" gid="128" x="187" y="261" width="26" height="19" rotation="2.18209">
   <properties>
    <property name="foreground" type="bool" value="true"/>
    <property name="noDestroy" type="bool" value="true"/>
    <property name="rotationMult" type="float" value="1"/>
    <property name="squib" type="int" value="-1"/>
    <property name="squibSE" value=""/>
    <property name="static" type="bool" value="false"/>
   </properties>
  </object>
  <object id="1516" class="prop" gid="131" x="220" y="259" width="11" height="13" rotation="358.432">
   <properties>
    <property name="foreground" type="bool" value="true"/>
    <property name="noDestroy" type="bool" value="true"/>
    <property name="rotationMult" type="float" value="1"/>
    <property name="squib" type="int" value="-1"/>
    <property name="squibSE" value=""/>
    <property name="static" type="bool" value="false"/>
   </properties>
  </object>
  <object id="1517" class="prop" gid="132" x="233" y="259" width="12" height="13" rotation="358.432">
   <properties>
    <property name="foreground" type="bool" value="true"/>
    <property name="noDestroy" type="bool" value="true"/>
    <property name="rotationMult" type="float" value="1"/>
    <property name="squib" type="int" value="-1"/>
    <property name="squibSE" value=""/>
    <property name="static" type="bool" value="false"/>
   </properties>
  </object>
  <object id="1518" class="prop" gid="129" x="157" y="260" width="22" height="14" rotation="354.71">
   <properties>
    <property name="foreground" type="bool" value="true"/>
    <property name="noDestroy" type="bool" value="true"/>
    <property name="rotationMult" type="float" value="1"/>
    <property name="squib" type="int" value="-1"/>
    <property name="squibSE" value=""/>
    <property name="static" type="bool" value="false"/>
   </properties>
  </object>
  <object id="1519" class="prop" gid="130" x="242" y="255" width="27" height="15" rotation="12.0576">
   <properties>
    <property name="foreground" type="bool" value="true"/>
    <property name="noDestroy" type="bool" value="true"/>
    <property name="rotationMult" type="float" value="1"/>
    <property name="squib" type="int" value="-1"/>
    <property name="squibSE" value=""/>
    <property name="static" type="bool" value="false"/>
   </properties>
  </object>
  <object id="1520" class="prop" gid="132" x="272" y="257" width="12" height="13" rotation="358.432">
   <properties>
    <property name="foreground" type="bool" value="true"/>
    <property name="noDestroy" type="bool" value="true"/>
    <property name="rotationMult" type="float" value="1"/>
    <property name="squib" type="int" value="-1"/>
    <property name="squibSE" value=""/>
    <property name="static" type="bool" value="false"/>
   </properties>
  </object>
  <object id="1521" class="prop" gid="128" x="282" y="260" width="26" height="19" rotation="2.18209">
   <properties>
    <property name="foreground" type="bool" value="true"/>
    <property name="noDestroy" type="bool" value="true"/>
    <property name="rotationMult" type="float" value="1"/>
    <property name="squib" type="int" value="-1"/>
    <property name="squibSE" value=""/>
    <property name="static" type="bool" value="false"/>
   </properties>
  </object>
  <object id="1522" class="prop" gid="132" x="308" y="259" width="12" height="13" rotation="358.432">
   <properties>
    <property name="foreground" type="bool" value="true"/>
    <property name="noDestroy" type="bool" value="true"/>
    <property name="rotationMult" type="float" value="1"/>
    <property name="squib" type="int" value="-1"/>
    <property name="squibSE" value=""/>
    <property name="static" type="bool" value="false"/>
   </properties>
  </object>
  <object id="1523" class="prop" gid="668" x="130" y="220" width="26" height="21" rotation="103.604">
   <properties>
    <property name="foreground" type="bool" value="true"/>
    <property name="noDestroy" type="bool" value="true"/>
    <property name="rotationMult" type="float" value="1"/>
    <property name="squib" type="int" value="-1"/>
    <property name="squibSE" value=""/>
    <property name="static" type="bool" value="true"/>
   </properties>
  </object>
  <object id="1524" class="prop" gid="670" x="129" y="190.994" width="25" height="22" rotation="103.981">
   <properties>
    <property name="foreground" type="bool" value="true"/>
    <property name="noDestroy" type="bool" value="true"/>
    <property name="rotationMult" type="float" value="1"/>
    <property name="squib" type="int" value="-1"/>
    <property name="squibSE" value=""/>
    <property name="static" type="bool" value="true"/>
   </properties>
  </object>
  <object id="1525" class="prop" gid="670" x="132" y="166" width="25" height="22" rotation="103.981">
   <properties>
    <property name="foreground" type="bool" value="true"/>
    <property name="noDestroy" type="bool" value="true"/>
    <property name="rotationMult" type="float" value="1"/>
    <property name="squib" type="int" value="-1"/>
    <property name="squibSE" value=""/>
    <property name="static" type="bool" value="true"/>
   </properties>
  </object>
  <object id="1526" class="prop" gid="149" x="141" y="221" width="17" height="28" rotation="349.784">
   <properties>
    <property name="foreground" type="bool" value="false"/>
    <property name="noDestroy" type="bool" value="true"/>
    <property name="rotationMult" type="float" value="1"/>
    <property name="squib" type="int" value="-1"/>
    <property name="squibSE" value=""/>
    <property name="static" type="bool" value="true"/>
   </properties>
  </object>
  <object id="1527" class="prop" gid="595" x="133" y="168" width="23" height="15" rotation="47.8592">
   <properties>
    <property name="foreground" type="bool" value="true"/>
    <property name="noDestroy" type="bool" value="true"/>
    <property name="rotationMult" type="float" value="1"/>
    <property name="squib" type="int" value="-1"/>
    <property name="squibSE" value=""/>
    <property name="static" type="bool" value="true"/>
   </properties>
  </object>
  <object id="1528" class="prop" gid="147" x="464" y="278" width="34" height="40" rotation="44.2693">
   <properties>
    <property name="foreground" type="bool" value="false"/>
    <property name="noDestroy" type="bool" value="true"/>
    <property name="rotationMult" type="float" value="1"/>
    <property name="squib" type="int" value="-1"/>
    <property name="squibSE" value=""/>
    <property name="static" type="bool" value="true"/>
   </properties>
  </object>
  <object id="1529" class="prop" gid="133" x="377" y="184" width="47" height="37" rotation="213.605">
   <properties>
    <property name="foreground" type="bool" value="true"/>
    <property name="noDestroy" type="bool" value="true"/>
    <property name="rotationMult" type="float" value="1"/>
    <property name="squib" type="int" value="-1"/>
    <property name="squibSE" value=""/>
    <property name="static" type="bool" value="true"/>
   </properties>
  </object>
  <object id="1530" class="prop" gid="133" x="409" y="214.902" width="47" height="37" rotation="247.576">
   <properties>
    <property name="foreground" type="bool" value="true"/>
    <property name="noDestroy" type="bool" value="true"/>
    <property name="rotationMult" type="float" value="1"/>
    <property name="squib" type="int" value="-1"/>
    <property name="squibSE" value=""/>
    <property name="static" type="bool" value="true"/>
   </properties>
  </object>
  <object id="1531" class="prop" gid="664" x="492" y="255" width="40" height="43" rotation="253.843">
   <properties>
    <property name="foreground" type="bool" value="true"/>
    <property name="noDestroy" type="bool" value="true"/>
    <property name="rotationMult" type="float" value="1"/>
    <property name="squib" type="int" value="-1"/>
    <property name="squibSE" value=""/>
    <property name="static" type="bool" value="true"/>
   </properties>
  </object>
  <object id="1532" class="prop" gid="669" x="443" y="232" width="27" height="19" rotation="230.514">
   <properties>
    <property name="foreground" type="bool" value="true"/>
    <property name="noDestroy" type="bool" value="true"/>
    <property name="rotationMult" type="float" value="1"/>
    <property name="squib" type="int" value="-1"/>
    <property name="squibSE" value=""/>
    <property name="static" type="bool" value="true"/>
   </properties>
  </object>
  <object id="1533" class="prop" gid="154" x="335" y="229.902" width="26" height="28" rotation="2.99698">
   <properties>
    <property name="foreground" type="bool" value="false"/>
    <property name="noDestroy" type="bool" value="true"/>
    <property name="rotationMult" type="float" value="1"/>
    <property name="squib" type="int" value="-1"/>
    <property name="squibSE" value=""/>
    <property name="static" type="bool" value="true"/>
   </properties>
  </object>
  <object id="1534" class="prop" gid="152" x="390" y="239" width="19" height="25" rotation="21.7718">
   <properties>
    <property name="foreground" type="bool" value="false"/>
    <property name="noDestroy" type="bool" value="true"/>
    <property name="rotationMult" type="float" value="1"/>
    <property name="squib" type="int" value="-1"/>
    <property name="squibSE" value=""/>
    <property name="static" type="bool" value="true"/>
   </properties>
  </object>
  <object id="1535" class="prop" gid="662" x="179" y="54" width="44" height="37" rotation="116.22">
   <properties>
    <property name="foreground" type="bool" value="true"/>
    <property name="noDestroy" type="bool" value="true"/>
    <property name="rotationMult" type="float" value="1"/>
    <property name="squib" type="int" value="-1"/>
    <property name="squibSE" value=""/>
    <property name="static" type="bool" value="true"/>
   </properties>
  </object>
  <object id="1536" class="prop" gid="669" x="189" y="104" width="27" height="19" rotation="151.239">
   <properties>
    <property name="foreground" type="bool" value="true"/>
    <property name="noDestroy" type="bool" value="true"/>
    <property name="rotationMult" type="float" value="1"/>
    <property name="squib" type="int" value="-1"/>
    <property name="squibSE" value=""/>
    <property name="static" type="bool" value="true"/>
   </properties>
  </object>
  <object id="1537" class="prop" gid="668" x="179" y="35" width="26" height="21" rotation="74.0406">
   <properties>
    <property name="foreground" type="bool" value="true"/>
    <property name="noDestroy" type="bool" value="true"/>
    <property name="rotationMult" type="float" value="1"/>
    <property name="squib" type="int" value="-1"/>
    <property name="squibSE" value=""/>
    <property name="static" type="bool" value="true"/>
   </properties>
  </object>
  <object id="1538" class="prop" gid="592" x="183.968" y="62.746" width="28" height="16" rotation="49.944">
   <properties>
    <property name="foreground" type="bool" value="true"/>
    <property name="noDestroy" type="bool" value="true"/>
    <property name="rotationMult" type="float" value="1"/>
    <property name="squib" type="int" value="-1"/>
    <property name="squibSE" value=""/>
    <property name="static" type="bool" value="true"/>
   </properties>
  </object>
  <object id="1539" class="prop" gid="152" x="205.968" y="128.746" width="19" height="25" rotation="313.098">
   <properties>
    <property name="foreground" type="bool" value="false"/>
    <property name="noDestroy" type="bool" value="true"/>
    <property name="rotationMult" type="float" value="1"/>
    <property name="squib" type="int" value="-1"/>
    <property name="squibSE" value=""/>
    <property name="static" type="bool" value="true"/>
   </properties>
  </object>
  <object id="1540" class="prop" gid="664" x="264" y="90" width="40" height="43" rotation="312.811">
   <properties>
    <property name="foreground" type="bool" value="true"/>
    <property name="noDestroy" type="bool" value="true"/>
    <property name="rotationMult" type="float" value="1"/>
    <property name="squib" type="int" value="-1"/>
    <property name="squibSE" value=""/>
    <property name="static" type="bool" value="true"/>
   </properties>
  </object>
  <object id="1541" class="prop" gid="665" x="287.36" y="141.944" width="40" height="39" rotation="273.165">
   <properties>
    <property name="foreground" type="bool" value="true"/>
    <property name="noDestroy" type="bool" value="true"/>
    <property name="rotationMult" type="float" value="1"/>
    <property name="squib" type="int" value="-1"/>
    <property name="squibSE" value=""/>
    <property name="static" type="bool" value="true"/>
   </properties>
  </object>
  <object id="1542" class="prop" gid="668" x="293" y="108" width="26" height="21" rotation="269.347">
   <properties>
    <property name="foreground" type="bool" value="true"/>
    <property name="noDestroy" type="bool" value="true"/>
    <property name="rotationMult" type="float" value="1"/>
    <property name="squib" type="int" value="-1"/>
    <property name="squibSE" value=""/>
    <property name="static" type="bool" value="true"/>
   </properties>
  </object>
  <object id="1543" class="prop" gid="595" x="248" y="56" width="23" height="15" rotation="316.744">
   <properties>
    <property name="foreground" type="bool" value="true"/>
    <property name="noDestroy" type="bool" value="true"/>
    <property name="rotationMult" type="float" value="1"/>
    <property name="squib" type="int" value="-1"/>
    <property name="squibSE" value=""/>
    <property name="static" type="bool" value="true"/>
   </properties>
  </object>
  <object id="1544" class="prop" gid="595" x="258" y="124" width="23" height="15" rotation="274.856">
   <properties>
    <property name="foreground" type="bool" value="true"/>
    <property name="noDestroy" type="bool" value="true"/>
    <property name="rotationMult" type="float" value="1"/>
    <property name="squib" type="int" value="-1"/>
    <property name="squibSE" value=""/>
    <property name="static" type="bool" value="true"/>
   </properties>
  </object>
  <object id="1545" class="prop" gid="670" x="437" y="120" width="25" height="22" rotation="103.981">
   <properties>
    <property name="foreground" type="bool" value="true"/>
    <property name="noDestroy" type="bool" value="true"/>
    <property name="rotationMult" type="float" value="1"/>
    <property name="squib" type="int" value="-1"/>
    <property name="squibSE" value=""/>
    <property name="static" type="bool" value="true"/>
   </properties>
  </object>
  <object id="1546" class="prop" gid="666" x="437" y="91" width="25" height="22" rotation="103.981">
   <properties>
    <property name="foreground" type="bool" value="true"/>
    <property name="noDestroy" type="bool" value="true"/>
    <property name="rotationMult" type="float" value="1"/>
    <property name="squib" type="int" value="-1"/>
    <property name="squibSE" value=""/>
    <property name="static" type="bool" value="true"/>
   </properties>
  </object>
  <object id="1547" class="prop" gid="134" x="449" y="33" width="34" height="46" rotation="149.206">
   <properties>
    <property name="foreground" type="bool" value="true"/>
    <property name="noDestroy" type="bool" value="true"/>
    <property name="rotationMult" type="float" value="1"/>
    <property name="squib" type="int" value="-1"/>
    <property name="squibSE" value=""/>
    <property name="static" type="bool" value="true"/>
   </properties>
  </object>
  <object id="1548" class="prop" gid="149" x="448" y="160" width="17" height="28" rotation="349.784">
   <properties>
    <property name="foreground" type="bool" value="false"/>
    <property name="noDestroy" type="bool" value="true"/>
    <property name="rotationMult" type="float" value="1"/>
    <property name="squib" type="int" value="-1"/>
    <property name="squibSE" value=""/>
    <property name="static" type="bool" value="true"/>
   </properties>
  </object>
  <object id="1551" class="prop" gid="136" x="1021" y="258" width="40" height="39" rotation="208.965">
   <properties>
    <property name="foreground" type="bool" value="true"/>
    <property name="noDestroy" type="bool" value="true"/>
    <property name="rotationMult" type="float" value="1"/>
    <property name="squib" type="int" value="-1"/>
    <property name="squibSE" value=""/>
    <property name="static" type="bool" value="true"/>
   </properties>
  </object>
  <object id="1552" class="prop" gid="134" x="1069" y="230" width="34" height="46" rotation="150.039">
   <properties>
    <property name="foreground" type="bool" value="true"/>
    <property name="noDestroy" type="bool" value="true"/>
    <property name="rotationMult" type="float" value="1"/>
    <property name="squib" type="int" value="-1"/>
    <property name="squibSE" value=""/>
    <property name="static" type="bool" value="true"/>
   </properties>
  </object>
  <object id="1553" class="prop" gid="133" x="1123.01" y="240.665" width="47" height="37" rotation="179.433">
   <properties>
    <property name="foreground" type="bool" value="true"/>
    <property name="noDestroy" type="bool" value="true"/>
    <property name="rotationMult" type="float" value="1"/>
    <property name="squib" type="int" value="-1"/>
    <property name="squibSE" value=""/>
    <property name="static" type="bool" value="true"/>
   </properties>
  </object>
  <object id="1554" class="prop" gid="133" x="1127.16" y="233.198" width="47" height="37" rotation="129.994">
   <properties>
    <property name="foreground" type="bool" value="true"/>
    <property name="noDestroy" type="bool" value="true"/>
    <property name="rotationMult" type="float" value="1"/>
    <property name="squib" type="int" value="-1"/>
    <property name="squibSE" value=""/>
    <property name="static" type="bool" value="true"/>
   </properties>
  </object>
  <object id="1555" class="prop" gid="137" x="1153" y="258" width="25" height="23" rotation="158.394">
   <properties>
    <property name="foreground" type="bool" value="true"/>
    <property name="noDestroy" type="bool" value="true"/>
    <property name="rotationMult" type="float" value="1"/>
    <property name="squib" type="int" value="-1"/>
    <property name="squibSE" value=""/>
    <property name="static" type="bool" value="true"/>
   </properties>
  </object>
  <object id="1556" class="prop" gid="137" x="1050" y="261" width="25" height="23" rotation="191.242">
   <properties>
    <property name="foreground" type="bool" value="true"/>
    <property name="noDestroy" type="bool" value="true"/>
    <property name="rotationMult" type="float" value="1"/>
    <property name="squib" type="int" value="-1"/>
    <property name="squibSE" value=""/>
    <property name="static" type="bool" value="true"/>
   </properties>
  </object>
  <object id="1558" class="prop" gid="151" x="1079.24" y="310.923" width="21" height="34" rotation="2.76135">
   <properties>
    <property name="foreground" type="bool" value="false"/>
    <property name="noDestroy" type="bool" value="true"/>
    <property name="rotationMult" type="float" value="1"/>
    <property name="squib" type="int" value="-1"/>
    <property name="squibSE" value=""/>
    <property name="static" type="bool" value="true"/>
   </properties>
  </object>
  <object id="1559" class="prop" gid="158" x="1101" y="308" width="44" height="15" rotation="348.295">
   <properties>
    <property name="foreground" type="bool" value="true"/>
    <property name="noDestroy" type="bool" value="true"/>
    <property name="rotationMult" type="float" value="1"/>
    <property name="squib" type="int" value="-1"/>
    <property name="squibSE" value=""/>
    <property name="static" type="bool" value="true"/>
   </properties>
  </object>
  <object id="1572" class="prop" gid="138" x="748" y="252" width="24" height="18" rotation="149.283">
   <properties>
    <property name="foreground" type="bool" value="true"/>
    <property name="noDestroy" type="bool" value="true"/>
    <property name="rotationMult" type="float" value="1"/>
    <property name="squib" type="int" value="-1"/>
    <property name="squibSE" value=""/>
    <property name="static" type="bool" value="true"/>
   </properties>
  </object>
  <object id="1573" class="prop" gid="137" x="732" y="264" width="25" height="23" rotation="186.396">
   <properties>
    <property name="foreground" type="bool" value="true"/>
    <property name="noDestroy" type="bool" value="true"/>
    <property name="rotationMult" type="float" value="1"/>
    <property name="squib" type="int" value="-1"/>
    <property name="squibSE" value=""/>
    <property name="static" type="bool" value="true"/>
   </properties>
  </object>
  <object id="1574" class="prop" gid="138" x="663" y="265" width="24" height="18" rotation="186.396">
   <properties>
    <property name="foreground" type="bool" value="true"/>
    <property name="noDestroy" type="bool" value="true"/>
    <property name="rotationMult" type="float" value="1"/>
    <property name="squib" type="int" value="-1"/>
    <property name="squibSE" value=""/>
    <property name="static" type="bool" value="true"/>
   </properties>
  </object>
  <object id="1575" class="prop" gid="139" x="638" y="258" width="27" height="22" rotation="166.814">
   <properties>
    <property name="foreground" type="bool" value="true"/>
    <property name="noDestroy" type="bool" value="true"/>
    <property name="rotationMult" type="float" value="1"/>
    <property name="squib" type="int" value="-1"/>
    <property name="squibSE" value=""/>
    <property name="static" type="bool" value="true"/>
   </properties>
  </object>
  <object id="1576" class="prop" gid="140" x="712" y="266" width="27" height="19" rotation="196.755">
   <properties>
    <property name="foreground" type="bool" value="true"/>
    <property name="noDestroy" type="bool" value="true"/>
    <property name="rotationMult" type="float" value="1"/>
    <property name="squib" type="int" value="-1"/>
    <property name="squibSE" value=""/>
    <property name="static" type="bool" value="true"/>
   </properties>
  </object>
  <object id="1577" class="prop" gid="141" x="585.66" y="266.272" width="25" height="22" rotation="209.953">
   <properties>
    <property name="foreground" type="bool" value="true"/>
    <property name="noDestroy" type="bool" value="true"/>
    <property name="rotationMult" type="float" value="1"/>
    <property name="squib" type="int" value="-1"/>
    <property name="squibSE" value=""/>
    <property name="static" type="bool" value="true"/>
   </properties>
  </object>
  <object id="1578" class="prop" gid="137" x="606.38" y="262.669" width="25" height="23" rotation="194.308">
   <properties>
    <property name="foreground" type="bool" value="true"/>
    <property name="noDestroy" type="bool" value="true"/>
    <property name="rotationMult" type="float" value="1"/>
    <property name="squib" type="int" value="-1"/>
    <property name="squibSE" value=""/>
    <property name="static" type="bool" value="true"/>
   </properties>
  </object>
  <object id="1579" class="prop" gid="135" x="703.5" y="252.062" width="40" height="44" rotation="203.22">
   <properties>
    <property name="foreground" type="bool" value="true"/>
    <property name="noDestroy" type="bool" value="true"/>
    <property name="rotationMult" type="float" value="1"/>
    <property name="squib" type="int" value="-1"/>
    <property name="squibSE" value=""/>
    <property name="static" type="bool" value="true"/>
   </properties>
  </object>
  <object id="1580" class="prop" gid="133" x="642.97" y="246.651" width="47" height="37" rotation="184.15">
   <properties>
    <property name="foreground" type="bool" value="true"/>
    <property name="noDestroy" type="bool" value="true"/>
    <property name="rotationMult" type="float" value="1"/>
    <property name="squib" type="int" value="-1"/>
    <property name="squibSE" value=""/>
    <property name="static" type="bool" value="true"/>
   </properties>
  </object>
  <object id="1583" class="prop" gid="144" x="659" y="239" width="20" height="17" rotation="166.814">
   <properties>
    <property name="foreground" type="bool" value="true"/>
    <property name="noDestroy" type="bool" value="true"/>
    <property name="rotationMult" type="float" value="1"/>
    <property name="squib" type="int" value="-1"/>
    <property name="squibSE" value=""/>
    <property name="static" type="bool" value="true"/>
   </properties>
  </object>
  <object id="1584" class="prop" gid="145" x="578" y="246" width="14" height="18" rotation="209.953">
   <properties>
    <property name="foreground" type="bool" value="true"/>
    <property name="noDestroy" type="bool" value="true"/>
    <property name="rotationMult" type="float" value="1"/>
    <property name="squib" type="int" value="-1"/>
    <property name="squibSE" value=""/>
    <property name="static" type="bool" value="true"/>
   </properties>
  </object>
  <object id="1585" class="prop" gid="134" x="567.752" y="259.29" width="34" height="46" rotation="227.364">
   <properties>
    <property name="foreground" type="bool" value="true"/>
    <property name="noDestroy" type="bool" value="true"/>
    <property name="rotationMult" type="float" value="1"/>
    <property name="squib" type="int" value="-1"/>
    <property name="squibSE" value=""/>
    <property name="static" type="bool" value="true"/>
   </properties>
  </object>
  <object id="1586" class="prop" gid="151" x="759" y="303" width="21" height="34" rotation="2.76135">
   <properties>
    <property name="foreground" type="bool" value="false"/>
    <property name="noDestroy" type="bool" value="true"/>
    <property name="rotationMult" type="float" value="1"/>
    <property name="squib" type="int" value="-1"/>
    <property name="squibSE" value=""/>
    <property name="static" type="bool" value="true"/>
   </properties>
  </object>
  <object id="1587" class="prop" gid="152" x="533" y="302" width="19" height="25" rotation="344.291">
   <properties>
    <property name="foreground" type="bool" value="false"/>
    <property name="noDestroy" type="bool" value="true"/>
    <property name="rotationMult" type="float" value="1"/>
    <property name="squib" type="int" value="-1"/>
    <property name="squibSE" value=""/>
    <property name="static" type="bool" value="true"/>
   </properties>
  </object>
  <object id="1588" class="prop" gid="153" x="625" y="302" width="19" height="19" rotation="335.734">
   <properties>
    <property name="foreground" type="bool" value="false"/>
    <property name="noDestroy" type="bool" value="true"/>
    <property name="rotationMult" type="float" value="1"/>
    <property name="squib" type="int" value="-1"/>
    <property name="squibSE" value=""/>
    <property name="static" type="bool" value="true"/>
   </properties>
  </object>
  <object id="1589" class="prop" gid="662" x="842" y="247" width="44" height="37" rotation="187.294">
   <properties>
    <property name="foreground" type="bool" value="true"/>
    <property name="noDestroy" type="bool" value="true"/>
    <property name="rotationMult" type="float" value="1"/>
    <property name="squib" type="int" value="-1"/>
    <property name="squibSE" value=""/>
    <property name="static" type="bool" value="true"/>
   </properties>
  </object>
  <object id="1590" class="prop" gid="665" x="903" y="259" width="40" height="39" rotation="207.279">
   <properties>
    <property name="foreground" type="bool" value="true"/>
    <property name="noDestroy" type="bool" value="true"/>
    <property name="rotationMult" type="float" value="1"/>
    <property name="squib" type="int" value="-1"/>
    <property name="squibSE" value=""/>
    <property name="static" type="bool" value="true"/>
   </properties>
  </object>
  <object id="1591" class="prop" gid="668" x="963" y="268" width="26" height="21" rotation="209.677">
   <properties>
    <property name="foreground" type="bool" value="true"/>
    <property name="noDestroy" type="bool" value="true"/>
    <property name="rotationMult" type="float" value="1"/>
    <property name="squib" type="int" value="-1"/>
    <property name="squibSE" value=""/>
    <property name="static" type="bool" value="true"/>
   </properties>
  </object>
  <object id="1592" class="prop" gid="154" x="904" y="297" width="26" height="28" rotation="2.99698">
   <properties>
    <property name="foreground" type="bool" value="false"/>
    <property name="noDestroy" type="bool" value="true"/>
    <property name="rotationMult" type="float" value="1"/>
    <property name="squib" type="int" value="-1"/>
    <property name="squibSE" value=""/>
    <property name="static" type="bool" value="true"/>
   </properties>
  </object>
  <object id="1593" class="prop" gid="668" x="846" y="91" width="26" height="21" rotation="209.677">
   <properties>
    <property name="foreground" type="bool" value="true"/>
    <property name="noDestroy" type="bool" value="true"/>
    <property name="rotationMult" type="float" value="1"/>
    <property name="squib" type="int" value="-1"/>
    <property name="squibSE" value=""/>
    <property name="static" type="bool" value="true"/>
   </properties>
  </object>
  <object id="1594" class="prop" gid="135" x="913" y="125" width="40" height="44" rotation="230.834">
   <properties>
    <property name="foreground" type="bool" value="true"/>
    <property name="noDestroy" type="bool" value="true"/>
    <property name="rotationMult" type="float" value="1"/>
    <property name="squib" type="int" value="-1"/>
    <property name="squibSE" value=""/>
    <property name="static" type="bool" value="true"/>
   </properties>
  </object>
  <object id="1595" class="prop" gid="669" x="796" y="84" width="27" height="19" rotation="193.758">
   <properties>
    <property name="foreground" type="bool" value="true"/>
    <property name="noDestroy" type="bool" value="true"/>
    <property name="rotationMult" type="float" value="1"/>
    <property name="squib" type="int" value="-1"/>
    <property name="squibSE" value=""/>
    <property name="static" type="bool" value="true"/>
   </properties>
  </object>
  <object id="1596" class="prop" gid="664" x="694" y="81" width="40" height="43" rotation="236.589">
   <properties>
    <property name="foreground" type="bool" value="true"/>
    <property name="noDestroy" type="bool" value="true"/>
    <property name="rotationMult" type="float" value="1"/>
    <property name="squib" type="int" value="-1"/>
    <property name="squibSE" value=""/>
    <property name="static" type="bool" value="true"/>
   </properties>
  </object>
  <object id="1597" class="prop" gid="150" x="687" y="115" width="27" height="41" rotation="359.305">
   <properties>
    <property name="foreground" type="bool" value="false"/>
    <property name="noDestroy" type="bool" value="true"/>
    <property name="rotationMult" type="float" value="1"/>
    <property name="squib" type="int" value="-1"/>
    <property name="squibSE" value=""/>
    <property name="static" type="bool" value="true"/>
   </properties>
  </object>
  <object id="1598" class="prop" gid="153" x="742" y="108" width="19" height="19" rotation="21.5381">
   <properties>
    <property name="foreground" type="bool" value="false"/>
    <property name="noDestroy" type="bool" value="true"/>
    <property name="rotationMult" type="float" value="1"/>
    <property name="squib" type="int" value="-1"/>
    <property name="squibSE" value=""/>
    <property name="static" type="bool" value="true"/>
   </properties>
  </object>
  <object id="1599" class="prop" gid="665" x="603" y="105" width="40" height="39" rotation="215.019">
   <properties>
    <property name="foreground" type="bool" value="true"/>
    <property name="noDestroy" type="bool" value="true"/>
    <property name="rotationMult" type="float" value="1"/>
    <property name="squib" type="int" value="-1"/>
    <property name="squibSE" value=""/>
    <property name="static" type="bool" value="true"/>
   </properties>
  </object>
  <object id="1600" class="prop" gid="152" x="607" y="121" width="19" height="25" rotation="344.291">
   <properties>
    <property name="foreground" type="bool" value="false"/>
    <property name="noDestroy" type="bool" value="true"/>
    <property name="rotationMult" type="float" value="1"/>
    <property name="squib" type="int" value="-1"/>
    <property name="squibSE" value=""/>
    <property name="static" type="bool" value="true"/>
   </properties>
  </object>
  <object id="1601" class="prop" gid="138" x="810" y="82" width="24" height="18" rotation="149.283">
   <properties>
    <property name="foreground" type="bool" value="true"/>
    <property name="noDestroy" type="bool" value="true"/>
    <property name="rotationMult" type="float" value="1"/>
    <property name="squib" type="int" value="-1"/>
    <property name="squibSE" value=""/>
    <property name="static" type="bool" value="true"/>
   </properties>
  </object>
  <object id="1602" class="prop" gid="134" x="504" y="126" width="34" height="46" rotation="319.17">
   <properties>
    <property name="foreground" type="bool" value="true"/>
    <property name="noDestroy" type="bool" value="true"/>
    <property name="rotationMult" type="float" value="1"/>
    <property name="squib" type="int" value="-1"/>
    <property name="squibSE" value=""/>
    <property name="static" type="bool" value="true"/>
   </properties>
  </object>
  <object id="1603" class="prop" gid="137" x="543" y="98" width="25" height="23" rotation="177.067">
   <properties>
    <property name="foreground" type="bool" value="true"/>
    <property name="noDestroy" type="bool" value="true"/>
    <property name="rotationMult" type="float" value="1"/>
    <property name="squib" type="int" value="-1"/>
    <property name="squibSE" value=""/>
    <property name="static" type="bool" value="true"/>
   </properties>
  </object>
  <object id="1604" class="prop" gid="669" x="508" y="68" width="27" height="19" rotation="272.107">
   <properties>
    <property name="foreground" type="bool" value="true"/>
    <property name="noDestroy" type="bool" value="true"/>
    <property name="rotationMult" type="float" value="1"/>
    <property name="squib" type="int" value="-1"/>
    <property name="squibSE" value=""/>
    <property name="static" type="bool" value="true"/>
   </properties>
  </object>
  <object id="1605" class="prop" gid="139" x="1175" y="110" width="27" height="22" rotation="166.814">
   <properties>
    <property name="foreground" type="bool" value="true"/>
    <property name="noDestroy" type="bool" value="true"/>
    <property name="rotationMult" type="float" value="1"/>
    <property name="squib" type="int" value="-1"/>
    <property name="squibSE" value=""/>
    <property name="static" type="bool" value="true"/>
   </properties>
  </object>
  <object id="1606" class="prop" gid="141" x="1098.91" y="120.621" width="25" height="22" rotation="209.953">
   <properties>
    <property name="foreground" type="bool" value="true"/>
    <property name="noDestroy" type="bool" value="true"/>
    <property name="rotationMult" type="float" value="1"/>
    <property name="squib" type="int" value="-1"/>
    <property name="squibSE" value=""/>
    <property name="static" type="bool" value="true"/>
   </properties>
  </object>
  <object id="1607" class="prop" gid="137" x="1119.63" y="117.018" width="25" height="23" rotation="194.308">
   <properties>
    <property name="foreground" type="bool" value="true"/>
    <property name="noDestroy" type="bool" value="true"/>
    <property name="rotationMult" type="float" value="1"/>
    <property name="squib" type="int" value="-1"/>
    <property name="squibSE" value=""/>
    <property name="static" type="bool" value="true"/>
   </properties>
  </object>
  <object id="1608" class="prop" gid="133" x="1156.22" y="101" width="47" height="37" rotation="184.15">
   <properties>
    <property name="foreground" type="bool" value="true"/>
    <property name="noDestroy" type="bool" value="true"/>
    <property name="rotationMult" type="float" value="1"/>
    <property name="squib" type="int" value="-1"/>
    <property name="squibSE" value=""/>
    <property name="static" type="bool" value="true"/>
   </properties>
  </object>
  <object id="1609" class="prop" gid="134" x="1072" y="116" width="34" height="46" rotation="227.364">
   <properties>
    <property name="foreground" type="bool" value="true"/>
    <property name="noDestroy" type="bool" value="true"/>
    <property name="rotationMult" type="float" value="1"/>
    <property name="squib" type="int" value="-1"/>
    <property name="squibSE" value=""/>
    <property name="static" type="bool" value="true"/>
   </properties>
  </object>
  <object id="1610" class="prop" gid="665" x="1014" y="113" width="40" height="39" rotation="207.279">
   <properties>
    <property name="foreground" type="bool" value="true"/>
    <property name="noDestroy" type="bool" value="true"/>
    <property name="rotationMult" type="float" value="1"/>
    <property name="squib" type="int" value="-1"/>
    <property name="squibSE" value=""/>
    <property name="static" type="bool" value="true"/>
   </properties>
  </object>
  <object id="1611" class="prop" gid="664" x="1328" y="167" width="40" height="43" rotation="312.811">
   <properties>
    <property name="foreground" type="bool" value="true"/>
    <property name="noDestroy" type="bool" value="true"/>
    <property name="rotationMult" type="float" value="1"/>
    <property name="squib" type="int" value="-1"/>
    <property name="squibSE" value=""/>
    <property name="static" type="bool" value="true"/>
   </properties>
  </object>
  <object id="1612" class="prop" gid="148" x="1176" y="164" width="21" height="37" rotation="337.073">
   <properties>
    <property name="foreground" type="bool" value="false"/>
    <property name="noDestroy" type="bool" value="true"/>
    <property name="rotationMult" type="float" value="1"/>
    <property name="squib" type="int" value="-1"/>
    <property name="squibSE" value=""/>
    <property name="static" type="bool" value="true"/>
   </properties>
  </object>
  <object id="1613" class="prop" gid="151" x="935" y="158" width="21" height="34" rotation="2.76135">
   <properties>
    <property name="foreground" type="bool" value="false"/>
    <property name="noDestroy" type="bool" value="true"/>
    <property name="rotationMult" type="float" value="1"/>
    <property name="squib" type="int" value="-1"/>
    <property name="squibSE" value=""/>
    <property name="static" type="bool" value="true"/>
   </properties>
  </object>
  <object id="1614" class="prop" gid="669" x="1341" y="197" width="27" height="19" rotation="270.352">
   <properties>
    <property name="foreground" type="bool" value="true"/>
    <property name="noDestroy" type="bool" value="true"/>
    <property name="rotationMult" type="float" value="1"/>
    <property name="squib" type="int" value="-1"/>
    <property name="squibSE" value=""/>
    <property name="static" type="bool" value="true"/>
   </properties>
  </object>
  <object id="1615" class="prop" gid="152" x="1312" y="216" width="19" height="25" rotation="21.7718">
   <properties>
    <property name="foreground" type="bool" value="false"/>
    <property name="noDestroy" type="bool" value="true"/>
    <property name="rotationMult" type="float" value="1"/>
    <property name="squib" type="int" value="-1"/>
    <property name="squibSE" value=""/>
    <property name="static" type="bool" value="true"/>
   </properties>
  </object>
  <object id="1617" class="prop" gid="669" x="1220" y="111" width="27" height="19" rotation="170.174">
   <properties>
    <property name="foreground" type="bool" value="true"/>
    <property name="noDestroy" type="bool" value="true"/>
    <property name="rotationMult" type="float" value="1"/>
    <property name="squib" type="int" value="-1"/>
    <property name="squibSE" value=""/>
    <property name="static" type="bool" value="true"/>
   </properties>
  </object>
  <object id="1619" class="prop" gid="670" x="1280" y="116" width="25" height="22" rotation="195.704">
   <properties>
    <property name="foreground" type="bool" value="true"/>
    <property name="noDestroy" type="bool" value="true"/>
    <property name="rotationMult" type="float" value="1"/>
    <property name="squib" type="int" value="-1"/>
    <property name="squibSE" value=""/>
    <property name="static" type="bool" value="true"/>
   </properties>
  </object>
  <object id="1620" class="prop" gid="152" x="1231" y="145" width="19" height="25" rotation="21.7718">
   <properties>
    <property name="foreground" type="bool" value="false"/>
    <property name="noDestroy" type="bool" value="true"/>
    <property name="rotationMult" type="float" value="1"/>
    <property name="squib" type="int" value="-1"/>
    <property name="squibSE" value=""/>
    <property name="static" type="bool" value="true"/>
   </properties>
  </object>
  <object id="1621" class="prop" gid="670" x="1282" y="295" width="25" height="22" rotation="103.981">
   <properties>
    <property name="foreground" type="bool" value="true"/>
    <property name="noDestroy" type="bool" value="true"/>
    <property name="rotationMult" type="float" value="1"/>
    <property name="squib" type="int" value="-1"/>
    <property name="squibSE" value=""/>
    <property name="static" type="bool" value="true"/>
   </properties>
  </object>
  <object id="1622" class="prop" gid="669" x="1284" y="222" width="27" height="19" rotation="97.6951">
   <properties>
    <property name="foreground" type="bool" value="true"/>
    <property name="noDestroy" type="bool" value="true"/>
    <property name="rotationMult" type="float" value="1"/>
    <property name="squib" type="int" value="-1"/>
    <property name="squibSE" value=""/>
    <property name="static" type="bool" value="true"/>
   </properties>
  </object>
  <object id="1623" class="prop" gid="670" x="1284" y="256" width="25" height="22" rotation="103.981">
   <properties>
    <property name="foreground" type="bool" value="true"/>
    <property name="noDestroy" type="bool" value="true"/>
    <property name="rotationMult" type="float" value="1"/>
    <property name="squib" type="int" value="-1"/>
    <property name="squibSE" value=""/>
    <property name="static" type="bool" value="true"/>
   </properties>
  </object>
  <object id="1624" class="prop" gid="149" x="1291" y="313" width="17" height="28" rotation="349.784">
   <properties>
    <property name="foreground" type="bool" value="false"/>
    <property name="noDestroy" type="bool" value="true"/>
    <property name="rotationMult" type="float" value="1"/>
    <property name="squib" type="int" value="-1"/>
    <property name="squibSE" value=""/>
    <property name="static" type="bool" value="true"/>
   </properties>
  </object>
  <object id="1625" class="prop" gid="148" x="1300" y="275.994" width="21" height="37" rotation="337.073">
   <properties>
    <property name="foreground" type="bool" value="false"/>
    <property name="noDestroy" type="bool" value="true"/>
    <property name="rotationMult" type="float" value="1"/>
    <property name="squib" type="int" value="-1"/>
    <property name="squibSE" value=""/>
    <property name="static" type="bool" value="true"/>
   </properties>
  </object>
  <object id="1626" class="prop" gid="172" x="1338" y="822" width="18" height="37">
   <properties>
    <property name="foreground" type="bool" value="true"/>
    <property name="noDestroy" type="bool" value="true"/>
    <property name="rotationMult" type="float" value="1"/>
    <property name="squib" type="int" value="-1"/>
    <property name="squibSE" value=""/>
    <property name="static" type="bool" value="true"/>
   </properties>
  </object>
  <object id="1627" class="prop" gid="171" x="1098" y="666" width="18" height="29">
   <properties>
    <property name="foreground" type="bool" value="true"/>
    <property name="noDestroy" type="bool" value="true"/>
    <property name="rotationMult" type="float" value="1"/>
    <property name="squib" type="int" value="-1"/>
    <property name="squibSE" value=""/>
    <property name="static" type="bool" value="true"/>
   </properties>
  </object>
  <object id="1628" class="prop" gid="172" x="662" y="127" width="18" height="37">
   <properties>
    <property name="foreground" type="bool" value="true"/>
    <property name="noDestroy" type="bool" value="true"/>
    <property name="rotationMult" type="float" value="1"/>
    <property name="squib" type="int" value="-1"/>
    <property name="squibSE" value=""/>
    <property name="static" type="bool" value="true"/>
   </properties>
  </object>
  <object id="1629" class="prop" gid="171" x="582" y="307" width="18" height="29">
   <properties>
    <property name="foreground" type="bool" value="true"/>
    <property name="noDestroy" type="bool" value="true"/>
    <property name="rotationMult" type="float" value="1"/>
    <property name="squib" type="int" value="-1"/>
    <property name="squibSE" value=""/>
    <property name="static" type="bool" value="true"/>
   </properties>
  </object>
  <object id="1630" class="prop" gid="171" x="888" y="463" width="18" height="29">
   <properties>
    <property name="foreground" type="bool" value="true"/>
    <property name="noDestroy" type="bool" value="true"/>
    <property name="rotationMult" type="float" value="1"/>
    <property name="squib" type="int" value="-1"/>
    <property name="squibSE" value=""/>
    <property name="static" type="bool" value="true"/>
   </properties>
  </object>
  <object id="1631" class="prop" gid="172" x="676" y="590" width="18" height="37">
   <properties>
    <property name="foreground" type="bool" value="true"/>
    <property name="noDestroy" type="bool" value="true"/>
    <property name="rotationMult" type="float" value="1"/>
    <property name="squib" type="int" value="-1"/>
    <property name="squibSE" value=""/>
    <property name="static" type="bool" value="true"/>
   </properties>
  </object>
  <object id="1633" class="prop" gid="172" x="815" y="1039" width="18" height="37">
   <properties>
    <property name="foreground" type="bool" value="true"/>
    <property name="noDestroy" type="bool" value="true"/>
    <property name="rotationMult" type="float" value="1"/>
    <property name="squib" type="int" value="-1"/>
    <property name="squibSE" value=""/>
    <property name="static" type="bool" value="true"/>
   </properties>
  </object>
  <object id="1634" class="prop" gid="164" x="721" y="758" width="29" height="43">
   <properties>
    <property name="foreground" type="bool" value="true"/>
    <property name="noDestroy" type="bool" value="true"/>
    <property name="rotationMult" type="float" value="1"/>
    <property name="squib" type="int" value="-1"/>
    <property name="squibSE" value=""/>
    <property name="static" type="bool" value="true"/>
   </properties>
  </object>
  <object id="1635" class="prop" gid="165" x="864" y="784" width="20" height="38">
   <properties>
    <property name="foreground" type="bool" value="true"/>
    <property name="noDestroy" type="bool" value="true"/>
    <property name="rotationMult" type="float" value="1"/>
    <property name="squib" type="int" value="-1"/>
    <property name="squibSE" value=""/>
    <property name="static" type="bool" value="true"/>
   </properties>
  </object>
  <object id="1636" class="prop" gid="161" x="934" y="465" width="18" height="45">
   <properties>
    <property name="foreground" type="bool" value="true"/>
    <property name="noDestroy" type="bool" value="true"/>
    <property name="rotationMult" type="float" value="1"/>
    <property name="squib" type="int" value="-1"/>
    <property name="squibSE" value=""/>
    <property name="static" type="bool" value="true"/>
   </properties>
  </object>
  <object id="1637" class="prop" gid="157" x="1177" y="650" width="35" height="12">
   <properties>
    <property name="foreground" type="bool" value="true"/>
    <property name="noDestroy" type="bool" value="true"/>
    <property name="rotationMult" type="float" value="1"/>
    <property name="squib" type="int" value="-1"/>
    <property name="squibSE" value=""/>
    <property name="static" type="bool" value="true"/>
   </properties>
  </object>
  <object id="1638" class="prop" gid="158" x="1428" y="746" width="44" height="15">
   <properties>
    <property name="foreground" type="bool" value="true"/>
    <property name="noDestroy" type="bool" value="true"/>
    <property name="rotationMult" type="float" value="1"/>
    <property name="squib" type="int" value="-1"/>
    <property name="squibSE" value=""/>
    <property name="static" type="bool" value="true"/>
   </properties>
  </object>
  <object id="1639" class="prop" gid="159" x="1047" y="649" width="55" height="13">
   <properties>
    <property name="foreground" type="bool" value="true"/>
    <property name="noDestroy" type="bool" value="true"/>
    <property name="rotationMult" type="float" value="1"/>
    <property name="squib" type="int" value="-1"/>
    <property name="squibSE" value=""/>
    <property name="static" type="bool" value="true"/>
   </properties>
  </object>
  <object id="1641" class="prop" gid="157" x="687" y="438" width="35" height="12">
   <properties>
    <property name="foreground" type="bool" value="true"/>
    <property name="noDestroy" type="bool" value="true"/>
    <property name="rotationMult" type="float" value="1"/>
    <property name="squib" type="int" value="-1"/>
    <property name="squibSE" value=""/>
    <property name="static" type="bool" value="true"/>
   </properties>
  </object>
  <object id="1642" class="prop" gid="158" x="771" y="442" width="44" height="15" rotation="10.8316">
   <properties>
    <property name="foreground" type="bool" value="true"/>
    <property name="noDestroy" type="bool" value="true"/>
    <property name="rotationMult" type="float" value="1"/>
    <property name="squib" type="int" value="-1"/>
    <property name="squibSE" value=""/>
    <property name="static" type="bool" value="true"/>
   </properties>
  </object>
  <object id="1643" class="prop" gid="157" x="862" y="447" width="35" height="12">
   <properties>
    <property name="foreground" type="bool" value="true"/>
    <property name="noDestroy" type="bool" value="true"/>
    <property name="rotationMult" type="float" value="1"/>
    <property name="squib" type="int" value="-1"/>
    <property name="squibSE" value=""/>
    <property name="static" type="bool" value="true"/>
   </properties>
  </object>
  <object id="1644" class="prop" gid="159" x="919" y="451" width="55" height="13" rotation="351.704">
   <properties>
    <property name="foreground" type="bool" value="true"/>
    <property name="noDestroy" type="bool" value="true"/>
    <property name="rotationMult" type="float" value="1"/>
    <property name="squib" type="int" value="-1"/>
    <property name="squibSE" value=""/>
    <property name="static" type="bool" value="true"/>
   </properties>
  </object>
  <object id="1645" class="prop" gid="155" x="567" y="457" width="47" height="33">
   <properties>
    <property name="foreground" type="bool" value="true"/>
    <property name="noDestroy" type="bool" value="true"/>
    <property name="rotationMult" type="float" value="1"/>
    <property name="squib" type="int" value="-1"/>
    <property name="squibSE" value=""/>
    <property name="static" type="bool" value="true"/>
   </properties>
  </object>
  <object id="1646" class="prop" gid="158" x="613" y="442" width="44" height="15">
   <properties>
    <property name="foreground" type="bool" value="true"/>
    <property name="noDestroy" type="bool" value="true"/>
    <property name="rotationMult" type="float" value="1"/>
    <property name="squib" type="int" value="-1"/>
    <property name="squibSE" value=""/>
    <property name="static" type="bool" value="true"/>
   </properties>
  </object>
  <object id="1647" class="prop" gid="160" x="724" y="438" width="19" height="14">
   <properties>
    <property name="foreground" type="bool" value="true"/>
    <property name="noDestroy" type="bool" value="true"/>
    <property name="rotationMult" type="float" value="1"/>
    <property name="squib" type="int" value="-1"/>
    <property name="squibSE" value=""/>
    <property name="static" type="bool" value="true"/>
   </properties>
  </object>
  <object id="1648" class="prop" gid="159" x="1006" y="288" width="55" height="13">
   <properties>
    <property name="foreground" type="bool" value="true"/>
    <property name="noDestroy" type="bool" value="true"/>
    <property name="rotationMult" type="float" value="1"/>
    <property name="squib" type="int" value="-1"/>
    <property name="squibSE" value=""/>
    <property name="static" type="bool" value="true"/>
   </properties>
  </object>
  <object id="1649" class="prop" gid="165" x="1025" y="316" width="20" height="38">
   <properties>
    <property name="foreground" type="bool" value="true"/>
    <property name="noDestroy" type="bool" value="true"/>
    <property name="rotationMult" type="float" value="1"/>
    <property name="squib" type="int" value="-1"/>
    <property name="squibSE" value=""/>
    <property name="static" type="bool" value="true"/>
   </properties>
  </object>
  <object id="1650" class="prop" gid="160" x="1053" y="293" width="19" height="14">
   <properties>
    <property name="foreground" type="bool" value="true"/>
    <property name="noDestroy" type="bool" value="true"/>
    <property name="rotationMult" type="float" value="1"/>
    <property name="squib" type="int" value="-1"/>
    <property name="squibSE" value=""/>
    <property name="static" type="bool" value="true"/>
   </properties>
  </object>
  <object id="1651" class="prop" gid="158" x="943" y="294" width="44" height="15">
   <properties>
    <property name="foreground" type="bool" value="true"/>
    <property name="noDestroy" type="bool" value="true"/>
    <property name="rotationMult" type="float" value="1"/>
    <property name="squib" type="int" value="-1"/>
    <property name="squibSE" value=""/>
    <property name="static" type="bool" value="true"/>
   </properties>
  </object>
  <object id="1652" class="prop" gid="155" x="800" y="303" width="47" height="33">
   <properties>
    <property name="foreground" type="bool" value="true"/>
    <property name="noDestroy" type="bool" value="true"/>
    <property name="rotationMult" type="float" value="1"/>
    <property name="squib" type="int" value="-1"/>
    <property name="squibSE" value=""/>
    <property name="static" type="bool" value="true"/>
   </properties>
  </object>
  <object id="1653" class="prop" gid="157" x="873.015" y="292.811" width="35" height="12" rotation="341.659">
   <properties>
    <property name="foreground" type="bool" value="true"/>
    <property name="noDestroy" type="bool" value="true"/>
    <property name="rotationMult" type="float" value="1"/>
    <property name="squib" type="int" value="-1"/>
    <property name="squibSE" value=""/>
    <property name="static" type="bool" value="true"/>
   </properties>
  </object>
  <object id="1654" class="prop" gid="160" x="843" y="291" width="19" height="14">
   <properties>
    <property name="foreground" type="bool" value="true"/>
    <property name="noDestroy" type="bool" value="true"/>
    <property name="rotationMult" type="float" value="1"/>
    <property name="squib" type="int" value="-1"/>
    <property name="squibSE" value=""/>
    <property name="static" type="bool" value="true"/>
   </properties>
  </object>
  <object id="1655" class="prop" gid="159" x="709" y="293" width="55" height="13" rotation="349.604">
   <properties>
    <property name="foreground" type="bool" value="true"/>
    <property name="noDestroy" type="bool" value="true"/>
    <property name="rotationMult" type="float" value="1"/>
    <property name="squib" type="int" value="-1"/>
    <property name="squibSE" value=""/>
    <property name="static" type="bool" value="true"/>
   </properties>
  </object>
  <object id="1656" class="prop" gid="159" x="543" y="284" width="55" height="13" rotation="7.71262">
   <properties>
    <property name="foreground" type="bool" value="true"/>
    <property name="noDestroy" type="bool" value="true"/>
    <property name="rotationMult" type="float" value="1"/>
    <property name="squib" type="int" value="-1"/>
    <property name="squibSE" value=""/>
    <property name="static" type="bool" value="true"/>
   </properties>
  </object>
  <object id="1657" class="prop" gid="158" x="672" y="295" width="44" height="15" rotation="1.22381">
   <properties>
    <property name="foreground" type="bool" value="true"/>
    <property name="noDestroy" type="bool" value="true"/>
    <property name="rotationMult" type="float" value="1"/>
    <property name="squib" type="int" value="-1"/>
    <property name="squibSE" value=""/>
    <property name="static" type="bool" value="true"/>
   </properties>
  </object>
  <object id="1658" class="prop" gid="164" x="372" y="260" width="29" height="43" rotation="1.22381">
   <properties>
    <property name="foreground" type="bool" value="true"/>
    <property name="noDestroy" type="bool" value="true"/>
    <property name="rotationMult" type="float" value="1"/>
    <property name="squib" type="int" value="-1"/>
    <property name="squibSE" value=""/>
    <property name="static" type="bool" value="true"/>
   </properties>
  </object>
  <object id="1660" class="prop" gid="158" x="416" y="247" width="44" height="15" rotation="24.9116">
   <properties>
    <property name="foreground" type="bool" value="true"/>
    <property name="noDestroy" type="bool" value="true"/>
    <property name="rotationMult" type="float" value="1"/>
    <property name="squib" type="int" value="-1"/>
    <property name="squibSE" value=""/>
    <property name="static" type="bool" value="true"/>
   </properties>
  </object>
  <object id="1661" class="rope" x="1941" y="349">
   <properties>
    <property name="drawStretched" type="bool" value="false"/>
    <property name="segments" type="int" value="6"/>
    <property name="skin" type="int" value="4"/>
    <property name="width" type="float" value="1"/>
   </properties>
   <polyline points="0,0 0,48"/>
  </object>
  <object id="1662" class="rope" x="1810" y="346">
   <properties>
    <property name="drawStretched" type="bool" value="false"/>
    <property name="segments" type="int" value="6"/>
    <property name="skin" type="int" value="4"/>
    <property name="width" type="float" value="1"/>
   </properties>
   <polyline points="0,0 0,48"/>
  </object>
  <object id="1663" class="rope" x="1766" y="343">
   <properties>
    <property name="drawStretched" type="bool" value="false"/>
    <property name="segments" type="int" value="5"/>
    <property name="skin" type="int" value="1"/>
    <property name="width" type="float" value="1"/>
   </properties>
   <polyline points="0,0 0,48"/>
  </object>
  <object id="1664" class="rope" x="1745" y="348">
   <properties>
    <property name="drawStretched" type="bool" value="false"/>
    <property name="segments" type="int" value="4"/>
    <property name="skin" type="int" value="1"/>
    <property name="width" type="float" value="1"/>
   </properties>
   <polyline points="0,0 0,48"/>
  </object>
  <object id="1665" class="rope" x="1718" y="341">
   <properties>
    <property name="drawStretched" type="bool" value="false"/>
    <property name="segments" type="int" value="7"/>
    <property name="skin" type="int" value="4"/>
    <property name="width" type="float" value="1"/>
   </properties>
   <polyline points="0,0 0,48"/>
  </object>
  <object id="1666" class="rope" x="1896" y="356">
   <properties>
    <property name="drawStretched" type="bool" value="false"/>
    <property name="segments" type="int" value="4"/>
    <property name="skin" type="int" value="1"/>
    <property name="width" type="float" value="1"/>
   </properties>
   <polyline points="0,0 0,48"/>
  </object>
  <object id="1667" class="rope" x="1996" y="353">
   <properties>
    <property name="drawStretched" type="bool" value="false"/>
    <property name="segments" type="int" value="4"/>
    <property name="skin" type="int" value="1"/>
    <property name="width" type="float" value="1"/>
   </properties>
   <polyline points="0,0 0,48"/>
  </object>
  <object id="1668" class="rope" x="1981" y="361">
   <properties>
    <property name="drawStretched" type="bool" value="false"/>
    <property name="segments" type="int" value="5"/>
    <property name="skin" type="int" value="1"/>
    <property name="width" type="float" value="1"/>
   </properties>
   <polyline points="0,0 0,48"/>
  </object>
  <object id="1669" class="rope" x="2025" y="347">
   <properties>
    <property name="drawStretched" type="bool" value="false"/>
    <property name="segments" type="int" value="3"/>
    <property name="skin" type="int" value="1"/>
    <property name="width" type="float" value="1"/>
   </properties>
   <polyline points="0,0 0,48"/>
  </object>
  <object id="1670" class="rope" x="2057" y="353">
   <properties>
    <property name="drawStretched" type="bool" value="false"/>
    <property name="segments" type="int" value="4"/>
    <property name="skin" type="int" value="1"/>
    <property name="width" type="float" value="1"/>
   </properties>
   <polyline points="0,0 0,48"/>
  </object>
  <object id="1672" class="prop" gid="160" x="309" y="628" width="19" height="14">
   <properties>
    <property name="foreground" type="bool" value="true"/>
    <property name="noDestroy" type="bool" value="true"/>
    <property name="rotationMult" type="float" value="1"/>
    <property name="squib" type="int" value="-1"/>
    <property name="squibSE" value=""/>
    <property name="static" type="bool" value="true"/>
   </properties>
  </object>
  <object id="1673" class="prop" gid="159" x="426" y="725" width="55" height="13" rotation="6.30248">
   <properties>
    <property name="foreground" type="bool" value="true"/>
    <property name="noDestroy" type="bool" value="true"/>
    <property name="rotationMult" type="float" value="1"/>
    <property name="squib" type="int" value="-1"/>
    <property name="squibSE" value=""/>
    <property name="static" type="bool" value="true"/>
   </properties>
  </object>
  <object id="1674" class="prop" gid="157" x="364" y="635" width="35" height="12">
   <properties>
    <property name="foreground" type="bool" value="true"/>
    <property name="noDestroy" type="bool" value="true"/>
    <property name="rotationMult" type="float" value="1"/>
    <property name="squib" type="int" value="-1"/>
    <property name="squibSE" value=""/>
    <property name="static" type="bool" value="true"/>
   </properties>
  </object>
  <object id="1675" class="prop" gid="161" x="73" y="649" width="18" height="45">
   <properties>
    <property name="foreground" type="bool" value="true"/>
    <property name="noDestroy" type="bool" value="true"/>
    <property name="rotationMult" type="float" value="1"/>
    <property name="squib" type="int" value="-1"/>
    <property name="squibSE" value=""/>
    <property name="static" type="bool" value="true"/>
   </properties>
  </object>
  <object id="1677" class="prop" gid="158" x="185" y="580" width="44" height="15" rotation="24.7185">
   <properties>
    <property name="foreground" type="bool" value="true"/>
    <property name="noDestroy" type="bool" value="true"/>
    <property name="rotationMult" type="float" value="1"/>
    <property name="squib" type="int" value="-1"/>
    <property name="squibSE" value=""/>
    <property name="static" type="bool" value="true"/>
   </properties>
  </object>
  <object id="1678" class="prop" gid="165" x="521" y="754" width="20" height="38">
   <properties>
    <property name="foreground" type="bool" value="true"/>
    <property name="noDestroy" type="bool" value="true"/>
    <property name="rotationMult" type="float" value="1"/>
    <property name="squib" type="int" value="-1"/>
    <property name="squibSE" value=""/>
    <property name="static" type="bool" value="true"/>
   </properties>
  </object>
  <object id="1679" class="prop" gid="157" x="750" y="729" width="35" height="12" rotation="343.386">
   <properties>
    <property name="foreground" type="bool" value="true"/>
    <property name="noDestroy" type="bool" value="true"/>
    <property name="rotationMult" type="float" value="1"/>
    <property name="squib" type="int" value="-1"/>
    <property name="squibSE" value=""/>
    <property name="static" type="bool" value="true"/>
   </properties>
  </object>
  <object id="1680" class="prop" gid="158" x="818" y="735" width="44" height="15" rotation="20.4746">
   <properties>
    <property name="foreground" type="bool" value="true"/>
    <property name="noDestroy" type="bool" value="true"/>
    <property name="rotationMult" type="float" value="1"/>
    <property name="squib" type="int" value="-1"/>
    <property name="squibSE" value=""/>
    <property name="static" type="bool" value="true"/>
   </properties>
  </object>
  <object id="1682" class="prop" gid="157" x="996" y="144" width="35" height="12">
   <properties>
    <property name="foreground" type="bool" value="true"/>
    <property name="noDestroy" type="bool" value="true"/>
    <property name="rotationMult" type="float" value="1"/>
    <property name="squib" type="int" value="-1"/>
    <property name="squibSE" value=""/>
    <property name="static" type="bool" value="true"/>
   </properties>
  </object>
  <object id="1683" class="prop" gid="159" x="1045" y="144" width="55" height="13">
   <properties>
    <property name="foreground" type="bool" value="true"/>
    <property name="noDestroy" type="bool" value="true"/>
    <property name="rotationMult" type="float" value="1"/>
    <property name="squib" type="int" value="-1"/>
    <property name="squibSE" value=""/>
    <property name="static" type="bool" value="true"/>
   </properties>
  </object>
  <object id="1685" class="prop" gid="157" x="1188" y="139" width="35" height="12">
   <properties>
    <property name="foreground" type="bool" value="true"/>
    <property name="noDestroy" type="bool" value="true"/>
    <property name="rotationMult" type="float" value="1"/>
    <property name="squib" type="int" value="-1"/>
    <property name="squibSE" value=""/>
    <property name="static" type="bool" value="true"/>
   </properties>
  </object>
  <object id="1686" class="prop" gid="158" x="1267" y="145" width="44" height="15">
   <properties>
    <property name="foreground" type="bool" value="true"/>
    <property name="noDestroy" type="bool" value="true"/>
    <property name="rotationMult" type="float" value="1"/>
    <property name="squib" type="int" value="-1"/>
    <property name="squibSE" value=""/>
    <property name="static" type="bool" value="true"/>
   </properties>
  </object>
  <object id="1689" class="rope" x="1387" y="274">
   <properties>
    <property name="drawStretched" type="bool" value="false"/>
    <property name="segments" type="int" value="6"/>
    <property name="skin" type="int" value="4"/>
    <property name="width" type="float" value="1"/>
   </properties>
   <polyline points="0,0 0,48"/>
  </object>
  <object id="1690" class="rope" x="1335" y="250">
   <properties>
    <property name="drawStretched" type="bool" value="false"/>
    <property name="segments" type="int" value="5"/>
    <property name="skin" type="int" value="1"/>
    <property name="width" type="float" value="1"/>
   </properties>
   <polyline points="0,0 0,48"/>
  </object>
  <object id="1691" class="rope" x="1393" y="274">
   <properties>
    <property name="drawStretched" type="bool" value="false"/>
    <property name="segments" type="int" value="4"/>
    <property name="skin" type="int" value="1"/>
    <property name="width" type="float" value="1"/>
   </properties>
   <polyline points="0,0 0,48"/>
  </object>
  <object id="1692" class="rope" x="1432" y="295">
   <properties>
    <property name="drawStretched" type="bool" value="false"/>
    <property name="segments" type="int" value="7"/>
    <property name="skin" type="int" value="4"/>
    <property name="width" type="float" value="1"/>
   </properties>
   <polyline points="0,0 0,48"/>
  </object>
  <object id="1693" class="rope" x="1369" y="257">
   <properties>
    <property name="drawStretched" type="bool" value="false"/>
    <property name="segments" type="int" value="4"/>
    <property name="skin" type="int" value="1"/>
    <property name="width" type="float" value="1"/>
   </properties>
   <polyline points="0,0 0,48"/>
  </object>
  <object id="1694" class="rope" x="1905" y="727">
   <properties>
    <property name="drawStretched" type="bool" value="false"/>
    <property name="segments" type="int" value="8"/>
    <property name="skin" type="int" value="4"/>
    <property name="width" type="float" value="1"/>
   </properties>
   <polyline points="0,0 0,48"/>
  </object>
  <object id="1695" class="rope" x="1833" y="716">
   <properties>
    <property name="drawStretched" type="bool" value="false"/>
    <property name="segments" type="int" value="4"/>
    <property name="skin" type="int" value="1"/>
    <property name="width" type="float" value="1"/>
   </properties>
   <polyline points="0,0 0,48"/>
  </object>
  <object id="1696" class="rope" x="1758" y="716">
   <properties>
    <property name="drawStretched" type="bool" value="false"/>
    <property name="segments" type="int" value="5"/>
    <property name="skin" type="int" value="1"/>
    <property name="width" type="float" value="1"/>
   </properties>
   <polyline points="0,0 0,48"/>
  </object>
  <object id="1697" class="rope" x="1879" y="727">
   <properties>
    <property name="drawStretched" type="bool" value="false"/>
    <property name="segments" type="int" value="3"/>
    <property name="skin" type="int" value="1"/>
    <property name="width" type="float" value="1"/>
   </properties>
   <polyline points="0,0 0,48"/>
  </object>
  <object id="1698" class="rope" x="1913" y="724">
   <properties>
    <property name="drawStretched" type="bool" value="false"/>
    <property name="segments" type="int" value="4"/>
    <property name="skin" type="int" value="1"/>
    <property name="width" type="float" value="1"/>
   </properties>
   <polyline points="0,0 0,48"/>
  </object>
  <object id="1699" class="rope" x="1710" y="715">
   <properties>
    <property name="drawStretched" type="bool" value="false"/>
    <property name="segments" type="int" value="3"/>
    <property name="skin" type="int" value="1"/>
    <property name="width" type="float" value="1"/>
   </properties>
   <polyline points="0,0 0,48"/>
  </object>
  <object id="1700" class="rope" x="1688" y="713">
   <properties>
    <property name="drawStretched" type="bool" value="false"/>
    <property name="segments" type="int" value="3"/>
    <property name="skin" type="int" value="1"/>
    <property name="width" type="float" value="1"/>
   </properties>
   <polyline points="0,0 0,48"/>
  </object>
  <object id="1701" class="rope" x="1699" y="715">
   <properties>
    <property name="drawStretched" type="bool" value="false"/>
    <property name="segments" type="int" value="8"/>
    <property name="skin" type="int" value="1"/>
    <property name="width" type="float" value="1"/>
   </properties>
   <polyline points="0,0 0,48"/>
  </object>
  <object id="1702" class="rope" x="2027" y="707">
   <properties>
    <property name="drawStretched" type="bool" value="false"/>
    <property name="segments" type="int" value="4"/>
    <property name="skin" type="int" value="1"/>
    <property name="width" type="float" value="1"/>
   </properties>
   <polyline points="0,0 0,48"/>
  </object>
  <object id="1703" class="rope" x="1431" y="739">
   <properties>
    <property name="drawStretched" type="bool" value="false"/>
    <property name="segments" type="int" value="8"/>
    <property name="skin" type="int" value="4"/>
    <property name="width" type="float" value="1"/>
   </properties>
   <polyline points="0,0 0,48"/>
  </object>
  <object id="1704" class="rope" x="1234" y="719">
   <properties>
    <property name="drawStretched" type="bool" value="false"/>
    <property name="segments" type="int" value="6"/>
    <property name="skin" type="int" value="4"/>
    <property name="width" type="float" value="1"/>
   </properties>
   <polyline points="0,0 0,48"/>
  </object>
  <object id="1705" class="rope" x="1324" y="780">
   <properties>
    <property name="drawStretched" type="bool" value="false"/>
    <property name="segments" type="int" value="7"/>
    <property name="skin" type="int" value="4"/>
    <property name="width" type="float" value="1"/>
   </properties>
   <polyline points="0,0 0,48"/>
  </object>
  <object id="1706" class="rope" x="1383" y="776">
   <properties>
    <property name="drawStretched" type="bool" value="false"/>
    <property name="segments" type="int" value="6"/>
    <property name="skin" type="int" value="1"/>
    <property name="width" type="float" value="1"/>
   </properties>
   <polyline points="0,0 0,48"/>
  </object>
  <object id="1707" class="rope" x="1313" y="776">
   <properties>
    <property name="drawStretched" type="bool" value="false"/>
    <property name="segments" type="int" value="5"/>
    <property name="skin" type="int" value="4"/>
    <property name="width" type="float" value="1"/>
   </properties>
   <polyline points="0,0 0,48"/>
  </object>
  <object id="1709" class="rope" x="1227" y="713">
   <properties>
    <property name="drawStretched" type="bool" value="false"/>
    <property name="segments" type="int" value="4"/>
    <property name="skin" type="int" value="1"/>
    <property name="width" type="float" value="1"/>
   </properties>
   <polyline points="0,0 0,48"/>
  </object>
  <object id="1711" class="rope" x="1167" y="640">
   <properties>
    <property name="drawStretched" type="bool" value="false"/>
    <property name="segments" type="int" value="4"/>
    <property name="skin" type="int" value="4"/>
    <property name="width" type="float" value="1"/>
   </properties>
   <polyline points="0,0 0,48"/>
  </object>
  <object id="1712" class="rope" x="1123" y="640">
   <properties>
    <property name="drawStretched" type="bool" value="false"/>
    <property name="segments" type="int" value="5"/>
    <property name="skin" type="int" value="4"/>
    <property name="width" type="float" value="1"/>
   </properties>
   <polyline points="0,0 0,48"/>
  </object>
  <object id="1713" class="rope" x="1089" y="637">
   <properties>
    <property name="drawStretched" type="bool" value="false"/>
    <property name="segments" type="int" value="6"/>
    <property name="skin" type="int" value="1"/>
    <property name="width" type="float" value="1"/>
   </properties>
   <polyline points="0,0 0,48"/>
  </object>
  <object id="1714" class="rope" x="1115" y="639">
   <properties>
    <property name="drawStretched" type="bool" value="false"/>
    <property name="segments" type="int" value="6"/>
    <property name="skin" type="int" value="1"/>
    <property name="width" type="float" value="1"/>
   </properties>
   <polyline points="0,0 0,48"/>
  </object>
  <object id="1715" class="rope" x="1158" y="637">
   <properties>
    <property name="drawStretched" type="bool" value="false"/>
    <property name="segments" type="int" value="7"/>
    <property name="skin" type="int" value="4"/>
    <property name="width" type="float" value="1"/>
   </properties>
   <polyline points="0,0 0,48"/>
  </object>
  <object id="1716" class="rope" x="973" y="744">
   <properties>
    <property name="drawStretched" type="bool" value="false"/>
    <property name="segments" type="int" value="4"/>
    <property name="skin" type="int" value="4"/>
    <property name="width" type="float" value="1"/>
   </properties>
   <polyline points="0,0 0,48"/>
  </object>
  <object id="1717" class="rope" x="894" y="755">
   <properties>
    <property name="drawStretched" type="bool" value="false"/>
    <property name="segments" type="int" value="5"/>
    <property name="skin" type="int" value="4"/>
    <property name="width" type="float" value="1"/>
   </properties>
   <polyline points="0,0 0,48"/>
  </object>
  <object id="1718" class="rope" x="881" y="751">
   <properties>
    <property name="drawStretched" type="bool" value="false"/>
    <property name="segments" type="int" value="6"/>
    <property name="skin" type="int" value="1"/>
    <property name="width" type="float" value="1"/>
   </properties>
   <polyline points="0,0 0,48"/>
  </object>
  <object id="1719" class="rope" x="947" y="748">
   <properties>
    <property name="drawStretched" type="bool" value="false"/>
    <property name="segments" type="int" value="6"/>
    <property name="skin" type="int" value="1"/>
    <property name="width" type="float" value="1"/>
   </properties>
   <polyline points="0,0 0,48"/>
  </object>
  <object id="1720" class="rope" x="937" y="750">
   <properties>
    <property name="drawStretched" type="bool" value="false"/>
    <property name="segments" type="int" value="7"/>
    <property name="skin" type="int" value="4"/>
    <property name="width" type="float" value="1"/>
   </properties>
   <polyline points="0,0 0,48"/>
  </object>
  <object id="1721" class="rope" x="817" y="717">
   <properties>
    <property name="drawStretched" type="bool" value="false"/>
    <property name="segments" type="int" value="5"/>
    <property name="skin" type="int" value="4"/>
    <property name="width" type="float" value="1"/>
   </properties>
   <polyline points="0,0 0,48"/>
  </object>
  <object id="1722" class="rope" x="775" y="715">
   <properties>
    <property name="drawStretched" type="bool" value="false"/>
    <property name="segments" type="int" value="6"/>
    <property name="skin" type="int" value="1"/>
    <property name="width" type="float" value="1"/>
   </properties>
   <polyline points="0,0 0,48"/>
  </object>
  <object id="1723" class="rope" x="748" y="720">
   <properties>
    <property name="drawStretched" type="bool" value="false"/>
    <property name="segments" type="int" value="6"/>
    <property name="skin" type="int" value="1"/>
    <property name="width" type="float" value="1"/>
   </properties>
   <polyline points="0,0 0,48"/>
  </object>
  <object id="1724" class="rope" x="803" y="710">
   <properties>
    <property name="drawStretched" type="bool" value="false"/>
    <property name="segments" type="int" value="4"/>
    <property name="skin" type="int" value="4"/>
    <property name="width" type="float" value="1"/>
   </properties>
   <polyline points="0,0 0,48"/>
  </object>
  <object id="1725" class="rope" x="381" y="621">
   <properties>
    <property name="drawStretched" type="bool" value="false"/>
    <property name="segments" type="int" value="8"/>
    <property name="skin" type="int" value="4"/>
    <property name="width" type="float" value="1"/>
   </properties>
   <polyline points="0,0 0,48"/>
  </object>
  <object id="1726" class="rope" x="551" y="710">
   <properties>
    <property name="drawStretched" type="bool" value="false"/>
    <property name="segments" type="int" value="4"/>
    <property name="skin" type="int" value="1"/>
    <property name="width" type="float" value="1"/>
   </properties>
   <polyline points="0,0 0,48"/>
  </object>
  <object id="1727" class="rope" x="522" y="718">
   <properties>
    <property name="drawStretched" type="bool" value="false"/>
    <property name="segments" type="int" value="5"/>
    <property name="skin" type="int" value="4"/>
    <property name="width" type="float" value="1"/>
   </properties>
   <polyline points="0,0 0,48"/>
  </object>
  <object id="1728" class="rope" x="305" y="617">
   <properties>
    <property name="drawStretched" type="bool" value="false"/>
    <property name="segments" type="int" value="3"/>
    <property name="skin" type="int" value="1"/>
    <property name="width" type="float" value="1"/>
   </properties>
   <polyline points="0,0 0,48"/>
  </object>
  <object id="1729" class="rope" x="402" y="639">
   <properties>
    <property name="drawStretched" type="bool" value="false"/>
    <property name="segments" type="int" value="4"/>
    <property name="skin" type="int" value="1"/>
    <property name="width" type="float" value="1"/>
   </properties>
   <polyline points="0,0 0,48"/>
  </object>
  <object id="1730" class="rope" x="467" y="717">
   <properties>
    <property name="drawStretched" type="bool" value="false"/>
    <property name="segments" type="int" value="3"/>
    <property name="skin" type="int" value="1"/>
    <property name="width" type="float" value="1"/>
   </properties>
   <polyline points="0,0 0,48"/>
  </object>
  <object id="1731" class="rope" x="445" y="715">
   <properties>
    <property name="drawStretched" type="bool" value="false"/>
    <property name="segments" type="int" value="3"/>
    <property name="skin" type="int" value="4"/>
    <property name="width" type="float" value="1"/>
   </properties>
   <polyline points="0,0 0,48"/>
  </object>
  <object id="1732" class="rope" x="480" y="719">
   <properties>
    <property name="drawStretched" type="bool" value="false"/>
    <property name="segments" type="int" value="8"/>
    <property name="skin" type="int" value="1"/>
    <property name="width" type="float" value="1"/>
   </properties>
   <polyline points="0,0 0,48"/>
  </object>
  <object id="1733" class="rope" x="257" y="608">
   <properties>
    <property name="drawStretched" type="bool" value="false"/>
    <property name="segments" type="int" value="3"/>
    <property name="skin" type="int" value="4"/>
    <property name="width" type="float" value="1"/>
   </properties>
   <polyline points="0,0 0,48"/>
  </object>
  <object id="1734" class="rope" x="283" y="615">
   <properties>
    <property name="drawStretched" type="bool" value="false"/>
    <property name="segments" type="int" value="5"/>
    <property name="skin" type="int" value="4"/>
    <property name="width" type="float" value="1"/>
   </properties>
   <polyline points="0,0 0,48"/>
  </object>
  <object id="1735" class="rope" x="225" y="589">
   <properties>
    <property name="drawStretched" type="bool" value="false"/>
    <property name="segments" type="int" value="5"/>
    <property name="skin" type="int" value="4"/>
    <property name="width" type="float" value="1"/>
   </properties>
   <polyline points="0,0 0,48"/>
  </object>
  <object id="1736" class="rope" x="171" y="549">
   <properties>
    <property name="drawStretched" type="bool" value="false"/>
    <property name="segments" type="int" value="3"/>
    <property name="skin" type="int" value="1"/>
    <property name="width" type="float" value="1"/>
   </properties>
   <polyline points="0,0 0,48"/>
  </object>
  <object id="1737" class="rope" x="91" y="603">
   <properties>
    <property name="drawStretched" type="bool" value="false"/>
    <property name="segments" type="int" value="8"/>
    <property name="skin" type="int" value="4"/>
    <property name="width" type="float" value="1"/>
   </properties>
   <polyline points="0,0 0,48"/>
  </object>
  <object id="1738" class="rope" x="190" y="568">
   <properties>
    <property name="drawStretched" type="bool" value="false"/>
    <property name="segments" type="int" value="8"/>
    <property name="skin" type="int" value="1"/>
    <property name="width" type="float" value="1"/>
   </properties>
   <polyline points="0,0 0,48"/>
  </object>
  <object id="1739" class="rope" x="1588" y="342">
   <properties>
    <property name="drawStretched" type="bool" value="false"/>
    <property name="segments" type="int" value="4"/>
    <property name="skin" type="int" value="1"/>
    <property name="width" type="float" value="1"/>
   </properties>
   <polyline points="0,0 0,48"/>
  </object>
  <object id="1740" class="rope" x="1137" y="1008">
   <properties>
    <property name="drawStretched" type="bool" value="false"/>
    <property name="segments" type="int" value="8"/>
    <property name="skin" type="int" value="4"/>
    <property name="width" type="float" value="1"/>
   </properties>
   <polyline points="0,0 0,48"/>
  </object>
  <object id="1741" class="rope" x="999" y="1016">
   <properties>
    <property name="drawStretched" type="bool" value="false"/>
    <property name="segments" type="int" value="6"/>
    <property name="skin" type="int" value="4"/>
    <property name="width" type="float" value="1"/>
   </properties>
   <polyline points="0,0 0,48"/>
  </object>
  <object id="1742" class="rope" x="948" y="1013">
   <properties>
    <property name="drawStretched" type="bool" value="false"/>
    <property name="segments" type="int" value="4"/>
    <property name="skin" type="int" value="4"/>
    <property name="width" type="float" value="1"/>
   </properties>
   <polyline points="0,0 0,48"/>
  </object>
  <object id="1743" class="rope" x="1055" y="1016">
   <properties>
    <property name="drawStretched" type="bool" value="false"/>
    <property name="segments" type="int" value="4"/>
    <property name="skin" type="int" value="1"/>
    <property name="width" type="float" value="1"/>
   </properties>
   <polyline points="0,0 0,48"/>
  </object>
  <object id="1744" class="rope" x="1035" y="1017">
   <properties>
    <property name="drawStretched" type="bool" value="false"/>
    <property name="segments" type="int" value="5"/>
    <property name="skin" type="int" value="4"/>
    <property name="width" type="float" value="1"/>
   </properties>
   <polyline points="0,0 0,48"/>
  </object>
  <object id="1745" class="rope" x="1100" y="1003">
   <properties>
    <property name="drawStretched" type="bool" value="false"/>
    <property name="segments" type="int" value="8"/>
    <property name="skin" type="int" value="4"/>
    <property name="width" type="float" value="1"/>
   </properties>
   <polyline points="0,0 0,48"/>
  </object>
  <object id="1746" class="rope" x="1165" y="1003">
   <properties>
    <property name="drawStretched" type="bool" value="false"/>
    <property name="segments" type="int" value="4"/>
    <property name="skin" type="int" value="4"/>
    <property name="width" type="float" value="1"/>
   </properties>
   <polyline points="0,0 0,48"/>
  </object>
  <object id="1747" class="rope" x="896" y="1003">
   <properties>
    <property name="drawStretched" type="bool" value="false"/>
    <property name="segments" type="int" value="4"/>
    <property name="skin" type="int" value="1"/>
    <property name="width" type="float" value="1"/>
   </properties>
   <polyline points="0,0 0,48"/>
  </object>
  <object id="1748" class="rope" x="906" y="1001">
   <properties>
    <property name="drawStretched" type="bool" value="false"/>
    <property name="segments" type="int" value="5"/>
    <property name="skin" type="int" value="1"/>
    <property name="width" type="float" value="1"/>
   </properties>
   <polyline points="0,0 0,48"/>
  </object>
  <object id="1749" class="rope" x="1325" y="1002">
   <properties>
    <property name="drawStretched" type="bool" value="false"/>
    <property name="segments" type="int" value="6"/>
    <property name="skin" type="int" value="4"/>
    <property name="width" type="float" value="1"/>
   </properties>
   <polyline points="0,0 0,48"/>
  </object>
  <object id="1750" class="rope" x="1286" y="1016">
   <properties>
    <property name="drawStretched" type="bool" value="false"/>
    <property name="segments" type="int" value="4"/>
    <property name="skin" type="int" value="4"/>
    <property name="width" type="float" value="1"/>
   </properties>
   <polyline points="0,0 0,48"/>
  </object>
  <object id="1751" class="rope" x="1375" y="1004">
   <properties>
    <property name="drawStretched" type="bool" value="false"/>
    <property name="segments" type="int" value="5"/>
    <property name="skin" type="int" value="4"/>
    <property name="width" type="float" value="1"/>
   </properties>
   <polyline points="0,0 0,48"/>
  </object>
  <object id="1752" class="rope" x="1234" y="1006">
   <properties>
    <property name="drawStretched" type="bool" value="false"/>
    <property name="segments" type="int" value="4"/>
    <property name="skin" type="int" value="1"/>
    <property name="width" type="float" value="1"/>
   </properties>
   <polyline points="0,0 0,48"/>
  </object>
  <object id="1753" class="rope" x="1243" y="1004">
   <properties>
    <property name="drawStretched" type="bool" value="false"/>
    <property name="segments" type="int" value="5"/>
    <property name="skin" type="int" value="1"/>
    <property name="width" type="float" value="1"/>
   </properties>
   <polyline points="0,0 0,48"/>
  </object>
  <object id="1754" class="rope" x="1403" y="1002">
   <properties>
    <property name="drawStretched" type="bool" value="false"/>
    <property name="segments" type="int" value="4"/>
    <property name="skin" type="int" value="1"/>
    <property name="width" type="float" value="1"/>
   </properties>
   <polyline points="0,0 0,48"/>
  </object>
  <object id="1755" class="rope" x="1423" y="1005">
   <properties>
    <property name="drawStretched" type="bool" value="false"/>
    <property name="segments" type="int" value="5"/>
    <property name="skin" type="int" value="1"/>
    <property name="width" type="float" value="1"/>
   </properties>
   <polyline points="0,0 0,48"/>
  </object>
  <object id="1756" class="rope" x="1489" y="1006">
   <properties>
    <property name="drawStretched" type="bool" value="false"/>
    <property name="segments" type="int" value="5"/>
    <property name="skin" type="int" value="1"/>
    <property name="width" type="float" value="1"/>
   </properties>
   <polyline points="0,0 0,48"/>
  </object>
  <object id="1757" class="rope" x="1452" y="1001">
   <properties>
    <property name="drawStretched" type="bool" value="false"/>
    <property name="segments" type="int" value="4"/>
    <property name="skin" type="int" value="1"/>
    <property name="width" type="float" value="1"/>
   </properties>
   <polyline points="0,0 0,48"/>
  </object>
  <object id="1758" class="rope" x="695" y="1003">
   <properties>
    <property name="drawStretched" type="bool" value="false"/>
    <property name="segments" type="int" value="6"/>
    <property name="skin" type="int" value="4"/>
    <property name="width" type="float" value="1"/>
   </properties>
   <polyline points="0,0 0,48"/>
  </object>
  <object id="1759" class="rope" x="817" y="1000">
   <properties>
    <property name="drawStretched" type="bool" value="false"/>
    <property name="segments" type="int" value="4"/>
    <property name="skin" type="int" value="1"/>
    <property name="width" type="float" value="1"/>
   </properties>
   <polyline points="0,0 0,48"/>
  </object>
  <object id="1760" class="rope" x="778" y="1005">
   <properties>
    <property name="drawStretched" type="bool" value="false"/>
    <property name="segments" type="int" value="5"/>
    <property name="skin" type="int" value="4"/>
    <property name="width" type="float" value="1"/>
   </properties>
   <polyline points="0,0 0,48"/>
  </object>
  <object id="1761" class="rope" x="968" y="433">
   <properties>
    <property name="drawStretched" type="bool" value="false"/>
    <property name="segments" type="int" value="8"/>
    <property name="skin" type="int" value="4"/>
    <property name="width" type="float" value="1"/>
   </properties>
   <polyline points="0,0 0,48"/>
  </object>
  <object id="1762" class="rope" x="848" y="440">
   <properties>
    <property name="drawStretched" type="bool" value="false"/>
    <property name="segments" type="int" value="6"/>
    <property name="skin" type="int" value="4"/>
    <property name="width" type="float" value="1"/>
   </properties>
   <polyline points="0,0 0,48"/>
  </object>
  <object id="1763" class="rope" x="725" y="430">
   <properties>
    <property name="drawStretched" type="bool" value="false"/>
    <property name="segments" type="int" value="6"/>
    <property name="skin" type="int" value="4"/>
    <property name="width" type="float" value="1"/>
   </properties>
   <polyline points="0,0 0,48"/>
  </object>
  <object id="1764" class="rope" x="663" y="430">
   <properties>
    <property name="drawStretched" type="bool" value="false"/>
    <property name="segments" type="int" value="5"/>
    <property name="skin" type="int" value="1"/>
    <property name="width" type="float" value="1"/>
   </properties>
   <polyline points="0,0 0,48"/>
  </object>
  <object id="1765" class="rope" x="626" y="428">
   <properties>
    <property name="drawStretched" type="bool" value="false"/>
    <property name="segments" type="int" value="4"/>
    <property name="skin" type="int" value="1"/>
    <property name="width" type="float" value="1"/>
   </properties>
   <polyline points="0,0 0,48"/>
  </object>
  <object id="1766" class="rope" x="610" y="427">
   <properties>
    <property name="drawStretched" type="bool" value="false"/>
    <property name="segments" type="int" value="7"/>
    <property name="skin" type="int" value="4"/>
    <property name="width" type="float" value="1"/>
   </properties>
   <polyline points="0,0 0,48"/>
  </object>
  <object id="1767" class="rope" x="803" y="445">
   <properties>
    <property name="drawStretched" type="bool" value="false"/>
    <property name="segments" type="int" value="4"/>
    <property name="skin" type="int" value="1"/>
    <property name="width" type="float" value="1"/>
   </properties>
   <polyline points="0,0 0,48"/>
  </object>
  <object id="1768" class="rope" x="905" y="432">
   <properties>
    <property name="drawStretched" type="bool" value="false"/>
    <property name="segments" type="int" value="4"/>
    <property name="skin" type="int" value="1"/>
    <property name="width" type="float" value="1"/>
   </properties>
   <polyline points="0,0 0,48"/>
  </object>
  <object id="1769" class="rope" x="879" y="428">
   <properties>
    <property name="drawStretched" type="bool" value="false"/>
    <property name="segments" type="int" value="5"/>
    <property name="skin" type="int" value="1"/>
    <property name="width" type="float" value="1"/>
   </properties>
   <polyline points="0,0 0,48"/>
  </object>
  <object id="1770" class="rope" x="934" y="434">
   <properties>
    <property name="drawStretched" type="bool" value="false"/>
    <property name="segments" type="int" value="3"/>
    <property name="skin" type="int" value="1"/>
    <property name="width" type="float" value="1"/>
   </properties>
   <polyline points="0,0 0,48"/>
  </object>
  <object id="1771" class="rope" x="951" y="424">
   <properties>
    <property name="drawStretched" type="bool" value="false"/>
    <property name="segments" type="int" value="4"/>
    <property name="skin" type="int" value="1"/>
    <property name="width" type="float" value="1"/>
   </properties>
   <polyline points="0,0 0,48"/>
  </object>
  <object id="1772" class="rope" x="711" y="286">
   <properties>
    <property name="drawStretched" type="bool" value="false"/>
    <property name="segments" type="int" value="6"/>
    <property name="skin" type="int" value="4"/>
    <property name="width" type="float" value="1"/>
   </properties>
   <polyline points="0,0 0,48"/>
  </object>
  <object id="1773" class="rope" x="659" y="279">
   <properties>
    <property name="drawStretched" type="bool" value="false"/>
    <property name="segments" type="int" value="4"/>
    <property name="skin" type="int" value="4"/>
    <property name="width" type="float" value="1"/>
   </properties>
   <polyline points="0,0 0,48"/>
  </object>
  <object id="1774" class="rope" x="582" y="279">
   <properties>
    <property name="drawStretched" type="bool" value="false"/>
    <property name="segments" type="int" value="4"/>
    <property name="skin" type="int" value="1"/>
    <property name="width" type="float" value="1"/>
   </properties>
   <polyline points="0,0 0,48"/>
  </object>
  <object id="1775" class="rope" x="737" y="277">
   <properties>
    <property name="drawStretched" type="bool" value="false"/>
    <property name="segments" type="int" value="5"/>
    <property name="skin" type="int" value="4"/>
    <property name="width" type="float" value="1"/>
   </properties>
   <polyline points="0,0 0,48"/>
  </object>
  <object id="1776" class="rope" x="551" y="273">
   <properties>
    <property name="drawStretched" type="bool" value="false"/>
    <property name="segments" type="int" value="4"/>
    <property name="skin" type="int" value="1"/>
    <property name="width" type="float" value="1"/>
   </properties>
   <polyline points="0,0 0,48"/>
  </object>
  <object id="1777" class="rope" x="604" y="281">
   <properties>
    <property name="drawStretched" type="bool" value="false"/>
    <property name="segments" type="int" value="5"/>
    <property name="skin" type="int" value="1"/>
    <property name="width" type="float" value="1"/>
   </properties>
   <polyline points="0,0 0,48"/>
  </object>
  <object id="1778" class="rope" x="1029" y="279">
   <properties>
    <property name="drawStretched" type="bool" value="false"/>
    <property name="segments" type="int" value="4"/>
    <property name="skin" type="int" value="4"/>
    <property name="width" type="float" value="1"/>
   </properties>
   <polyline points="0,0 0,48"/>
  </object>
  <object id="1779" class="rope" x="840" y="274">
   <properties>
    <property name="drawStretched" type="bool" value="false"/>
    <property name="segments" type="int" value="5"/>
    <property name="skin" type="int" value="4"/>
    <property name="width" type="float" value="1"/>
   </properties>
   <polyline points="0,0 0,48"/>
  </object>
  <object id="1780" class="rope" x="1045" y="278">
   <properties>
    <property name="drawStretched" type="bool" value="false"/>
    <property name="segments" type="int" value="6"/>
    <property name="skin" type="int" value="1"/>
    <property name="width" type="float" value="1"/>
   </properties>
   <polyline points="0,0 0,48"/>
  </object>
  <object id="1781" class="rope" x="985" y="280">
   <properties>
    <property name="drawStretched" type="bool" value="false"/>
    <property name="segments" type="int" value="6"/>
    <property name="skin" type="int" value="1"/>
    <property name="width" type="float" value="1"/>
   </properties>
   <polyline points="0,0 0,48"/>
  </object>
  <object id="1782" class="rope" x="1122" y="287">
   <properties>
    <property name="drawStretched" type="bool" value="false"/>
    <property name="segments" type="int" value="7"/>
    <property name="skin" type="int" value="4"/>
    <property name="width" type="float" value="1"/>
   </properties>
   <polyline points="0,0 0,48"/>
  </object>
  <object id="1783" class="rope" x="379" y="219">
   <properties>
    <property name="drawStretched" type="bool" value="false"/>
    <property name="segments" type="int" value="6"/>
    <property name="skin" type="int" value="4"/>
    <property name="width" type="float" value="1"/>
   </properties>
   <polyline points="0,0 0,48"/>
  </object>
  <object id="1784" class="rope" x="327" y="195">
   <properties>
    <property name="drawStretched" type="bool" value="false"/>
    <property name="segments" type="int" value="5"/>
    <property name="skin" type="int" value="1"/>
    <property name="width" type="float" value="1"/>
   </properties>
   <polyline points="0,0 0,48"/>
  </object>
  <object id="1785" class="rope" x="414" y="225">
   <properties>
    <property name="drawStretched" type="bool" value="false"/>
    <property name="segments" type="int" value="4"/>
    <property name="skin" type="int" value="1"/>
    <property name="width" type="float" value="1"/>
   </properties>
   <polyline points="0,0 0,48"/>
  </object>
  <object id="1786" class="rope" x="363" y="201">
   <properties>
    <property name="drawStretched" type="bool" value="false"/>
    <property name="segments" type="int" value="4"/>
    <property name="skin" type="int" value="1"/>
    <property name="width" type="float" value="1"/>
   </properties>
   <polyline points="0,0 0,48"/>
  </object>
  <object id="1789" class="rope" x="1097" y="133">
   <properties>
    <property name="drawStretched" type="bool" value="false"/>
    <property name="segments" type="int" value="6"/>
    <property name="skin" type="int" value="4"/>
    <property name="width" type="float" value="1"/>
   </properties>
   <polyline points="0,0 0,48"/>
  </object>
  <object id="1790" class="rope" x="526" y="120">
   <properties>
    <property name="drawStretched" type="bool" value="false"/>
    <property name="segments" type="int" value="6"/>
    <property name="skin" type="int" value="4"/>
    <property name="width" type="float" value="1"/>
   </properties>
   <polyline points="0,0 0,48"/>
  </object>
  <object id="1791" class="rope" x="678" y="92">
   <properties>
    <property name="drawStretched" type="bool" value="false"/>
    <property name="segments" type="int" value="5"/>
    <property name="skin" type="int" value="1"/>
    <property name="width" type="float" value="1"/>
   </properties>
   <polyline points="0,0 0,48"/>
  </object>
  <object id="1792" class="rope" x="805" y="104">
   <properties>
    <property name="drawStretched" type="bool" value="false"/>
    <property name="segments" type="int" value="4"/>
    <property name="skin" type="int" value="1"/>
    <property name="width" type="float" value="1"/>
   </properties>
   <polyline points="0,0 0,48"/>
  </object>
  <object id="1793" class="rope" x="665" y="92">
   <properties>
    <property name="drawStretched" type="bool" value="false"/>
    <property name="segments" type="int" value="7"/>
    <property name="skin" type="int" value="4"/>
    <property name="width" type="float" value="1"/>
   </properties>
   <polyline points="0,0 0,48"/>
  </object>
  <object id="1794" class="rope" x="897" y="133">
   <properties>
    <property name="drawStretched" type="bool" value="false"/>
    <property name="segments" type="int" value="4"/>
    <property name="skin" type="int" value="1"/>
    <property name="width" type="float" value="1"/>
   </properties>
   <polyline points="0,0 0,48"/>
  </object>
  <object id="1795" class="rope" x="1145" y="130">
   <properties>
    <property name="drawStretched" type="bool" value="false"/>
    <property name="segments" type="int" value="4"/>
    <property name="skin" type="int" value="1"/>
    <property name="width" type="float" value="1"/>
   </properties>
   <polyline points="0,0 0,48"/>
  </object>
  <object id="1796" class="rope" x="1122" y="134">
   <properties>
    <property name="drawStretched" type="bool" value="false"/>
    <property name="segments" type="int" value="6"/>
    <property name="skin" type="int" value="4"/>
    <property name="width" type="float" value="1"/>
   </properties>
   <polyline points="0,0 0,48"/>
  </object>
 </objectgroup>
 <objectgroup color="#00ff00" id="4" name="nodegraph">
  <object id="179" class="node" x="352" y="672">
   <point/>
  </object>
  <object id="180" class="node" x="192" y="672">
   <point/>
  </object>
  <object id="181" class="node" x="144" y="800">
   <point/>
  </object>
  <object id="182" class="node" x="416" y="816">
   <point/>
  </object>
  <object id="183" class="node" x="608" y="816">
   <point/>
  </object>
  <object id="184" class="node" x="704" y="816">
   <point/>
  </object>
  <object id="185" class="node" x="1040" y="816">
   <point/>
  </object>
  <object id="186" class="node" x="1088" y="704">
   <point/>
  </object>
  <object id="187" class="node" x="1168" y="704">
   <point/>
  </object>
  <object id="188" class="node" x="1328" y="896">
   <point/>
  </object>
  <object id="189" class="node" x="1472" y="800">
   <point/>
  </object>
  <object id="190" class="node" x="1792" y="768">
   <point/>
  </object>
  <object id="191" class="node" x="2064" y="768">
   <point/>
  </object>
  <object id="192" class="node" x="2016" y="432">
   <point/>
  </object>
  <object id="193" class="node" x="1936" y="400">
   <point/>
  </object>
  <object id="194" class="node" x="1600" y="400">
   <point/>
  </object>
  <object id="195" class="node" x="1488" y="400">
   <point/>
  </object>
  <object id="196" class="node" x="1344" y="320">
   <point/>
  </object>
  <object id="201" class="node" x="224" y="240">
   <point/>
  </object>
  <object id="202" class="node" x="320" y="240">
   <point/>
  </object>
  <object id="203" class="node" x="544" y="336">
   <point/>
  </object>
  <object id="204" class="node" x="1072" y="336">
   <point/>
  </object>
  <object id="205" class="node" x="832" y="336">
   <point/>
  </object>
  <object id="206" class="node" x="1120" y="480">
   <point/>
  </object>
  <object id="207" class="node" x="1024" y="480">
   <point/>
  </object>
  <object id="208" class="node" x="896" y="592">
   <point/>
  </object>
  <object id="209" class="node" x="704" y="480">
   <point/>
  </object>
  <object id="210" class="node" x="704" y="592">
   <point/>
  </object>
  <object id="211" class="node" x="592" y="592">
   <point/>
  </object>
  <object id="212" class="node" x="624" y="480">
   <point/>
  </object>
  <object id="213" class="node" x="656" y="1088">
   <point/>
  </object>
  <object id="214" class="node" x="912" y="1088">
   <point/>
  </object>
  <object id="215" class="node" x="1168" y="1152">
   <point/>
  </object>
  <object id="216" class="node" x="1392" y="1056">
   <point/>
  </object>
  <object id="340" class="node" x="272" y="240">
   <point/>
  </object>
 </objectgroup>
</map>
