<?xml version="1.0" encoding="UTF-8"?>
<map version="1.9" tiledversion="1.9.1" orientation="orthogonal" renderorder="right-down" width="64" height="32" tilewidth="16" tileheight="16" infinite="1" nextlayerid="13" nextobjectid="224">
 <tileset firstgid="1" source="../til/devSet.tsx"/>
 <layer id="5" name="background" width="64" height="32" tintcolor="#433b35">
  <data encoding="csv">
   <chunk x="16" y="0" width="16" height="16">
0,0,0,0,0,0,0,0,0,0,0,0,0,0,0,0,
0,0,0,0,0,0,0,0,0,0,0,0,0,0,0,0,
0,0,0,0,0,0,0,0,0,0,0,0,0,0,0,0,
0,0,0,0,0,0,0,0,0,0,0,0,0,0,0,0,
0,0,0,0,0,0,0,0,0,0,0,0,0,0,0,0,
0,0,0,0,0,0,0,0,0,0,0,0,0,0,0,0,
0,0,0,0,0,0,0,0,0,0,0,0,0,0,0,0,
0,0,0,0,0,0,0,0,0,0,0,0,0,0,0,0,
0,0,0,0,0,0,0,0,0,0,0,0,0,0,0,0,
0,0,0,0,0,0,0,0,0,0,0,0,0,0,0,0,
0,0,0,0,0,0,0,0,0,0,0,0,0,0,0,0,
0,0,0,0,0,0,0,0,0,0,0,0,0,0,0,0,
0,0,0,0,0,71,71,71,71,71,71,71,71,71,71,71,
0,0,0,0,0,71,71,71,71,71,71,71,71,71,71,71,
0,0,0,0,0,71,71,71,71,71,71,71,71,71,71,71,
0,0,0,0,0,71,71,71,71,71,71,71,71,71,71,71
</chunk>
   <chunk x="32" y="0" width="16" height="16">
0,0,0,0,0,0,0,0,0,0,0,0,0,0,0,0,
0,0,0,0,0,0,0,0,0,0,0,0,0,0,0,0,
0,0,0,0,0,0,0,0,0,0,0,0,0,0,0,0,
0,0,0,0,0,0,0,0,0,0,0,0,0,0,0,0,
0,0,0,0,0,0,0,0,0,0,0,0,0,0,0,0,
0,0,0,0,0,0,0,0,0,0,0,0,0,0,0,0,
0,0,0,0,0,0,0,0,0,0,0,0,0,0,0,0,
0,0,0,0,0,0,0,0,0,0,0,0,0,0,0,0,
0,0,0,0,0,0,0,0,0,0,0,0,0,0,0,0,
0,0,0,0,0,0,0,0,0,0,0,0,0,0,0,0,
0,0,0,0,0,0,0,0,0,0,0,0,0,0,0,0,
0,0,0,0,0,0,0,0,0,0,0,0,0,0,0,0,
71,71,71,71,0,0,0,0,0,0,0,0,0,0,0,0,
71,71,71,71,71,0,0,0,0,0,0,0,0,0,0,0,
71,71,71,71,71,71,0,0,0,0,0,0,0,0,0,0,
71,71,71,71,71,71,71,0,0,0,0,0,0,0,0,0
</chunk>
   <chunk x="48" y="0" width="16" height="16">
0,0,0,0,0,0,0,0,0,0,0,0,0,0,0,0,
0,0,0,0,0,0,0,0,0,0,0,0,0,0,0,0,
0,0,0,0,0,0,0,0,0,0,0,0,0,0,0,0,
0,0,0,0,0,0,0,0,0,0,0,0,0,0,0,0,
0,0,0,0,0,0,0,0,0,0,0,0,0,0,0,0,
0,0,0,0,0,0,0,0,0,0,0,0,0,0,0,0,
0,0,0,0,0,0,0,0,0,0,0,0,0,0,0,0,
0,0,0,0,0,0,0,0,0,0,0,0,0,0,0,0,
0,0,0,0,0,0,0,0,0,0,0,0,0,0,0,0,
0,0,0,0,0,0,0,0,0,0,0,0,0,0,0,0,
0,0,0,0,0,0,0,0,0,0,0,0,0,0,0,0,
0,0,0,0,0,0,0,0,0,0,0,0,0,0,0,0,
0,0,0,0,0,0,0,0,0,0,0,0,0,0,0,0,
0,0,0,0,0,0,0,0,0,0,0,0,0,0,0,0,
0,0,0,0,0,0,0,0,0,0,0,0,0,0,0,0,
0,0,0,0,0,0,0,0,0,0,0,0,0,0,0,71
</chunk>
   <chunk x="64" y="0" width="16" height="16">
0,0,0,0,0,0,0,0,0,0,0,0,0,0,0,0,
0,0,0,0,0,0,0,0,0,0,0,0,0,0,0,0,
71,71,71,71,71,0,0,0,0,0,0,0,0,0,0,0,
71,71,71,71,71,0,0,0,0,0,0,0,0,0,0,0,
71,71,71,71,71,0,0,0,0,0,0,0,0,0,0,0,
71,71,71,71,71,0,0,0,0,0,0,0,0,0,0,0,
71,71,71,71,71,0,0,0,0,0,0,0,0,0,0,0,
71,71,71,71,71,0,0,0,0,0,0,0,0,0,0,0,
71,71,71,71,71,0,0,0,0,0,0,0,0,0,0,0,
71,71,71,71,71,0,0,0,0,0,0,0,0,0,0,0,
71,71,71,71,71,0,0,0,0,0,0,0,0,0,0,0,
71,71,71,71,71,0,0,0,0,0,0,0,0,0,0,0,
71,71,71,71,71,0,0,0,0,0,0,0,0,0,0,0,
71,71,71,71,71,0,0,0,0,0,0,0,0,0,0,0,
71,71,71,71,71,0,0,0,0,0,0,0,0,0,0,0,
71,71,71,71,71,0,0,0,0,0,0,0,0,0,0,0
</chunk>
   <chunk x="16" y="16" width="16" height="16">
0,0,0,0,0,71,71,71,71,71,71,71,71,71,71,71,
0,0,0,0,0,71,71,71,71,71,71,71,71,71,71,71,
0,0,0,0,0,71,71,71,71,71,71,71,71,71,71,71,
0,0,0,0,0,71,71,71,71,71,71,71,71,71,71,71,
0,0,0,0,0,71,71,71,71,71,71,71,71,71,71,71,
0,0,0,0,0,71,71,71,71,71,71,71,71,71,71,71,
0,0,0,0,0,71,71,71,71,71,71,71,71,71,71,71,
0,0,0,0,0,71,71,71,71,71,71,71,71,71,71,71,
0,0,0,0,0,71,71,71,71,71,71,71,71,71,71,71,
0,0,0,0,0,71,71,71,71,71,71,71,71,71,71,71,
0,0,0,0,0,71,71,71,71,71,71,71,71,71,71,71,
0,0,0,0,0,71,71,71,71,71,71,71,71,71,71,71,
0,0,0,0,0,71,71,71,71,71,71,71,71,71,71,71,
0,0,0,0,0,71,71,71,71,71,71,71,71,71,71,71,
0,0,0,0,0,71,71,71,71,71,71,71,71,71,71,71,
0,0,0,0,0,71,71,71,71,71,0,0,0,0,0,0
</chunk>
   <chunk x="32" y="16" width="16" height="16">
71,71,71,71,71,71,71,71,71,0,0,0,0,0,0,0,
71,71,71,71,71,71,71,71,71,71,0,0,0,0,0,0,
71,71,71,71,71,71,71,71,71,71,0,0,0,0,0,0,
71,71,71,71,71,71,71,71,71,71,0,0,0,0,0,0,
71,71,71,71,71,71,71,71,71,71,0,0,0,0,0,0,
71,71,71,71,71,71,71,71,71,71,0,0,0,0,0,0,
71,71,71,71,71,71,71,71,71,71,0,0,0,0,0,0,
71,71,71,71,71,71,71,71,71,71,0,0,0,0,0,0,
71,71,71,71,71,71,71,71,71,71,71,71,71,71,71,71,
71,71,71,71,71,71,71,71,71,71,71,71,71,71,71,71,
71,71,71,71,71,71,71,71,71,71,71,71,71,71,71,71,
71,71,71,71,71,71,71,71,71,71,71,71,71,71,71,71,
71,71,71,71,71,71,71,71,71,71,71,71,71,71,71,71,
71,71,71,71,71,71,71,71,71,71,71,71,71,71,71,71,
71,71,71,71,71,71,71,71,71,71,71,71,71,71,71,71,
0,0,0,0,0,0,0,0,0,0,0,0,0,0,0,0
</chunk>
   <chunk x="48" y="16" width="16" height="16">
0,0,0,0,0,0,0,0,0,0,0,0,0,71,71,71,
0,0,0,0,0,0,0,0,0,0,0,0,0,71,71,71,
0,0,0,0,0,0,0,0,0,0,0,0,71,71,71,71,
0,0,0,0,0,0,0,0,0,0,0,0,71,71,71,71,
0,0,0,0,0,0,0,0,0,0,0,0,71,71,71,71,
0,0,0,0,0,0,0,0,0,0,0,71,71,71,71,71,
0,0,0,0,0,0,0,0,0,0,0,71,71,71,71,71,
0,0,0,0,0,0,0,0,0,0,0,71,71,71,71,71,
71,71,71,71,71,71,71,71,71,71,71,71,71,71,71,71,
71,71,71,71,71,71,71,71,71,71,71,71,71,71,71,71,
71,71,71,71,71,71,71,71,71,71,71,71,71,71,71,71,
71,71,71,71,71,71,71,71,71,71,71,71,71,71,71,71,
71,71,71,71,71,71,71,71,71,71,71,71,71,71,71,71,
71,71,71,71,71,71,71,71,71,71,71,71,71,71,71,71,
71,71,71,71,71,71,71,71,71,71,71,71,71,71,71,71,
0,0,0,0,0,0,0,0,0,0,0,0,0,0,0,0
</chunk>
   <chunk x="64" y="16" width="16" height="16">
71,71,71,71,71,71,71,71,0,0,0,0,0,0,0,0,
71,71,71,71,71,71,71,71,0,0,0,0,0,0,0,0,
71,71,71,71,71,71,71,71,71,0,0,0,0,0,0,0,
71,71,71,71,71,71,71,71,71,0,0,0,0,0,0,0,
71,71,71,71,71,71,71,71,71,0,0,0,0,0,0,0,
71,71,71,71,71,71,71,71,71,71,0,0,0,0,0,0,
71,71,71,71,71,71,71,71,71,71,0,0,0,0,0,0,
71,71,71,71,71,71,71,71,71,71,0,0,0,0,0,0,
71,71,71,71,71,71,71,71,71,71,71,71,71,71,71,71,
71,71,71,71,71,71,71,71,71,71,71,71,71,71,71,71,
71,71,71,71,71,71,71,71,71,71,71,71,71,71,71,71,
71,71,71,71,71,71,71,71,71,71,71,71,71,71,71,71,
71,71,71,71,71,71,71,71,71,71,71,71,71,71,71,71,
71,71,71,71,71,71,71,71,71,71,71,71,71,71,71,71,
71,71,71,71,71,71,71,71,71,71,71,71,71,71,71,71,
0,0,0,0,0,0,0,0,0,0,0,0,0,0,0,0
</chunk>
   <chunk x="80" y="16" width="16" height="16">
0,0,0,0,0,0,0,0,0,0,0,0,0,0,0,0,
0,0,0,0,0,0,0,0,0,0,0,0,0,0,0,0,
0,0,0,0,0,0,0,0,0,0,0,0,0,0,0,0,
0,0,0,0,0,0,0,0,0,0,0,0,0,0,0,0,
0,0,0,0,0,0,0,0,0,0,0,0,0,0,0,0,
0,0,0,0,0,0,0,0,0,0,0,0,0,0,0,0,
0,0,0,0,0,0,0,0,0,0,0,0,0,0,0,0,
0,0,0,0,0,0,0,0,0,0,0,0,0,0,0,0,
71,71,71,71,71,0,0,0,0,0,0,0,0,0,0,0,
71,71,71,71,71,0,0,0,0,0,0,0,0,0,0,0,
71,71,71,71,71,0,0,0,0,0,0,0,0,0,0,0,
71,71,71,71,71,0,0,0,0,0,0,0,0,0,0,0,
71,71,71,71,71,0,0,0,0,0,0,0,0,0,0,0,
71,71,71,71,71,0,0,0,0,0,0,0,0,0,0,0,
71,71,71,71,71,0,0,0,0,0,0,0,0,0,0,0,
0,0,0,0,0,0,0,0,0,0,0,0,0,0,0,0
</chunk>
   <chunk x="16" y="32" width="16" height="16">
0,0,0,0,0,71,71,71,71,71,0,0,0,0,0,0,
0,0,0,0,0,71,71,71,71,71,0,0,0,0,0,0,
0,0,0,0,0,71,71,71,71,71,0,0,0,0,0,0,
0,0,0,0,0,71,71,71,71,71,0,0,71,71,71,71,
0,0,0,0,0,71,71,71,71,71,0,0,71,71,71,71,
0,0,0,0,0,71,71,71,71,71,0,0,71,71,71,71,
0,0,0,0,0,71,71,71,71,71,0,0,71,71,71,71,
0,0,0,0,0,71,71,71,71,71,71,71,71,71,71,71,
0,0,0,0,0,71,71,71,71,71,71,71,71,71,71,71,
0,0,0,0,0,71,71,71,71,71,71,71,71,71,71,71,
0,0,0,0,0,71,71,71,71,71,71,71,71,71,71,71,
0,0,0,0,0,71,71,71,71,71,71,71,71,71,71,71,
0,0,0,0,0,71,71,71,71,71,71,71,71,71,71,71,
0,0,0,0,0,71,71,71,71,71,71,71,71,71,71,71,
0,0,0,0,0,0,0,0,0,0,0,0,71,71,71,71,
0,0,0,0,0,0,0,0,0,0,0,0,71,71,71,71
</chunk>
   <chunk x="32" y="32" width="16" height="16">
0,0,0,0,0,0,0,0,0,0,0,0,0,0,0,0,
0,0,0,0,0,0,0,0,0,0,0,0,0,0,0,0,
0,0,0,0,0,0,0,0,0,0,0,0,0,0,0,0,
71,71,71,71,71,71,71,71,71,71,71,71,71,71,71,71,
71,71,71,71,71,71,71,71,71,71,71,71,71,71,71,71,
71,71,71,71,71,71,71,71,71,71,71,71,71,71,71,71,
71,71,71,71,71,71,71,71,71,71,71,71,71,71,71,71,
71,71,71,71,71,71,71,71,71,71,71,71,71,71,71,71,
71,71,71,71,71,71,71,71,71,71,71,71,71,71,71,71,
71,71,71,71,71,71,71,71,71,71,71,71,71,71,71,71,
71,71,71,71,71,71,71,71,71,71,71,71,71,71,71,71,
71,71,71,71,71,71,71,71,71,71,71,71,71,71,71,71,
71,71,71,71,71,71,71,71,71,71,71,71,71,71,71,71,
71,71,71,71,71,71,71,71,71,71,71,71,71,71,71,71,
71,71,71,71,71,71,71,71,71,71,71,71,71,71,71,71,
71,71,71,71,71,71,71,71,71,71,71,71,71,71,71,71
</chunk>
   <chunk x="48" y="32" width="16" height="16">
0,0,0,0,0,0,0,0,0,0,0,0,0,0,0,0,
0,0,0,0,0,0,0,0,0,0,0,0,0,0,0,0,
0,0,0,0,0,0,0,0,0,0,0,0,0,0,0,0,
71,71,71,71,0,0,0,0,0,0,0,0,0,0,0,0,
71,71,71,71,0,0,0,0,0,0,0,0,0,0,0,0,
71,71,71,71,0,0,0,0,0,0,0,0,0,0,0,0,
71,71,71,71,0,0,0,0,0,0,0,0,0,0,0,0,
71,71,71,71,71,71,71,71,71,71,71,71,71,71,71,71,
71,71,71,71,71,71,71,71,71,71,71,71,71,71,71,71,
71,71,71,71,71,71,71,71,71,71,71,71,71,71,71,71,
71,71,71,71,71,71,71,71,71,71,71,71,71,71,71,71,
71,71,71,71,71,71,71,71,71,71,71,71,71,71,71,71,
71,71,71,71,71,71,71,71,71,71,71,71,71,71,71,71,
71,71,71,71,71,71,71,71,71,71,71,71,71,0,0,0,
71,71,71,71,71,71,71,71,71,71,71,71,0,0,0,0,
71,71,71,71,71,71,71,71,71,71,71,71,0,0,0,0
</chunk>
   <chunk x="64" y="32" width="16" height="16">
0,0,0,0,0,0,0,0,0,0,0,0,0,0,0,0,
0,0,0,0,0,0,0,0,0,0,0,0,0,0,0,0,
0,0,0,0,71,71,71,71,71,71,71,71,71,71,71,71,
0,0,0,0,71,71,71,71,71,71,71,71,71,71,71,71,
0,0,0,0,71,71,71,71,71,71,71,71,71,71,71,71,
0,0,0,0,71,71,71,71,71,71,71,71,71,71,71,71,
0,0,0,0,71,71,71,71,71,71,71,71,71,71,71,71,
71,71,71,71,71,71,71,71,71,71,71,71,71,71,71,71,
71,71,71,71,71,71,71,71,71,71,71,71,71,71,71,71,
71,71,71,71,71,71,71,71,71,71,71,71,71,71,71,71,
71,71,71,71,71,71,71,71,71,71,71,71,71,71,71,71,
71,71,71,71,71,71,71,71,71,71,71,71,71,71,71,71,
71,71,71,71,71,71,71,71,71,71,71,71,71,71,71,71,
0,0,0,0,71,71,71,71,71,71,71,71,71,71,71,71,
0,0,0,0,71,71,71,71,71,71,71,71,71,71,71,71,
0,0,0,0,71,71,71,71,71,71,71,71,71,71,71,71
</chunk>
   <chunk x="80" y="32" width="16" height="16">
0,0,0,0,0,0,0,0,0,0,0,0,0,0,0,0,
0,0,0,0,0,0,0,0,0,0,0,0,0,0,0,0,
71,71,71,0,0,0,0,0,0,0,0,0,0,0,0,0,
71,71,71,0,0,0,0,0,0,0,0,0,0,0,0,0,
71,71,71,0,0,0,0,0,0,0,0,0,0,0,0,0,
71,71,71,0,0,0,0,0,0,0,0,0,0,0,0,0,
71,71,71,0,0,0,0,0,0,0,0,0,0,0,0,0,
71,71,71,0,0,0,0,0,0,0,0,0,0,0,0,0,
71,71,71,0,0,0,0,0,0,0,0,0,0,0,0,0,
71,71,71,0,0,0,0,0,0,0,0,0,0,0,0,0,
71,71,71,0,0,0,0,0,0,0,0,0,0,0,0,0,
71,71,71,71,71,71,71,71,71,71,71,71,0,0,0,0,
71,71,71,71,71,71,71,71,71,71,71,71,0,0,0,0,
71,71,71,71,71,71,71,71,71,71,71,71,0,0,0,0,
71,71,71,71,71,71,71,71,71,71,71,71,0,0,0,0,
71,71,71,71,71,71,71,71,71,71,71,71,0,0,0,0
</chunk>
   <chunk x="16" y="48" width="16" height="16">
0,0,0,0,0,0,0,0,0,0,0,0,71,71,71,71,
0,0,0,0,0,0,0,0,0,0,0,0,71,71,71,71,
0,0,0,0,0,0,0,0,0,0,0,0,71,71,71,71,
0,0,0,0,0,0,0,0,0,0,0,0,71,71,71,71,
0,0,0,0,0,0,0,0,0,0,0,0,71,71,71,71,
0,0,0,0,0,0,0,0,0,0,0,0,71,71,71,71,
0,0,0,0,0,0,0,0,0,0,0,0,71,71,71,71,
0,0,0,0,0,0,0,0,0,0,0,0,0,0,0,0,
0,0,0,0,0,0,0,0,0,0,0,0,0,0,0,0,
0,0,71,71,71,71,71,71,71,71,71,71,71,71,71,71,
0,0,71,71,71,71,71,71,71,71,71,71,71,71,71,71,
0,0,71,71,71,71,71,71,71,71,71,71,71,71,71,71,
0,0,71,71,71,71,71,71,71,71,71,71,71,71,71,71,
0,0,71,71,71,71,71,71,71,71,71,71,71,71,71,71,
0,0,71,71,71,71,71,71,71,71,71,71,71,71,71,71,
0,0,71,71,71,71,71,71,71,71,0,0,0,0,0,71
</chunk>
   <chunk x="32" y="48" width="16" height="16">
71,71,71,71,71,71,71,71,71,71,71,71,71,71,71,71,
71,71,71,71,71,71,71,71,71,71,71,71,71,71,71,71,
71,71,71,71,71,71,71,71,71,71,71,71,71,71,71,71,
71,71,71,71,71,71,71,71,71,71,71,71,71,71,71,71,
71,71,71,71,71,71,71,71,71,71,71,71,71,71,71,71,
71,71,71,71,71,71,71,71,71,71,71,71,71,71,71,71,
71,71,71,71,71,71,71,71,71,71,71,71,71,71,71,71,
0,0,0,0,0,0,0,0,0,0,0,0,0,0,0,0,
0,0,0,0,0,0,0,0,0,0,0,0,0,0,0,0,
71,71,71,71,71,71,71,71,71,71,71,71,71,71,71,71,
71,71,71,71,71,71,71,71,71,71,71,71,71,71,71,71,
71,71,71,71,71,71,71,71,71,71,71,71,71,71,71,71,
71,71,71,71,71,71,71,71,71,71,71,71,71,71,71,71,
71,71,71,71,71,71,71,71,71,71,71,71,71,71,71,71,
71,71,71,71,71,71,71,71,71,71,71,71,71,71,71,71,
71,71,71,71,71,71,71,71,71,71,71,71,71,71,71,71
</chunk>
   <chunk x="48" y="48" width="16" height="16">
71,71,71,71,71,71,71,71,71,71,71,71,0,0,0,0,
71,71,71,71,71,71,71,71,71,71,71,71,0,0,0,0,
71,71,71,71,71,71,71,71,71,71,71,71,0,0,0,0,
71,71,71,71,71,71,71,71,71,71,71,71,0,0,0,0,
71,71,71,71,71,71,71,71,71,71,71,71,0,0,0,0,
71,71,71,71,71,71,71,71,71,71,71,71,0,0,0,0,
71,71,71,71,71,71,71,71,71,71,71,71,0,0,0,0,
0,0,0,0,0,0,0,0,0,0,0,0,0,0,0,0,
0,0,0,0,0,0,0,0,0,0,0,0,0,0,0,0,
71,71,71,71,71,71,71,71,71,71,71,71,71,71,71,71,
71,71,71,71,71,71,71,71,71,71,71,71,71,71,71,71,
71,71,71,71,71,71,71,71,71,71,71,71,71,71,71,71,
71,71,71,71,71,71,71,71,71,71,71,71,71,71,71,71,
71,71,71,71,71,71,71,71,71,71,71,71,71,71,71,71,
71,71,71,71,71,71,71,71,71,71,71,71,71,71,71,71,
71,71,71,71,71,0,0,0,0,0,71,71,71,71,0,0
</chunk>
   <chunk x="64" y="48" width="16" height="16">
0,0,0,0,71,71,71,71,71,71,71,71,71,71,71,71,
0,0,0,0,71,71,71,71,71,71,71,71,71,71,71,71,
0,0,0,0,0,0,0,0,0,0,0,0,0,0,0,0,
0,0,0,0,0,0,0,0,0,0,0,0,0,0,0,0,
0,0,0,0,0,0,0,0,0,0,0,0,0,0,0,0,
0,0,0,0,0,0,0,0,0,0,0,0,0,0,0,0,
0,0,0,0,0,0,0,0,0,0,0,0,0,0,0,0,
0,0,0,0,0,0,0,0,0,0,0,0,0,0,0,0,
0,0,0,0,0,0,0,0,0,0,0,0,0,0,0,0,
71,71,71,71,71,71,71,71,71,71,0,0,0,0,0,0,
71,71,71,71,71,71,71,71,71,71,0,0,0,0,0,0,
71,71,71,71,71,71,71,71,71,71,0,0,0,0,0,0,
71,71,71,71,71,71,71,71,71,71,0,0,0,0,0,0,
71,71,71,71,71,71,71,71,71,71,0,0,0,0,0,0,
71,71,71,71,71,71,71,71,71,71,0,0,0,0,0,0,
0,0,0,0,0,0,0,0,0,0,0,0,0,0,0,0
</chunk>
   <chunk x="80" y="48" width="16" height="16">
71,71,71,71,71,71,71,71,71,71,71,71,0,0,0,0,
71,71,71,71,71,71,71,71,71,71,71,71,0,0,0,0,
0,0,0,0,0,0,0,0,71,71,71,71,0,0,0,0,
0,0,0,0,0,0,0,0,71,71,71,71,0,0,0,0,
0,0,0,0,0,0,0,0,71,71,71,71,0,0,0,0,
0,0,0,0,0,0,0,0,71,71,71,71,0,0,0,0,
0,0,0,0,0,0,0,0,71,71,71,71,0,0,0,0,
0,0,0,71,71,71,71,71,71,71,71,71,0,0,0,0,
0,0,0,71,71,71,71,71,71,71,71,71,0,0,0,0,
0,0,0,71,71,71,71,71,71,71,71,71,0,0,0,0,
0,0,0,71,71,71,71,71,71,71,71,71,0,0,0,0,
0,0,0,71,71,71,71,71,71,71,71,71,0,0,0,0,
0,0,0,71,71,71,71,71,71,71,71,71,0,0,0,0,
0,0,0,71,71,71,71,71,71,71,71,71,0,0,0,0,
0,0,0,0,0,0,0,0,71,71,71,71,0,0,0,0,
0,0,0,0,0,0,0,0,71,71,71,71,0,0,0,0
</chunk>
   <chunk x="0" y="64" width="16" height="16">
0,0,0,0,0,0,0,0,0,0,0,0,0,0,0,0,
0,0,0,0,0,0,0,0,0,0,0,0,0,0,0,0,
0,0,0,0,0,0,0,71,71,71,71,71,71,71,71,71,
0,0,0,0,0,0,0,71,71,71,71,71,71,71,71,71,
0,0,0,0,0,0,0,71,71,71,71,71,71,71,71,71,
0,0,0,0,0,0,0,71,71,71,71,71,71,71,71,71,
0,0,0,0,0,0,0,71,71,71,71,71,71,71,71,71,
0,0,0,0,0,0,0,71,71,71,71,71,71,71,71,71,
0,0,0,0,0,0,0,71,71,71,71,71,0,0,0,0,
0,0,0,0,0,0,0,71,71,71,71,71,0,0,0,0,
0,0,0,0,0,0,0,71,71,71,71,71,0,0,0,0,
0,0,0,0,0,0,0,71,71,71,71,71,0,0,0,0,
0,0,0,0,0,0,0,71,71,71,71,71,0,0,0,0,
0,0,0,0,0,0,0,0,0,0,0,0,0,0,0,0,
0,0,0,0,0,0,0,0,0,0,0,0,0,0,0,0,
0,0,0,0,0,0,0,0,0,0,0,0,0,0,0,0
</chunk>
   <chunk x="16" y="64" width="16" height="16">
0,0,71,71,71,71,71,71,71,71,0,0,0,0,0,71,
0,0,71,71,71,71,71,71,71,71,0,0,0,0,0,71,
71,71,71,71,71,71,71,71,71,71,71,71,71,71,71,71,
71,71,71,71,71,71,71,71,71,71,71,71,71,71,71,71,
71,71,71,71,71,71,71,71,71,71,71,71,71,71,71,71,
71,71,71,71,71,71,71,71,71,71,71,71,71,71,71,71,
71,71,71,71,71,71,71,71,71,71,71,71,71,71,71,71,
71,71,71,71,71,71,71,71,71,71,71,71,71,71,71,71,
0,0,71,71,71,71,71,71,71,71,71,71,71,71,71,71,
0,0,71,71,71,71,71,71,71,71,71,71,71,71,71,71,
0,0,71,71,71,71,71,71,71,71,71,71,71,71,71,71,
0,0,71,71,71,71,71,71,71,71,71,71,71,71,71,71,
0,0,71,71,71,71,71,71,71,71,71,71,71,71,71,71,
0,0,0,0,0,71,71,71,71,71,71,71,71,71,71,71,
0,0,0,0,0,71,71,71,71,71,71,71,71,71,71,71,
0,0,0,0,0,71,71,71,71,71,71,71,71,71,71,71
</chunk>
   <chunk x="32" y="64" width="16" height="16">
71,71,71,71,71,71,71,71,71,71,71,71,71,71,71,71,
71,71,71,71,71,71,71,71,71,71,71,71,71,71,71,71,
71,71,71,71,71,71,71,71,71,71,71,71,71,71,71,71,
71,71,71,71,71,71,71,71,71,71,71,71,71,71,71,71,
71,71,71,71,71,71,71,71,71,71,71,71,0,0,0,0,
71,71,71,71,71,71,71,71,71,71,71,71,0,0,0,0,
71,71,71,71,71,71,71,71,71,71,71,71,0,0,0,0,
71,71,71,71,71,71,71,71,71,71,71,71,0,0,0,0,
71,71,71,71,71,71,71,71,71,71,71,71,0,0,0,0,
71,71,71,71,71,71,71,71,71,71,71,71,0,0,0,0,
71,71,71,71,71,71,71,71,71,71,71,71,0,0,0,0,
71,71,71,71,71,71,71,71,71,71,71,71,0,0,0,0,
71,71,71,71,71,71,71,71,71,71,71,71,0,0,0,0,
71,71,71,71,71,71,71,71,71,71,71,71,71,71,71,71,
71,71,71,71,71,71,71,71,71,71,71,71,71,71,71,71,
71,71,71,71,71,71,71,71,71,71,71,71,71,71,71,71
</chunk>
   <chunk x="48" y="64" width="16" height="16">
71,71,71,71,71,0,0,0,0,0,71,71,71,71,0,0,
71,71,71,71,71,0,0,0,0,0,71,71,71,71,0,0,
71,71,71,71,71,0,0,0,0,0,71,71,71,71,0,0,
71,71,71,71,71,0,0,0,0,0,71,71,71,71,0,0,
0,71,71,71,71,0,0,0,0,0,71,71,71,71,0,0,
0,71,71,71,71,0,0,0,0,0,71,71,71,71,0,0,
0,71,71,71,71,0,0,0,0,0,71,71,71,71,0,0,
0,71,71,71,71,0,0,0,0,0,71,71,71,71,0,0,
0,71,71,71,71,0,0,0,0,0,71,71,71,71,0,0,
0,71,71,71,71,0,0,0,0,0,71,71,71,71,71,71,
0,71,71,71,71,0,0,0,0,0,71,71,71,71,71,71,
0,71,71,71,71,0,0,0,0,0,71,71,71,71,71,71,
0,71,71,71,71,0,0,0,0,0,71,71,71,71,71,71,
71,71,71,71,71,0,0,0,0,0,71,71,71,71,71,71,
71,71,71,71,71,0,0,0,0,0,71,71,71,71,71,71,
71,71,71,71,71,0,0,0,0,0,71,71,71,71,71,71
</chunk>
   <chunk x="64" y="64" width="16" height="16">
0,0,0,0,0,0,0,0,0,0,0,0,0,0,0,0,
0,0,0,0,0,0,0,0,0,0,0,0,0,0,0,0,
0,0,0,0,0,0,0,0,0,0,0,0,0,0,0,0,
0,0,0,0,0,0,0,0,0,0,0,0,0,0,0,0,
0,0,0,0,0,0,0,0,0,0,0,0,0,0,0,0,
0,0,0,0,0,71,71,71,71,71,71,71,71,71,71,71,
0,0,0,71,71,71,71,71,71,71,71,71,71,71,71,71,
0,0,71,71,71,71,71,71,71,71,71,71,71,71,71,71,
0,0,71,71,71,71,71,71,71,71,71,71,71,71,71,71,
71,71,71,71,71,71,71,71,71,71,71,71,71,71,71,71,
71,71,71,71,71,71,71,71,71,71,71,71,71,71,71,71,
71,71,71,71,71,71,71,71,71,71,71,71,71,71,71,71,
71,71,71,71,71,71,71,71,71,71,71,71,71,71,71,71,
71,71,71,71,71,71,71,71,71,71,71,71,71,71,71,71,
71,71,71,71,71,71,71,71,71,71,71,71,71,71,71,71,
71,71,71,71,71,71,71,71,71,71,71,71,71,71,71,71
</chunk>
   <chunk x="80" y="64" width="16" height="16">
0,0,0,0,0,0,0,0,71,71,71,71,0,0,0,0,
0,0,0,0,0,0,0,0,71,71,71,71,0,0,0,0,
0,0,0,0,0,0,0,0,71,71,71,71,0,0,0,0,
0,0,0,0,0,0,0,0,71,71,71,71,0,0,0,0,
0,0,0,0,0,0,0,0,71,71,71,71,0,0,0,0,
71,71,71,71,71,71,0,0,71,71,71,71,0,0,0,0,
71,71,71,71,71,71,0,0,71,71,71,71,0,0,0,0,
71,71,71,71,71,71,0,0,71,71,71,71,0,0,0,0,
71,71,71,71,71,71,0,0,71,71,71,71,0,0,0,0,
71,71,71,71,71,71,0,0,71,71,71,71,0,0,0,0,
71,71,71,71,71,71,0,0,71,71,71,71,0,0,0,0,
71,71,71,71,71,71,0,0,71,71,71,71,0,0,0,0,
71,71,71,71,71,71,0,0,71,71,71,71,0,0,0,0,
71,71,71,71,71,71,71,71,71,71,71,71,0,0,0,0,
71,71,71,71,71,71,71,71,71,71,71,71,0,0,0,0,
71,71,71,71,71,71,71,71,71,71,71,71,0,0,0,0
</chunk>
   <chunk x="16" y="80" width="16" height="16">
0,0,0,0,0,71,71,71,71,71,71,71,71,71,71,71,
0,0,0,0,0,71,71,71,71,71,71,71,71,71,71,71,
0,0,0,0,0,71,71,71,71,71,71,71,71,71,71,71,
71,71,71,71,71,71,71,71,71,71,71,71,71,71,71,71,
71,71,71,71,71,71,71,71,71,71,71,71,71,71,71,71,
71,71,71,71,71,71,71,71,71,71,71,71,71,71,71,71,
71,71,71,71,71,71,71,71,71,71,71,71,71,71,71,71,
71,71,71,71,71,71,71,71,71,71,71,71,71,71,71,71,
71,71,71,71,71,71,71,71,71,71,71,71,71,71,71,71,
71,71,71,71,71,71,71,71,71,71,71,71,71,71,71,71,
71,71,71,71,71,71,71,71,71,71,71,71,71,71,71,71,
0,0,0,0,0,0,0,0,0,0,0,0,0,0,0,0,
0,0,0,0,0,0,0,0,0,0,0,0,0,0,0,0,
0,0,0,0,0,0,0,0,0,0,0,0,0,0,0,0,
0,0,0,0,0,0,0,0,0,0,0,0,0,0,0,0,
0,0,0,0,0,0,0,0,0,0,0,0,0,0,0,0
</chunk>
   <chunk x="32" y="80" width="16" height="16">
71,71,71,71,71,71,71,71,71,71,71,71,71,71,71,71,
71,71,71,71,71,71,71,71,71,71,71,71,71,71,71,71,
71,71,71,71,71,71,71,71,71,71,71,71,71,71,71,71,
71,71,71,71,71,71,71,71,71,71,71,71,71,71,71,71,
71,71,71,71,71,71,71,71,71,71,71,71,71,71,71,71,
71,71,71,71,71,71,71,71,71,71,71,71,71,71,71,71,
71,71,71,71,71,71,71,71,71,71,71,71,71,71,71,71,
71,71,71,71,71,71,71,71,71,71,71,71,71,71,71,71,
71,71,71,71,71,71,71,71,71,71,71,71,71,71,71,71,
71,71,71,71,71,71,71,71,71,71,71,71,71,71,71,71,
71,71,71,71,71,71,71,71,71,71,71,71,71,71,71,71,
0,0,0,0,0,0,0,0,0,0,0,0,0,0,0,0,
0,0,0,0,0,0,0,0,0,0,0,0,0,0,0,0,
0,0,0,0,0,0,0,0,0,0,0,0,0,0,0,0,
0,0,0,0,0,0,0,0,0,0,0,0,0,0,0,0,
0,0,0,0,0,0,0,0,0,0,0,0,0,0,0,0
</chunk>
   <chunk x="48" y="80" width="16" height="16">
71,71,71,71,71,0,0,0,0,0,71,71,71,71,71,71,
71,71,71,71,71,0,0,0,0,0,71,71,71,71,71,71,
71,71,71,71,71,0,0,0,0,0,0,0,0,0,71,71,
71,71,71,71,71,0,0,0,0,0,0,0,0,0,71,71,
71,71,71,71,71,0,0,0,0,0,0,0,0,0,71,71,
71,71,71,71,71,0,0,0,0,0,0,0,0,0,71,71,
71,71,71,71,71,0,0,0,0,0,0,0,0,0,71,71,
71,71,71,71,71,0,0,0,0,0,0,0,0,0,71,71,
71,71,71,71,71,0,0,0,0,0,0,0,0,0,0,0,
71,71,71,71,71,0,0,0,0,0,0,0,0,0,0,0,
71,71,71,71,71,0,0,0,0,0,0,0,0,0,0,0,
0,0,0,0,0,0,0,0,0,0,0,0,0,0,0,0,
0,0,0,0,0,0,0,0,0,0,0,0,0,0,0,0,
0,0,0,0,0,0,0,0,0,0,0,0,0,0,0,0,
0,0,0,0,0,0,0,0,0,0,0,0,0,0,0,0,
0,0,0,0,0,0,0,0,0,0,0,0,0,0,0,0
</chunk>
   <chunk x="64" y="80" width="16" height="16">
71,71,71,71,71,71,71,71,71,71,71,71,71,71,71,71,
71,71,71,71,71,71,71,71,71,71,71,71,71,71,71,71,
71,71,71,71,71,71,71,71,71,71,71,71,71,71,71,71,
71,71,71,71,71,71,71,71,71,71,71,71,71,71,71,71,
71,71,71,71,71,71,71,71,71,71,71,71,71,71,71,71,
71,71,71,71,71,71,71,71,71,71,71,71,71,71,71,71,
71,71,71,71,71,71,71,71,71,71,71,71,71,71,71,71,
71,71,71,71,71,71,71,71,71,71,71,71,71,71,71,71,
0,0,0,0,0,0,0,0,0,0,0,0,0,0,0,0,
0,0,0,0,0,0,0,0,0,0,0,0,0,0,0,0,
0,0,0,0,0,0,0,0,0,0,0,0,0,0,0,0,
0,0,0,0,0,0,0,0,0,0,0,0,0,0,0,0,
0,0,0,0,0,0,0,0,0,0,0,0,0,0,0,0,
0,0,0,0,0,0,0,0,0,0,0,0,0,0,0,0,
0,0,0,0,0,0,0,0,0,0,0,0,0,0,0,0,
0,0,0,0,0,0,0,0,0,0,0,0,0,0,0,0
</chunk>
   <chunk x="80" y="80" width="16" height="16">
71,71,71,71,71,71,71,71,71,71,71,71,0,0,0,0,
71,71,71,71,71,71,71,71,71,71,71,71,0,0,0,0,
71,71,71,71,71,71,71,71,71,71,71,71,0,0,0,0,
71,71,71,71,71,71,71,71,71,71,71,71,0,0,0,0,
71,71,71,71,71,71,71,71,71,71,71,71,0,0,0,0,
71,71,71,71,71,71,71,71,71,71,71,71,0,0,0,0,
71,71,71,0,0,0,0,0,0,0,0,0,0,0,0,0,
71,71,71,0,0,0,0,0,0,0,0,0,0,0,0,0,
0,0,0,0,0,0,0,0,0,0,0,0,0,0,0,0,
0,0,0,0,0,0,0,0,0,0,0,0,0,0,0,0,
0,0,0,0,0,0,0,0,0,0,0,0,0,0,0,0,
0,0,0,0,0,0,0,0,0,0,0,0,0,0,0,0,
0,0,0,0,0,0,0,0,0,0,0,0,0,0,0,0,
0,0,0,0,0,0,0,0,0,0,0,0,0,0,0,0,
0,0,0,0,0,0,0,0,0,0,0,0,0,0,0,0,
0,0,0,0,0,0,0,0,0,0,0,0,0,0,0,0
</chunk>
  </data>
 </layer>
 <layer id="1" name="ground" width="64" height="32">
  <data encoding="csv"/>
 </layer>
 <layer id="2" name="collision" width="64" height="32">
  <data encoding="csv">
   <chunk x="0" y="0" width="16" height="16">
71,71,71,71,71,71,71,71,71,71,71,71,71,71,71,71,
71,71,71,71,71,71,71,71,71,71,71,71,71,71,71,71,
71,71,71,71,71,71,71,71,71,71,71,71,71,71,71,71,
71,71,71,71,71,71,71,71,71,71,71,71,71,71,71,71,
71,71,71,71,71,71,71,71,71,71,71,71,71,71,71,71,
71,71,71,71,71,71,71,71,71,71,71,71,71,71,71,71,
71,71,71,71,71,71,71,71,71,71,71,71,71,71,71,71,
71,71,71,71,71,71,71,71,71,71,71,71,71,71,71,71,
71,71,71,71,71,71,71,71,71,71,71,71,71,71,71,71,
71,71,71,71,71,71,71,71,71,71,71,71,71,71,71,71,
71,71,71,71,71,71,71,71,71,71,71,71,71,71,71,71,
71,71,71,71,71,71,71,71,71,71,71,71,71,71,71,71,
71,71,71,71,71,71,71,71,71,71,71,71,71,71,71,71,
71,71,71,71,71,71,71,71,71,71,71,71,71,71,71,71,
71,71,71,71,71,71,71,71,71,71,71,71,71,71,71,71,
71,71,71,71,71,71,71,71,71,71,71,71,71,71,71,71
</chunk>
   <chunk x="16" y="0" width="16" height="16">
71,71,71,71,71,71,71,71,71,71,71,71,71,71,71,71,
71,71,71,71,71,71,71,71,71,71,71,71,71,71,71,71,
71,71,71,71,71,71,71,71,71,71,71,71,71,71,71,71,
71,71,71,71,71,71,71,71,71,71,71,71,71,71,71,71,
71,71,71,71,71,71,71,71,71,71,71,71,71,71,71,71,
71,71,71,71,71,71,71,71,71,71,71,71,71,71,71,71,
71,71,71,71,71,71,71,71,71,71,71,71,71,71,71,71,
71,71,71,71,71,71,71,71,71,71,71,71,71,71,71,71,
71,71,71,71,71,71,71,71,71,71,71,71,71,71,71,71,
71,71,71,71,71,71,71,71,71,71,71,71,71,71,71,71,
71,71,71,71,71,71,71,71,71,71,71,71,71,71,71,71,
71,71,71,71,71,71,71,71,71,71,71,71,71,71,71,71,
71,71,71,71,71,59,80,80,80,80,80,80,80,80,80,80,
71,71,71,71,71,72,0,0,0,0,0,0,0,0,0,0,
71,71,71,71,71,72,0,0,0,0,0,0,0,0,0,0,
71,71,71,71,71,72,0,0,0,0,0,0,0,0,0,0
</chunk>
   <chunk x="32" y="0" width="16" height="16">
71,71,71,71,71,71,71,71,71,71,71,71,71,71,71,71,
71,71,71,71,71,71,71,71,71,71,71,71,71,71,71,71,
71,71,71,71,71,71,71,71,71,71,71,71,71,71,71,71,
71,71,71,71,71,71,71,71,71,71,71,71,71,71,71,71,
71,71,71,71,71,71,71,71,71,71,71,71,71,71,71,71,
71,71,71,71,71,71,71,71,71,71,71,71,71,71,71,71,
71,71,71,71,71,71,71,71,71,71,71,71,71,71,71,71,
71,71,71,71,71,71,71,71,71,71,71,71,71,71,71,71,
71,71,71,71,71,71,71,71,71,71,71,71,71,71,71,71,
71,71,71,71,71,71,71,71,71,71,71,71,71,71,71,71,
71,71,71,71,71,71,71,71,71,71,71,71,71,71,71,71,
71,71,71,71,71,71,71,71,71,71,71,71,71,71,71,71,
80,80,80,80,60,71,71,71,71,71,71,71,71,71,71,71,
0,0,0,0,27,60,71,71,71,71,71,71,71,71,71,71,
0,0,0,0,0,27,60,71,71,71,71,71,71,71,71,71,
0,0,0,0,0,0,27,60,71,71,71,71,71,71,71,71
</chunk>
   <chunk x="48" y="0" width="16" height="16">
71,71,71,71,71,71,71,71,71,71,71,71,71,71,71,71,
71,71,71,71,71,71,71,71,71,71,71,71,71,71,71,71,
71,71,71,71,71,71,71,71,71,71,71,71,71,71,71,71,
71,71,71,71,71,71,71,71,71,71,71,71,71,71,71,71,
71,71,71,71,71,71,71,71,71,71,71,71,71,71,71,71,
71,71,71,71,71,71,71,71,71,71,71,71,71,71,71,71,
71,71,71,71,71,71,71,71,71,71,71,71,71,71,71,71,
71,71,71,71,71,71,71,71,71,71,71,71,71,71,71,71,
71,71,71,71,71,71,71,71,71,71,71,71,71,71,71,71,
71,71,71,71,71,71,71,71,71,71,71,71,71,71,71,71,
71,71,71,71,71,71,71,71,71,71,71,71,71,71,71,71,
71,71,71,71,71,71,71,71,71,71,71,71,71,71,71,71,
71,71,71,71,71,71,71,71,71,71,71,71,71,71,71,71,
71,71,71,71,71,71,71,71,71,71,71,71,71,71,71,71,
71,71,71,71,71,71,71,71,71,71,71,71,71,71,71,71,
71,71,71,71,71,71,71,71,71,71,71,71,71,71,71,59
</chunk>
   <chunk x="64" y="0" width="16" height="16">
71,71,71,71,71,71,71,71,71,71,71,71,71,71,71,71,
71,71,71,71,71,71,71,71,71,71,71,71,71,71,71,71,
59,80,80,80,60,71,71,71,71,71,71,71,71,71,71,71,
72,0,0,0,70,71,71,71,71,71,71,71,71,71,71,71,
72,0,0,0,70,71,71,71,71,71,71,71,71,71,71,71,
72,0,0,0,70,71,71,71,71,71,71,71,71,71,71,71,
72,0,0,0,70,71,71,71,71,71,71,71,71,71,71,71,
72,0,0,0,70,71,71,71,71,71,71,71,71,71,71,71,
72,0,0,0,70,71,71,71,71,71,71,71,71,71,71,71,
72,0,0,0,70,71,71,71,71,71,71,71,71,71,71,71,
72,0,0,0,70,71,71,71,71,71,71,71,71,71,71,71,
72,0,0,0,70,71,71,71,71,71,71,71,71,71,71,71,
72,0,0,0,70,71,71,71,71,71,71,71,71,71,71,71,
72,0,0,0,70,71,71,71,71,71,71,71,71,71,71,71,
72,0,0,0,70,71,71,71,71,71,71,71,71,71,71,71,
18,0,0,0,27,60,71,71,71,71,71,71,71,71,71,71
</chunk>
   <chunk x="80" y="0" width="16" height="16">
71,71,71,71,71,71,71,71,71,71,71,71,71,71,71,71,
71,71,71,71,71,71,71,71,71,71,71,71,71,71,71,71,
71,71,71,71,71,71,71,71,71,71,71,71,71,71,71,71,
71,71,71,71,71,71,71,71,71,71,71,71,71,71,71,71,
71,71,71,71,71,71,71,71,71,71,71,71,71,71,71,71,
71,71,71,71,71,71,71,71,71,71,71,71,71,71,71,71,
71,71,71,71,71,71,71,71,71,71,71,71,71,71,71,71,
71,71,71,71,71,71,71,71,71,71,71,71,71,71,71,71,
71,71,71,71,71,71,71,71,71,71,71,71,71,71,71,71,
71,71,71,71,71,71,71,71,71,71,71,71,71,71,71,71,
71,71,71,71,71,71,71,71,71,71,71,71,71,71,71,71,
71,71,71,71,71,71,71,71,71,71,71,71,71,71,71,71,
71,71,71,71,71,71,71,71,71,71,71,71,71,71,71,71,
71,71,71,71,71,71,71,71,71,71,71,71,71,71,71,71,
71,71,71,71,71,71,71,71,71,71,71,71,71,71,71,71,
71,71,71,71,71,71,71,71,71,71,71,71,71,71,71,71
</chunk>
   <chunk x="0" y="16" width="16" height="16">
71,71,71,71,71,71,71,71,71,71,71,71,71,71,71,71,
71,71,71,71,71,71,71,71,71,71,71,71,71,71,71,71,
71,71,71,71,71,71,71,71,71,71,71,71,71,71,71,71,
71,71,71,71,71,71,71,71,71,71,71,71,71,71,71,71,
71,71,71,71,71,71,71,71,71,71,71,71,71,71,71,71,
71,71,71,71,71,71,71,71,71,71,71,71,71,71,71,71,
71,71,71,71,71,71,71,71,71,71,71,71,71,71,71,71,
71,71,71,71,71,71,71,71,71,71,71,71,71,71,71,71,
71,71,71,71,71,71,71,71,71,71,71,71,71,71,71,71,
71,71,71,71,71,71,71,71,71,71,71,71,71,71,71,71,
71,71,71,71,71,71,71,71,71,71,71,71,71,71,71,71,
71,71,71,71,71,71,71,71,71,71,71,71,71,71,71,71,
71,71,71,71,71,71,71,71,71,71,71,71,71,71,71,71,
71,71,71,71,71,71,71,71,71,71,71,71,71,71,71,71,
71,71,71,71,71,71,71,71,71,71,71,71,71,71,71,71,
71,71,71,71,71,71,71,71,71,71,71,71,71,71,71,71
</chunk>
   <chunk x="16" y="16" width="16" height="16">
71,71,71,71,71,72,0,0,0,0,0,0,0,0,0,0,
71,71,71,71,71,72,0,0,0,0,0,0,0,0,0,0,
71,71,71,71,71,72,0,0,0,0,0,0,0,0,0,0,
71,71,71,71,71,72,0,0,0,0,0,0,0,0,0,0,
71,71,71,71,71,72,0,0,0,0,0,0,0,0,0,0,
71,71,71,71,71,72,0,0,0,0,0,0,0,0,0,0,
71,71,71,71,71,72,25,25,25,25,25,0,0,0,0,0,
71,71,71,71,71,72,0,0,0,0,0,0,0,0,0,0,
71,71,71,71,71,72,0,0,0,0,0,0,0,0,0,0,
71,71,71,71,71,72,0,0,0,0,0,0,0,0,0,0,
71,71,71,71,71,72,0,0,0,0,0,0,0,0,0,0,
71,71,71,71,71,72,0,0,0,0,0,0,0,0,0,0,
71,71,71,71,71,72,0,0,0,0,0,0,0,0,0,0,
71,71,71,71,71,72,0,0,0,0,0,0,0,0,0,0,
71,71,71,71,71,72,0,0,0,61,62,62,62,62,62,62,
71,71,71,71,71,72,0,0,0,70,71,71,71,71,71,71
</chunk>
   <chunk x="32" y="16" width="16" height="16">
0,0,0,0,0,0,0,27,60,71,71,71,71,71,71,71,
0,0,0,0,0,0,0,0,27,60,71,71,71,71,71,71,
0,0,0,0,0,0,0,0,0,70,71,71,71,71,71,71,
0,0,0,0,0,0,0,0,0,70,71,71,71,71,71,71,
0,0,25,25,25,25,25,25,25,70,71,71,71,71,71,71,
0,0,0,0,0,0,0,0,0,70,71,71,71,71,71,71,
0,0,0,0,0,0,0,0,0,70,71,71,71,71,71,71,
0,0,0,0,0,0,0,0,0,70,71,71,71,71,71,71,
0,0,0,0,0,0,0,0,0,79,80,80,80,80,80,80,
0,0,0,0,0,0,0,0,0,0,0,0,0,0,0,0,
0,0,0,0,0,0,0,0,0,0,0,0,0,0,0,0,
0,0,0,0,0,0,0,0,0,0,0,0,0,0,0,0,
0,0,0,0,0,0,0,0,0,0,0,0,0,0,0,0,
0,0,0,0,0,0,0,0,0,0,0,0,0,0,0,0,
62,62,62,62,62,62,62,62,62,62,62,62,62,62,62,62,
71,71,71,71,71,71,71,71,71,71,71,71,71,71,71,71
</chunk>
   <chunk x="48" y="16" width="16" height="16">
71,71,71,71,71,71,71,71,71,71,71,71,71,59,80,18,
71,71,71,71,71,71,71,71,71,71,71,71,71,72,0,0,
71,71,71,71,71,71,71,71,71,71,71,71,59,18,0,0,
71,71,71,71,71,71,71,71,71,71,71,71,72,0,0,0,
71,71,71,71,71,71,71,71,71,71,71,71,72,0,0,0,
71,71,71,71,71,71,71,71,71,71,71,59,18,0,0,0,
71,71,71,71,71,71,71,71,71,71,71,72,0,0,0,0,
71,71,71,71,71,71,71,71,71,71,71,72,0,0,0,0,
80,80,80,80,80,80,80,80,80,80,80,81,0,0,0,0,
0,0,0,0,0,0,0,0,0,0,0,0,0,0,0,0,
0,0,0,0,0,0,0,0,0,0,0,0,0,0,0,0,
0,0,0,0,0,0,0,0,0,0,0,0,0,0,0,0,
0,0,0,0,0,0,0,0,0,0,0,0,0,0,0,0,
0,0,0,0,0,0,0,0,0,0,0,0,0,0,0,0,
62,62,62,62,62,62,62,62,62,62,62,62,62,62,62,14,
71,71,71,71,71,71,71,71,71,71,71,71,71,71,71,71
</chunk>
   <chunk x="64" y="16" width="16" height="16">
0,0,0,0,0,27,80,60,71,71,71,71,71,71,71,71,
0,0,0,0,0,0,0,70,71,71,71,71,71,71,71,71,
0,0,0,0,0,0,0,27,60,71,71,71,71,71,71,71,
0,0,0,0,0,0,0,0,70,71,71,71,71,71,71,71,
0,0,0,0,0,0,0,0,70,71,71,71,71,71,71,71,
0,0,0,0,0,0,0,0,27,60,71,71,71,71,71,71,
0,0,0,0,0,0,0,0,0,70,71,71,71,71,71,71,
0,0,0,0,0,0,0,0,0,70,71,71,71,71,71,71,
0,0,0,0,0,0,0,0,0,79,80,80,80,80,80,80,
0,0,0,0,0,0,0,0,0,0,0,0,0,0,0,0,
0,0,0,0,0,0,0,0,0,0,0,0,0,0,0,0,
0,0,0,0,0,0,0,0,0,0,0,0,0,0,0,0,
0,0,0,0,0,0,0,0,0,0,0,0,0,0,0,0,
0,0,0,0,0,0,0,0,0,0,0,0,0,0,0,0,
15,0,0,0,12,13,62,62,62,62,62,62,62,62,62,62,
68,62,62,62,69,71,71,71,71,71,71,71,71,71,71,71
</chunk>
   <chunk x="80" y="16" width="16" height="16">
71,71,71,71,71,71,71,71,71,71,71,71,71,71,71,71,
71,71,71,71,71,71,71,71,71,71,71,71,71,71,71,71,
71,71,71,71,71,71,71,71,71,71,71,71,71,71,71,71,
71,71,71,71,71,71,71,71,71,71,71,71,71,71,71,71,
71,71,71,71,71,71,71,71,71,71,71,71,71,71,71,71,
71,71,71,71,71,71,71,71,71,71,71,71,71,71,71,71,
71,71,71,71,71,71,71,71,71,71,71,71,71,71,71,71,
71,71,71,71,71,71,71,71,71,71,71,71,71,71,71,71,
80,80,80,80,60,71,71,71,71,71,71,71,71,71,71,71,
0,0,0,0,70,71,71,71,71,71,71,71,71,71,71,71,
0,0,0,0,70,71,71,71,71,71,71,71,71,71,71,71,
0,0,0,0,70,71,71,71,71,71,71,71,71,71,71,71,
0,0,0,0,70,71,71,71,71,71,71,71,71,71,71,71,
0,0,0,0,70,71,71,71,71,71,71,71,71,71,71,71,
62,62,62,62,69,71,71,71,71,71,71,71,71,71,71,71,
71,71,71,71,71,71,71,71,71,71,71,71,71,71,71,71
</chunk>
   <chunk x="0" y="32" width="16" height="16">
71,71,71,71,71,71,71,71,71,71,71,71,71,71,71,71,
71,71,71,71,71,71,71,71,71,71,71,71,71,71,71,71,
71,71,71,71,71,71,71,71,71,71,71,71,71,71,71,71,
71,71,71,71,71,71,71,71,71,71,71,71,71,71,71,71,
71,71,71,71,71,71,71,71,71,71,71,71,71,71,71,71,
71,71,71,71,71,71,71,71,71,71,71,71,71,71,71,71,
71,71,71,71,71,71,71,71,71,71,71,71,71,71,71,71,
71,71,71,71,71,71,71,71,71,71,71,71,71,71,71,71,
71,71,71,71,71,71,71,71,71,71,71,71,71,71,71,71,
71,71,71,71,71,71,71,71,71,71,71,71,71,71,71,71,
71,71,71,71,71,71,71,71,71,71,71,71,71,71,71,71,
71,71,71,71,71,71,71,71,71,71,71,71,71,71,71,71,
71,71,71,71,71,71,71,71,71,71,71,71,71,71,71,71,
71,71,71,71,71,71,71,71,71,71,71,71,71,71,71,71,
71,71,71,71,71,71,71,71,71,71,71,71,71,71,71,71,
71,71,71,71,71,71,71,71,71,71,71,71,71,71,71,71
</chunk>
   <chunk x="16" y="32" width="16" height="16">
71,71,71,71,71,72,0,0,0,70,71,71,71,71,71,71,
71,71,71,71,71,72,0,0,0,70,71,71,71,71,71,71,
71,71,71,71,71,72,0,0,0,70,71,71,71,71,71,71,
71,71,71,71,71,72,0,0,0,70,71,71,59,80,80,80,
71,71,71,71,71,72,0,0,0,70,71,71,72,0,0,0,
71,71,71,71,71,72,0,0,0,70,71,71,72,0,0,0,
71,71,71,71,71,72,0,0,0,70,71,71,72,0,0,0,
71,71,71,71,71,72,0,0,0,79,80,80,81,0,0,0,
71,71,71,71,71,72,0,0,0,0,0,0,0,0,0,0,
71,71,71,71,71,72,0,0,0,0,0,0,0,0,0,0,
71,71,71,71,71,72,0,0,0,0,0,0,0,0,0,0,
71,71,71,71,71,72,0,0,0,0,0,0,0,0,0,0,
71,71,71,71,71,72,0,0,0,0,0,0,0,0,0,0,
71,71,71,71,71,68,62,62,62,62,62,62,63,0,0,0,
71,71,71,71,71,71,71,71,71,71,71,71,72,25,25,0,
71,71,71,71,71,71,71,71,71,71,71,71,72,0,0,0
</chunk>
   <chunk x="32" y="32" width="16" height="16">
71,71,71,71,71,71,71,71,71,71,71,71,71,71,71,71,
71,71,71,71,71,71,71,71,71,71,71,71,71,71,71,71,
71,71,71,71,71,71,71,71,71,71,71,71,71,71,71,71,
80,80,80,80,80,80,80,80,80,80,80,80,80,80,80,80,
0,0,0,0,0,0,0,0,0,0,0,0,0,0,0,0,
0,0,0,0,0,0,0,0,0,0,0,0,0,0,0,0,
0,0,0,0,0,0,0,0,0,0,0,0,0,0,0,0,
0,0,0,0,0,0,0,0,0,0,0,0,0,0,0,0,
0,0,0,0,0,0,0,0,0,0,0,0,0,0,0,0,
0,25,25,25,25,25,25,25,25,25,0,0,0,0,0,0,
0,0,0,0,0,0,0,0,0,0,0,0,0,0,0,0,
0,0,0,0,0,0,0,0,0,0,0,0,0,0,0,0,
0,0,0,0,0,0,0,0,0,0,0,0,0,0,0,0,
0,0,0,0,0,0,0,0,0,0,0,0,0,0,0,0,
0,0,0,0,0,0,0,0,0,0,0,0,0,0,0,0,
0,0,0,0,0,0,0,0,0,0,0,0,0,0,0,0
</chunk>
   <chunk x="48" y="32" width="16" height="16">
71,71,71,71,71,71,71,71,71,71,71,71,71,71,71,71,
71,71,71,71,71,71,71,71,71,71,71,71,71,71,71,71,
71,71,71,71,71,71,71,71,71,71,71,71,71,71,71,71,
80,80,80,60,71,71,71,71,71,71,71,71,71,71,71,71,
0,0,0,70,71,71,71,71,71,71,71,71,71,71,71,71,
0,0,0,70,71,71,71,71,71,71,71,71,71,71,71,71,
0,0,0,70,71,71,71,71,71,71,71,71,71,71,71,71,
0,0,0,79,80,80,80,80,80,80,80,80,80,80,80,80,
0,0,0,0,0,0,0,0,0,0,0,0,0,0,0,0,
0,0,0,0,0,0,0,0,0,0,0,0,0,0,0,0,
0,0,0,0,0,0,0,0,0,0,0,0,0,0,0,0,
0,0,0,0,0,0,0,0,0,0,0,0,0,0,0,0,
0,0,0,0,0,0,0,0,0,0,0,0,10,62,62,62,
0,0,0,0,0,0,0,0,0,0,0,10,69,71,71,71,
0,0,0,0,0,0,0,0,0,0,10,69,71,71,71,71,
0,0,0,0,0,0,0,0,0,10,69,71,71,71,71,71
</chunk>
   <chunk x="64" y="32" width="16" height="16">
71,71,71,71,71,71,71,71,71,71,71,71,71,71,71,71,
71,71,71,71,71,71,71,71,71,71,71,71,71,71,71,71,
71,71,71,71,59,80,80,80,80,80,80,80,80,80,80,80,
71,71,71,71,72,0,0,0,0,0,0,0,0,0,0,0,
71,71,71,71,72,0,0,0,0,0,0,0,0,0,0,0,
71,71,71,71,72,0,0,0,0,0,0,0,0,0,0,0,
71,71,71,71,72,0,0,0,0,0,0,0,0,0,0,0,
80,80,80,80,81,0,0,0,0,0,0,0,0,0,0,0,
0,0,0,0,0,0,0,0,0,0,0,0,0,0,0,0,
0,0,0,0,0,0,0,0,0,0,0,0,0,0,0,0,
0,0,0,0,0,0,0,0,0,0,0,0,0,0,0,0,
0,0,0,0,0,0,0,0,0,0,0,0,0,0,0,0,
62,62,62,62,63,0,0,0,0,0,0,0,0,0,0,0,
71,71,71,71,72,0,0,0,0,0,0,0,0,0,0,0,
71,71,71,71,72,0,0,0,0,0,0,0,0,0,0,0,
71,71,71,71,72,0,0,0,0,0,0,0,0,0,0,0
</chunk>
   <chunk x="80" y="32" width="16" height="16">
71,71,71,71,71,71,71,71,71,71,71,71,71,71,71,71,
71,71,71,71,71,71,71,71,71,71,71,71,71,71,71,71,
80,80,60,71,71,71,71,71,71,71,71,71,71,71,71,71,
0,0,70,71,71,71,71,71,71,71,71,71,71,71,71,71,
0,0,70,71,71,71,71,71,71,71,71,71,71,71,71,71,
0,0,70,71,71,71,71,71,71,71,71,71,71,71,71,71,
0,0,70,71,71,71,71,71,71,71,71,71,71,71,71,71,
0,0,70,71,71,71,71,71,71,71,71,71,71,71,71,71,
0,0,70,71,71,71,71,71,71,71,71,71,71,71,71,71,
0,0,70,71,71,71,71,71,71,71,71,71,71,71,71,71,
0,0,70,71,71,71,71,71,71,71,71,71,71,71,71,71,
0,0,79,80,80,80,80,80,80,80,80,60,71,71,71,71,
0,0,0,0,0,0,0,0,0,0,0,70,71,71,71,71,
0,0,0,0,0,0,0,0,0,0,0,70,71,71,71,71,
0,0,0,0,0,0,0,0,0,0,0,70,71,71,71,71,
0,0,0,0,0,0,0,0,0,0,0,70,71,71,71,71
</chunk>
   <chunk x="0" y="48" width="16" height="16">
71,71,71,71,71,71,71,71,71,71,71,71,71,71,71,71,
71,71,71,71,71,71,71,71,71,71,71,71,71,71,71,71,
71,71,71,71,71,71,71,71,71,71,71,71,71,71,71,71,
71,71,71,71,71,71,71,71,71,71,71,71,71,71,71,71,
71,71,71,71,71,71,71,71,71,71,71,71,71,71,71,71,
71,71,71,71,71,71,71,71,71,71,71,71,71,71,71,71,
71,71,71,71,71,71,71,71,71,71,71,71,71,71,71,71,
71,71,71,71,71,71,71,71,71,71,71,71,71,71,71,71,
71,71,71,71,71,71,71,71,71,71,71,71,71,71,71,71,
71,71,71,71,71,71,71,71,71,71,71,71,71,71,71,71,
71,71,71,71,71,71,71,71,71,71,71,71,71,71,71,71,
71,71,71,71,71,71,71,71,71,71,71,71,71,71,71,71,
71,71,71,71,71,71,71,71,71,71,71,71,71,71,71,71,
71,71,71,71,71,71,71,71,71,71,71,71,71,71,71,71,
71,71,71,71,71,71,71,71,71,71,71,71,71,71,71,71,
71,71,71,71,71,71,71,71,71,71,71,71,71,71,71,71
</chunk>
   <chunk x="16" y="48" width="16" height="16">
71,71,71,71,71,71,71,71,71,71,71,71,72,0,0,0,
71,71,71,71,71,71,71,71,71,71,71,71,72,0,0,0,
71,71,71,71,71,71,71,71,71,71,71,71,72,0,0,0,
71,71,71,71,71,71,71,71,71,71,71,71,72,0,0,0,
71,71,71,71,71,71,71,71,71,71,71,71,72,0,0,0,
71,71,71,71,71,71,71,71,71,71,71,71,72,0,0,0,
71,71,71,71,71,71,71,71,71,71,71,71,68,62,62,62,
71,71,71,71,71,71,71,71,71,71,71,71,71,71,71,71,
71,71,71,71,71,71,71,71,71,71,71,71,71,71,71,71,
71,71,59,80,80,80,80,80,80,80,80,80,80,80,80,80,
71,71,72,0,0,0,0,0,0,0,0,0,0,0,0,0,
71,71,72,0,0,0,0,0,0,0,0,0,0,0,0,0,
71,71,72,0,0,0,0,0,0,0,0,0,0,0,0,0,
71,71,72,0,0,0,0,0,0,0,0,0,0,0,0,0,
71,71,72,0,0,0,0,0,0,61,62,62,62,62,62,63,
71,71,72,0,0,0,0,0,0,70,71,71,71,71,71,72
</chunk>
   <chunk x="32" y="48" width="16" height="16">
0,0,0,0,0,0,0,0,0,0,0,0,0,0,0,0,
0,0,0,0,0,0,0,0,0,0,0,0,0,0,0,0,
0,0,0,0,0,0,0,0,0,0,0,0,0,0,0,0,
0,0,0,0,0,0,0,0,0,0,0,0,0,0,0,0,
0,0,0,0,0,0,0,0,0,0,0,0,0,0,0,0,
0,0,0,0,0,0,0,0,0,0,0,0,0,0,0,0,
62,62,62,62,62,62,62,62,62,62,62,62,62,62,62,62,
71,71,71,71,71,71,71,71,71,71,71,71,71,71,71,71,
71,71,71,71,71,71,71,71,71,71,71,71,71,71,71,71,
80,80,80,80,80,80,80,80,80,80,80,80,80,80,80,80,
0,0,0,0,0,0,0,0,0,0,0,0,0,0,0,0,
0,0,0,0,0,0,0,0,0,0,0,0,0,0,0,0,
0,0,0,0,0,0,0,0,0,0,0,0,0,0,0,0,
0,0,0,0,0,0,0,0,0,0,0,0,0,0,0,0,
0,0,0,0,0,0,0,0,0,0,0,0,0,0,0,0,
0,0,0,0,0,0,0,0,0,0,0,0,0,0,0,0
</chunk>
   <chunk x="48" y="48" width="16" height="16">
0,0,0,0,0,0,0,0,10,69,71,71,71,71,71,71,
0,0,0,0,0,0,0,10,69,71,71,71,71,71,71,71,
0,0,0,0,0,0,10,69,71,71,71,71,71,71,71,71,
0,0,0,0,0,10,69,71,71,71,71,71,71,71,71,71,
0,0,0,0,10,69,71,71,71,71,71,71,71,71,71,71,
0,0,0,10,69,71,71,71,71,71,71,71,71,71,71,71,
62,62,62,69,71,71,71,71,71,71,71,71,71,71,71,71,
71,71,71,71,71,71,71,71,71,71,71,71,71,71,71,71,
71,71,71,71,71,71,71,71,71,71,71,71,71,71,71,71,
80,80,80,80,80,80,80,80,80,80,80,80,80,80,80,80,
0,0,0,0,0,0,0,0,0,0,0,0,0,0,0,0,
0,0,0,0,0,0,0,0,0,0,0,0,0,0,0,0,
0,0,0,0,0,0,0,0,0,0,0,0,0,0,0,0,
0,0,0,0,0,0,0,0,0,0,0,0,0,0,0,0,
0,0,0,0,61,62,62,62,62,62,63,0,0,61,62,62,
0,0,0,0,70,71,71,71,71,71,72,0,0,70,71,71
</chunk>
   <chunk x="64" y="48" width="16" height="16">
71,71,71,71,72,0,0,0,0,0,0,0,0,0,0,0,
71,71,71,71,68,62,62,62,62,62,62,62,62,62,62,62,
71,71,71,71,71,71,71,71,71,71,71,71,71,71,71,71,
71,71,71,71,71,71,71,71,71,71,71,71,71,71,71,71,
71,71,71,71,71,71,71,71,71,71,71,71,71,71,71,71,
71,71,71,71,71,71,71,71,71,71,71,71,71,71,71,71,
71,71,71,71,71,71,71,71,71,71,71,71,71,71,71,71,
71,71,71,71,71,71,71,71,71,71,71,71,71,71,71,71,
71,71,71,71,71,71,71,71,71,71,71,71,71,71,71,71,
80,80,80,80,80,80,80,80,80,60,71,71,71,71,71,71,
0,0,0,0,0,0,0,0,0,70,71,71,71,71,71,71,
0,0,0,0,0,0,0,0,0,70,71,71,71,71,71,71,
0,0,0,0,0,0,0,0,0,70,71,71,71,71,71,71,
0,0,0,0,0,0,0,0,0,70,71,71,71,71,71,71,
62,62,62,62,62,62,62,62,62,69,71,71,71,71,71,71,
71,71,71,71,71,71,71,71,71,71,71,71,71,71,71,71
</chunk>
   <chunk x="80" y="48" width="16" height="16">
0,0,0,0,0,0,0,0,0,0,0,70,71,71,71,71,
62,62,62,62,62,62,62,62,63,0,0,70,71,71,71,71,
71,71,71,71,71,71,71,71,72,0,0,70,71,71,71,71,
71,71,71,71,71,71,71,71,72,0,0,70,71,71,71,71,
71,71,71,71,71,71,71,71,72,0,0,70,71,71,71,71,
71,71,71,71,71,71,71,71,72,0,0,70,71,71,71,71,
71,71,71,71,71,71,71,71,72,0,0,70,71,71,71,71,
71,71,71,59,80,80,80,80,81,0,0,70,71,71,71,71,
71,71,71,72,0,0,0,0,0,0,0,70,71,71,71,71,
71,71,71,72,0,0,0,0,0,0,0,70,71,71,71,71,
71,71,71,72,0,0,0,0,0,0,0,70,71,71,71,71,
71,71,71,72,0,0,0,0,0,0,0,70,71,71,71,71,
71,71,71,72,0,0,0,0,0,0,0,70,71,71,71,71,
71,71,71,68,62,62,62,62,63,0,0,70,71,71,71,71,
71,71,71,71,71,71,71,71,72,0,0,70,71,71,71,71,
71,71,71,71,71,71,71,71,72,0,0,70,71,71,71,71
</chunk>
   <chunk x="0" y="64" width="16" height="16">
71,71,71,71,71,71,71,71,71,71,71,71,71,71,71,71,
71,71,71,71,71,71,71,71,71,71,71,71,71,71,71,71,
71,71,71,71,71,71,71,59,80,80,80,80,80,80,80,80,
71,71,71,71,71,71,71,72,0,0,0,0,0,0,0,0,
71,71,71,71,71,71,71,72,0,0,0,0,0,0,0,0,
71,71,71,71,71,71,71,72,0,0,0,0,0,0,0,0,
71,71,71,71,71,71,71,72,0,0,0,0,0,0,0,0,
71,71,71,71,71,71,71,72,0,0,0,61,62,62,62,62,
71,71,71,71,71,71,71,72,0,0,0,70,71,71,71,71,
71,71,71,71,71,71,71,72,0,0,0,70,71,71,71,71,
71,71,71,71,71,71,71,72,0,0,0,70,71,71,71,71,
71,71,71,71,71,71,71,72,0,0,0,70,71,71,71,71,
71,71,71,71,71,71,71,68,62,62,62,69,71,71,71,71,
71,71,71,71,71,71,71,71,71,71,71,71,71,71,71,71,
71,71,71,71,71,71,71,71,71,71,71,71,71,71,71,71,
71,71,71,71,71,71,71,71,71,71,71,71,71,71,71,71
</chunk>
   <chunk x="16" y="64" width="16" height="16">
71,71,72,0,0,0,0,0,0,70,71,71,71,71,71,72,
71,71,72,0,0,0,0,0,0,70,71,71,71,71,71,72,
80,80,81,0,0,0,0,0,0,79,80,80,80,80,80,81,
0,0,0,0,0,0,0,0,0,0,0,0,0,0,0,0,
0,0,0,0,0,0,0,0,0,0,0,0,0,0,0,0,
0,0,0,0,0,0,0,0,0,0,0,0,0,0,0,0,
0,0,0,0,0,0,0,0,0,0,0,0,0,0,0,0,
62,62,63,25,25,25,25,25,25,25,25,25,25,25,25,25,
71,71,72,0,0,0,0,0,0,0,0,0,0,0,0,0,
71,71,72,0,0,0,0,0,0,0,0,0,0,0,0,0,
71,71,72,0,0,0,0,0,0,0,0,0,0,0,0,0,
71,71,72,0,0,0,0,0,0,0,0,0,0,0,0,0,
71,71,68,62,62,63,0,0,0,0,0,0,0,0,0,0,
71,71,71,71,71,72,0,0,0,0,0,0,0,0,0,0,
71,71,71,71,71,72,0,0,0,0,0,0,0,0,0,0,
71,71,71,71,71,72,0,0,0,0,0,0,0,0,0,0
</chunk>
   <chunk x="32" y="64" width="16" height="16">
0,0,0,0,0,0,0,0,0,0,0,0,0,0,0,0,
0,0,0,0,0,0,0,0,0,0,0,0,0,0,0,0,
0,0,0,0,0,0,0,0,0,0,0,0,0,0,0,0,
0,0,0,0,0,0,0,0,0,0,0,61,62,62,62,62,
0,0,0,0,0,0,0,0,0,0,0,70,71,71,71,71,
0,0,0,0,0,0,0,0,0,0,0,70,71,71,71,71,
0,0,0,0,0,0,0,0,0,0,0,70,71,71,71,71,
0,0,0,0,0,0,0,0,0,0,0,70,71,71,71,71,
0,0,0,0,0,0,0,0,0,0,0,70,71,71,71,71,
0,0,0,0,0,0,0,0,0,0,0,70,71,71,71,71,
0,0,0,0,0,0,0,0,0,0,0,70,71,71,71,71,
0,0,0,0,0,0,0,0,0,0,0,70,71,71,71,71,
0,0,0,0,0,0,0,0,0,0,0,70,71,71,71,71,
0,0,0,0,0,0,0,0,0,0,0,79,80,80,80,80,
0,0,0,0,0,0,0,0,0,0,0,0,0,0,0,0,
0,0,0,0,0,0,0,0,0,0,0,0,0,0,0,0
</chunk>
   <chunk x="48" y="64" width="16" height="16">
0,0,0,0,70,71,71,71,71,71,72,0,0,70,71,71,
0,0,0,0,70,71,71,71,71,71,72,0,0,70,71,71,
0,0,0,0,70,71,71,71,71,71,72,0,0,70,71,71,
62,63,0,0,70,71,71,71,71,71,72,0,0,70,71,71,
71,72,0,0,70,71,71,71,71,71,72,0,0,70,71,71,
71,72,0,0,70,71,71,71,71,71,72,0,0,70,71,71,
71,72,0,0,70,71,71,71,71,71,72,0,0,70,71,71,
71,72,0,0,70,71,71,71,71,71,72,0,0,70,71,71,
71,72,0,0,70,71,71,71,71,71,72,0,0,79,80,80,
71,72,0,0,70,71,71,71,71,71,72,0,0,0,0,0,
71,72,0,0,70,71,71,71,71,71,72,0,0,0,0,0,
71,72,0,0,70,71,71,71,71,71,72,0,0,0,0,0,
71,72,0,0,70,71,71,71,71,71,72,0,0,0,0,0,
80,81,0,0,70,71,71,71,71,71,72,0,0,0,0,0,
0,0,0,0,70,71,71,71,71,71,72,0,0,0,0,0,
0,0,0,0,70,71,71,71,71,71,72,0,0,0,0,0
</chunk>
   <chunk x="64" y="64" width="16" height="16">
71,71,71,71,71,71,71,71,71,71,71,71,71,71,71,71,
71,71,71,71,71,71,71,71,71,71,71,71,71,71,71,71,
71,71,71,71,71,71,71,71,71,71,71,71,71,71,71,71,
71,71,71,71,71,71,71,71,71,71,71,71,71,71,71,71,
71,71,71,71,71,71,71,71,71,71,71,71,71,71,71,71,
71,71,71,71,59,80,80,80,80,80,80,80,80,80,80,80,
71,71,71,59,18,0,0,0,0,0,0,0,0,0,0,0,
71,71,59,18,0,0,0,0,0,0,0,0,0,0,0,0,
80,80,18,0,0,0,0,0,0,0,0,0,0,0,0,0,
0,0,0,0,0,0,0,0,0,0,0,0,0,0,0,0,
0,0,0,0,0,0,0,0,0,0,0,0,0,0,0,0,
0,0,0,0,0,0,0,0,0,0,0,0,0,0,0,0,
0,0,0,0,0,0,0,0,0,0,0,0,0,0,0,0,
0,0,0,0,0,0,0,0,0,0,0,0,0,0,0,0,
0,0,0,0,0,0,0,0,0,0,0,0,0,0,0,0,
0,0,0,0,0,0,0,0,0,0,0,0,0,0,0,0
</chunk>
   <chunk x="80" y="64" width="16" height="16">
71,71,71,71,71,71,71,71,72,0,0,70,71,71,71,71,
71,71,71,71,71,71,71,71,72,0,0,70,71,71,71,71,
71,71,71,71,71,71,71,71,72,0,0,70,71,71,71,71,
71,71,71,71,71,71,71,71,72,0,0,70,71,71,71,71,
71,71,71,71,71,71,71,71,72,0,0,70,71,71,71,71,
80,80,80,80,80,60,71,71,72,0,0,70,71,71,71,71,
0,0,0,0,0,70,71,71,72,0,0,70,71,71,71,71,
0,0,0,0,0,70,71,71,72,0,0,70,71,71,71,71,
0,0,0,0,0,70,71,71,72,0,0,70,71,71,71,71,
0,0,0,0,0,70,71,71,72,0,0,70,71,71,71,71,
0,0,0,0,0,70,71,71,72,0,0,70,71,71,71,71,
0,0,0,0,0,70,71,71,72,0,0,70,71,71,71,71,
0,0,0,0,0,70,71,71,72,0,0,70,71,71,71,71,
0,0,0,0,0,79,80,80,81,0,0,70,71,71,71,71,
0,0,0,0,0,0,0,0,0,0,0,70,71,71,71,71,
0,0,0,0,0,0,0,0,0,0,0,70,71,71,71,71
</chunk>
   <chunk x="0" y="80" width="16" height="16">
71,71,71,71,71,71,71,71,71,71,71,71,71,71,71,71,
71,71,71,71,71,71,71,71,71,71,71,71,71,71,71,71,
71,71,71,71,71,71,71,71,71,71,71,71,71,71,71,71,
71,71,71,71,71,71,71,71,71,71,71,71,71,71,71,71,
71,71,71,71,71,71,71,71,71,71,71,71,71,71,71,71,
71,71,71,71,71,71,71,71,71,71,71,71,71,71,71,71,
71,71,71,71,71,71,71,71,71,71,71,71,71,71,71,71,
71,71,71,71,71,71,71,71,71,71,71,71,71,71,71,71,
71,71,71,71,71,71,71,71,71,71,71,71,71,71,71,71,
71,71,71,71,71,71,71,71,71,71,71,71,71,71,71,71,
71,71,71,71,71,71,71,71,71,71,71,71,71,71,71,71,
71,71,71,71,71,71,71,71,71,71,71,71,71,71,71,71,
71,71,71,71,71,71,71,71,71,71,71,71,71,71,71,71,
71,71,71,71,71,71,71,71,71,71,71,71,71,71,71,71,
71,71,71,71,71,71,71,71,71,71,71,71,71,71,71,71,
71,71,71,71,71,71,71,71,71,71,71,71,71,71,71,71
</chunk>
   <chunk x="16" y="80" width="16" height="16">
71,71,71,71,71,72,0,0,0,0,0,0,0,0,25,25,
71,71,71,71,71,72,0,0,0,0,0,0,0,0,0,0,
71,71,71,71,71,72,0,0,0,0,0,0,0,0,0,0,
59,80,80,80,80,81,0,0,0,0,0,0,0,0,0,0,
72,0,0,0,0,0,0,0,0,0,0,0,0,0,0,0,
72,0,0,0,0,0,0,0,0,0,0,0,0,0,0,0,
72,0,0,0,0,0,0,0,0,0,0,0,0,0,0,0,
72,0,0,0,0,0,0,0,0,0,0,0,0,0,0,0,
72,0,0,0,0,0,0,0,0,0,0,0,0,0,0,0,
72,0,0,0,0,0,0,0,0,0,0,0,0,0,0,0,
68,62,62,62,62,62,62,62,62,62,62,62,62,62,62,62,
71,71,71,71,71,71,71,71,71,71,71,71,71,71,71,71,
71,71,71,71,71,71,71,71,71,71,71,71,71,71,71,71,
71,71,71,71,71,71,71,71,71,71,71,71,71,71,71,71,
71,71,71,71,71,71,71,71,71,71,71,71,71,71,71,71,
71,71,71,71,71,71,71,71,71,71,71,71,71,71,71,71
</chunk>
   <chunk x="32" y="80" width="16" height="16">
25,25,0,0,0,0,0,0,0,0,0,0,0,0,0,0,
0,0,0,0,0,0,0,0,0,0,0,0,0,0,0,0,
0,0,0,0,0,0,0,0,0,0,0,0,0,0,0,0,
0,0,0,0,0,0,0,0,0,0,0,0,0,0,0,0,
0,0,0,0,0,0,0,0,0,0,0,0,0,0,0,0,
0,0,0,0,0,0,0,0,0,0,0,0,0,0,0,0,
0,0,0,0,0,0,0,0,0,0,0,0,0,0,0,0,
0,0,0,0,0,0,0,0,0,0,0,0,0,0,0,0,
0,0,0,0,0,0,0,0,0,0,0,0,0,0,0,0,
0,0,0,0,0,0,0,0,0,0,0,0,0,0,0,0,
62,62,62,62,62,62,62,62,62,62,62,62,62,62,62,62,
71,71,71,71,71,71,71,71,71,71,71,71,71,71,71,71,
71,71,71,71,71,71,71,71,71,71,71,71,71,71,71,71,
71,71,71,71,71,71,71,71,71,71,71,71,71,71,71,71,
71,71,71,71,71,71,71,71,71,71,71,71,71,71,71,71,
71,71,71,71,71,71,71,71,71,71,71,71,71,71,71,71
</chunk>
   <chunk x="48" y="80" width="16" height="16">
0,0,0,0,70,71,71,71,71,71,72,0,0,0,0,0,
0,0,0,0,70,71,71,71,71,71,68,62,62,62,63,0,
0,0,0,0,70,71,71,71,71,71,71,71,71,71,72,0,
0,0,0,0,70,71,71,71,71,71,71,71,71,71,72,0,
0,0,0,0,70,71,71,71,71,71,71,71,71,71,72,0,
0,0,0,0,70,71,71,71,71,71,71,71,71,71,72,0,
0,0,0,0,70,71,71,71,71,71,71,71,71,71,72,0,
0,0,0,0,70,71,71,71,71,71,71,71,71,71,68,62,
0,0,0,0,70,71,71,71,71,71,71,71,71,71,71,71,
0,0,0,0,70,71,71,71,71,71,71,71,71,71,71,71,
62,62,62,62,69,71,71,71,71,71,71,71,71,71,71,71,
71,71,71,71,71,71,71,71,71,71,71,71,71,71,71,71,
71,71,71,71,71,71,71,71,71,71,71,71,71,71,71,71,
71,71,71,71,71,71,71,71,71,71,71,71,71,71,71,71,
71,71,71,71,71,71,71,71,71,71,71,71,71,71,71,71,
71,71,71,71,71,71,71,71,71,71,71,71,71,71,71,71
</chunk>
   <chunk x="64" y="80" width="16" height="16">
0,0,0,0,0,0,0,0,0,0,0,0,0,0,0,0,
0,0,0,0,0,0,0,0,0,0,0,0,0,0,0,0,
0,0,0,0,0,0,0,0,0,0,0,0,0,0,0,0,
0,0,0,0,0,0,0,0,0,0,0,0,0,0,0,0,
0,0,0,0,0,0,0,0,0,0,0,0,0,0,0,0,
0,0,0,0,0,0,0,0,0,0,0,0,0,0,0,0,
0,0,0,0,0,0,0,0,0,0,0,0,0,0,0,0,
62,62,62,62,62,62,62,62,62,62,62,62,62,62,62,62,
71,71,71,71,71,71,71,71,71,71,71,71,71,71,71,71,
71,71,71,71,71,71,71,71,71,71,71,71,71,71,71,71,
71,71,71,71,71,71,71,71,71,71,71,71,71,71,71,71,
71,71,71,71,71,71,71,71,71,71,71,71,71,71,71,71,
71,71,71,71,71,71,71,71,71,71,71,71,71,71,71,71,
71,71,71,71,71,71,71,71,71,71,71,71,71,71,71,71,
71,71,71,71,71,71,71,71,71,71,71,71,71,71,71,71,
71,71,71,71,71,71,71,71,71,71,71,71,71,71,71,71
</chunk>
   <chunk x="80" y="80" width="16" height="16">
0,0,0,0,0,0,0,0,0,0,0,70,71,71,71,71,
0,0,0,0,0,0,0,0,0,0,0,70,71,71,71,71,
0,0,0,0,0,0,0,0,0,0,0,70,71,71,71,71,
0,0,0,0,0,0,0,0,0,0,0,70,71,71,71,71,
0,0,0,0,0,0,0,0,0,0,0,70,71,71,71,71,
0,0,10,62,62,62,62,62,62,62,62,69,71,71,71,71,
0,10,69,71,71,71,71,71,71,71,71,71,71,71,71,71,
62,69,71,71,71,71,71,71,71,71,71,71,71,71,71,71,
71,71,71,71,71,71,71,71,71,71,71,71,71,71,71,71,
71,71,71,71,71,71,71,71,71,71,71,71,71,71,71,71,
71,71,71,71,71,71,71,71,71,71,71,71,71,71,71,71,
71,71,71,71,71,71,71,71,71,71,71,71,71,71,71,71,
71,71,71,71,71,71,71,71,71,71,71,71,71,71,71,71,
71,71,71,71,71,71,71,71,71,71,71,71,71,71,71,71,
71,71,71,71,71,71,71,71,71,71,71,71,71,71,71,71,
71,71,71,71,71,71,71,71,71,71,71,71,71,71,71,71
</chunk>
  </data>
 </layer>
 <objectgroup id="3" name="general">
  <object id="172" class="spiralDoor" x="976" y="448" width="16" height="32">
   <properties>
    <property name="startActive" type="bool" value="true"/>
    <property name="teleportTarget" value=""/>
   </properties>
  </object>
  <object id="180" class="blockade" x="656" y="576" width="16" height="80">
   <properties>
    <property name="ballistaVunerable" type="bool" value="false"/>
    <property name="skin" type="int" value="0"/>
    <property name="type" type="int" value="0"/>
   </properties>
  </object>
  <object id="189" class="ladder" x="1432" y="768" width="16" height="592">
   <properties>
    <property name="draw" type="bool" value="true"/>
    <property name="skin" type="int" value="0"/>
    <property name="startActive" type="bool" value="true"/>
   </properties>
  </object>
  <object id="190" class="sinkpit" x="1008" y="1392" width="288" height="16">
   <properties>
    <property name="count" type="int" value="2"/>
    <property name="draw" type="bool" value="true"/>
    <property name="maxAttacking" type="int" value="1"/>
    <property name="skin" type="int" value="0"/>
   </properties>
  </object>
  <object id="191" class="ladder" x="952" y="976" width="16" height="320">
   <properties>
    <property name="draw" type="bool" value="true"/>
    <property name="skin" type="int" value="0"/>
    <property name="startActive" type="bool" value="true"/>
   </properties>
  </object>
  <object id="194" name="catalyst1" class="catalyst" x="1346" y="1352" width="28" height="8">
   <properties>
    <property name="boostMult" type="float" value="1"/>
    <property name="charged" type="bool" value="true"/>
    <property name="draw" type="bool" value="true"/>
    <property name="startActive" type="bool" value="true"/>
   </properties>
  </object>
  <object id="196" name="trig_blockBoosts" class="trigger" x="1424" y="1056" width="32" height="48">
   <properties>
    <property name="corpses" type="bool" value="false"/>
    <property name="npcs" type="bool" value="false"/>
    <property name="once" type="bool" value="false"/>
    <property name="player" type="bool" value="true"/>
    <property name="startActive" type="bool" value="true"/>
   </properties>
  </object>
  <object id="197" name="trig_letBoosts" class="trigger" x="1424" y="1008" width="32" height="48">
   <properties>
    <property name="corpses" type="bool" value="false"/>
    <property name="npcs" type="bool" value="false"/>
    <property name="once" type="bool" value="false"/>
    <property name="player" type="bool" value="true"/>
    <property name="startActive" type="bool" value="true"/>
   </properties>
  </object>
  <object id="204" name="catalyst2" class="catalyst" x="562" y="1432" width="28" height="8">
   <properties>
    <property name="boostMult" type="float" value="1.5"/>
    <property name="charged" type="bool" value="true"/>
    <property name="draw" type="bool" value="true"/>
    <property name="startActive" type="bool" value="true"/>
   </properties>
  </object>
  <object id="207" class="ladder" x="808" y="1056" width="16" height="384">
   <properties>
    <property name="draw" type="bool" value="true"/>
    <property name="skin" type="int" value="0"/>
    <property name="startActive" type="bool" value="true"/>
   </properties>
  </object>
  <object id="217" class="reverb" x="222" y="891" width="671" height="671">
   <properties>
    <property name="minRadius" type="float" value="10"/>
    <property name="reverbType" type="int" value="0"/>
    <property name="wetness" type="float" value="8"/>
   </properties>
   <ellipse/>
  </object>
  <object id="218" class="reverb" x="311" y="170" width="354" height="354">
   <properties>
    <property name="minRadius" type="float" value="5"/>
    <property name="reverbType" type="int" value="2"/>
    <property name="wetness" type="float" value="4"/>
   </properties>
   <ellipse/>
  </object>
  <object id="219" class="reverb" x="479" y="509" width="395" height="395">
   <properties>
    <property name="minRadius" type="float" value="5"/>
    <property name="reverbType" type="int" value="2"/>
    <property name="wetness" type="float" value="4"/>
   </properties>
   <ellipse/>
  </object>
  <object id="220" class="reverb" x="997" y="1046" width="395" height="395">
   <properties>
    <property name="minRadius" type="float" value="5"/>
    <property name="reverbType" type="int" value="2"/>
    <property name="wetness" type="float" value="4"/>
   </properties>
   <ellipse/>
  </object>
  <object id="221" name="trans_start" class="transition" x="1040" y="48" width="48" height="16">
   <properties>
    <property name="endTarget" value=""/>
    <property name="start" type="bool" value="true"/>
    <property name="targetLevel" type="int" value="0"/>
   </properties>
  </object>
  <object id="222" class="transition" x="128" y="1200" width="48" height="16">
   <properties>
    <property name="endTarget" value="trans_start"/>
    <property name="start" type="bool" value="false"/>
    <property name="targetLevel" type="int" value="9"/>
   </properties>
  </object>
  <object id="223" name="trig_dia" class="trigger" x="928" y="400" width="32" height="80">
   <properties>
    <property name="corpses" type="bool" value="false"/>
    <property name="npcs" type="bool" value="false"/>
    <property name="once" type="bool" value="true"/>
    <property name="player" type="bool" value="true"/>
    <property name="startActive" type="bool" value="true"/>
   </properties>
  </object>
 </objectgroup>
 <objectgroup color="#ff8284" id="7" name="npcs">
  <object id="174" class="npc" x="560" y="288">
   <properties>
    <property name="id" type="int" value="12"/>
    <property name="noticeDist" type="int" value="300"/>
    <property name="perma" type="bool" value="false"/>
    <property name="phantom" type="int" value="0"/>
    <property name="wanderDist" type="int" value="0"/>
   </properties>
   <point/>
  </object>
  <object id="175" class="npc" x="400" y="320">
   <properties>
    <property name="id" type="int" value="12"/>
    <property name="noticeDist" type="int" value="300"/>
    <property name="perma" type="bool" value="false"/>
    <property name="phantom" type="int" value="0"/>
    <property name="wanderDist" type="int" value="0"/>
   </properties>
   <point/>
  </object>
  <object id="208" class="npc" x="448" y="960">
   <properties>
    <property name="id" type="int" value="12"/>
    <property name="noticeDist" type="int" value="300"/>
    <property name="perma" type="bool" value="false"/>
    <property name="phantom" type="int" value="0"/>
    <property name="wanderDist" type="int" value="0"/>
   </properties>
   <point/>
  </object>
  <object id="209" class="npc" x="464" y="1104">
   <properties>
    <property name="id" type="int" value="12"/>
    <property name="noticeDist" type="int" value="300"/>
    <property name="perma" type="bool" value="false"/>
    <property name="phantom" type="int" value="0"/>
    <property name="wanderDist" type="int" value="0"/>
   </properties>
   <point/>
  </object>
  <object id="211" class="npc" x="384" y="1104">
   <properties>
    <property name="id" type="int" value="12"/>
    <property name="noticeDist" type="int" value="300"/>
    <property name="perma" type="bool" value="false"/>
    <property name="phantom" type="int" value="0"/>
    <property name="wanderDist" type="int" value="0"/>
   </properties>
   <point/>
  </object>
  <object id="212" class="npc" x="464" y="1312">
   <properties>
    <property name="id" type="int" value="13"/>
    <property name="noticeDist" type="int" value="300"/>
    <property name="perma" type="bool" value="false"/>
    <property name="phantom" type="int" value="0"/>
    <property name="wanderDist" type="int" value="0"/>
   </properties>
   <point/>
  </object>
  <object id="213" class="npc" x="544" y="832">
   <properties>
    <property name="id" type="int" value="12"/>
    <property name="noticeDist" type="int" value="300"/>
    <property name="perma" type="bool" value="false"/>
    <property name="phantom" type="int" value="0"/>
    <property name="wanderDist" type="int" value="0"/>
   </properties>
   <point/>
  </object>
  <object id="214" class="npc" x="496" y="832">
   <properties>
    <property name="id" type="int" value="12"/>
    <property name="noticeDist" type="int" value="300"/>
    <property name="perma" type="bool" value="false"/>
    <property name="phantom" type="int" value="0"/>
    <property name="wanderDist" type="int" value="0"/>
   </properties>
   <point/>
  </object>
  <object id="215" class="npc" x="752" y="816">
   <properties>
    <property name="id" type="int" value="1"/>
    <property name="noticeDist" type="int" value="300"/>
    <property name="perma" type="bool" value="false"/>
    <property name="phantom" type="int" value="0"/>
    <property name="wanderDist" type="int" value="0"/>
   </properties>
   <point/>
  </object>
 </objectgroup>
 <objectgroup color="#fffa61" id="8" name="lights">
  <object id="151" class="light" x="1064" y="368">
   <properties>
    <property name="angle" type="float" value="270"/>
    <property name="brightness" type="float" value="3"/>
    <property name="color" type="color" value="#ffffd69c"/>
    <property name="dirRadius" type="float" value="80"/>
    <property name="directional" type="bool" value="false"/>
    <property name="falloff" type="float" value="2"/>
    <property name="radius" type="float" value="1.75"/>
    <property name="shadows" type="bool" value="false"/>
    <property name="startActive" type="bool" value="true"/>
   </properties>
   <point/>
  </object>
  <object id="152" class="light" x="1264" y="416">
   <properties>
    <property name="angle" type="float" value="270"/>
    <property name="brightness" type="float" value="2"/>
    <property name="color" type="color" value="#ffff816b"/>
    <property name="dirRadius" type="float" value="80"/>
    <property name="directional" type="bool" value="false"/>
    <property name="falloff" type="float" value="2"/>
    <property name="radius" type="float" value="3"/>
    <property name="shadows" type="bool" value="false"/>
    <property name="startActive" type="bool" value="true"/>
   </properties>
   <point/>
  </object>
  <object id="153" class="light" x="816" y="416">
   <properties>
    <property name="angle" type="float" value="270"/>
    <property name="brightness" type="float" value="2"/>
    <property name="color" type="color" value="#ffffa667"/>
    <property name="dirRadius" type="float" value="80"/>
    <property name="directional" type="bool" value="false"/>
    <property name="falloff" type="float" value="2"/>
    <property name="radius" type="float" value="3"/>
    <property name="shadows" type="bool" value="false"/>
    <property name="startActive" type="bool" value="true"/>
   </properties>
   <point/>
  </object>
  <object id="154" class="light" x="496" y="352">
   <properties>
    <property name="angle" type="float" value="270"/>
    <property name="brightness" type="float" value="3"/>
    <property name="color" type="color" value="#ffffd69c"/>
    <property name="dirRadius" type="float" value="80"/>
    <property name="directional" type="bool" value="false"/>
    <property name="falloff" type="float" value="2"/>
    <property name="radius" type="float" value="1.75"/>
    <property name="shadows" type="bool" value="false"/>
    <property name="startActive" type="bool" value="true"/>
   </properties>
   <point/>
  </object>
  <object id="155" class="light" x="376" y="608">
   <properties>
    <property name="angle" type="float" value="270"/>
    <property name="brightness" type="float" value="3"/>
    <property name="color" type="color" value="#ffff816b"/>
    <property name="dirRadius" type="float" value="80"/>
    <property name="directional" type="bool" value="false"/>
    <property name="falloff" type="float" value="2"/>
    <property name="radius" type="float" value="5"/>
    <property name="shadows" type="bool" value="false"/>
    <property name="startActive" type="bool" value="true"/>
   </properties>
   <point/>
  </object>
  <object id="156" class="light" x="656" y="720">
   <properties>
    <property name="angle" type="float" value="270"/>
    <property name="brightness" type="float" value="3"/>
    <property name="color" type="color" value="#ffffd69c"/>
    <property name="dirRadius" type="float" value="80"/>
    <property name="directional" type="bool" value="false"/>
    <property name="falloff" type="float" value="2"/>
    <property name="radius" type="float" value="1.25"/>
    <property name="shadows" type="bool" value="false"/>
    <property name="startActive" type="bool" value="true"/>
   </properties>
   <point/>
  </object>
  <object id="157" class="light" x="912" y="672">
   <properties>
    <property name="angle" type="float" value="270"/>
    <property name="brightness" type="float" value="2"/>
    <property name="color" type="color" value="#ffffa667"/>
    <property name="dirRadius" type="float" value="80"/>
    <property name="directional" type="bool" value="false"/>
    <property name="falloff" type="float" value="2"/>
    <property name="radius" type="float" value="3"/>
    <property name="shadows" type="bool" value="false"/>
    <property name="startActive" type="bool" value="true"/>
   </properties>
   <point/>
  </object>
  <object id="158" class="light" x="1208" y="640">
   <properties>
    <property name="angle" type="float" value="270"/>
    <property name="brightness" type="float" value="2"/>
    <property name="color" type="color" value="#ffffd69c"/>
    <property name="dirRadius" type="float" value="80"/>
    <property name="directional" type="bool" value="false"/>
    <property name="falloff" type="float" value="2"/>
    <property name="radius" type="float" value="2"/>
    <property name="shadows" type="bool" value="false"/>
    <property name="startActive" type="bool" value="true"/>
   </properties>
   <point/>
  </object>
  <object id="159" class="light" x="1392" y="720">
   <properties>
    <property name="angle" type="float" value="270"/>
    <property name="brightness" type="float" value="2"/>
    <property name="color" type="color" value="#ffffa667"/>
    <property name="dirRadius" type="float" value="80"/>
    <property name="directional" type="bool" value="false"/>
    <property name="falloff" type="float" value="2"/>
    <property name="radius" type="float" value="3"/>
    <property name="shadows" type="bool" value="false"/>
    <property name="startActive" type="bool" value="true"/>
   </properties>
   <point/>
  </object>
  <object id="160" class="light" x="1408" y="928">
   <properties>
    <property name="angle" type="float" value="270"/>
    <property name="brightness" type="float" value="3"/>
    <property name="color" type="color" value="#ffff816b"/>
    <property name="dirRadius" type="float" value="80"/>
    <property name="directional" type="bool" value="false"/>
    <property name="falloff" type="float" value="2"/>
    <property name="radius" type="float" value="5"/>
    <property name="shadows" type="bool" value="false"/>
    <property name="startActive" type="bool" value="true"/>
   </properties>
   <point/>
  </object>
  <object id="161" class="light" x="1440" y="1184">
   <properties>
    <property name="angle" type="float" value="270"/>
    <property name="brightness" type="float" value="3"/>
    <property name="color" type="color" value="#ffff816b"/>
    <property name="dirRadius" type="float" value="80"/>
    <property name="directional" type="bool" value="false"/>
    <property name="falloff" type="float" value="2"/>
    <property name="radius" type="float" value="5"/>
    <property name="shadows" type="bool" value="false"/>
    <property name="startActive" type="bool" value="true"/>
   </properties>
   <point/>
  </object>
  <object id="162" class="light" x="1216" y="1232">
   <properties>
    <property name="angle" type="float" value="270"/>
    <property name="brightness" type="float" value="3"/>
    <property name="color" type="color" value="#ffffd69c"/>
    <property name="dirRadius" type="float" value="80"/>
    <property name="directional" type="bool" value="false"/>
    <property name="falloff" type="float" value="2"/>
    <property name="radius" type="float" value="1.25"/>
    <property name="shadows" type="bool" value="false"/>
    <property name="startActive" type="bool" value="true"/>
   </properties>
   <point/>
  </object>
  <object id="163" class="light" x="976" y="1216">
   <properties>
    <property name="angle" type="float" value="270"/>
    <property name="brightness" type="float" value="2"/>
    <property name="color" type="color" value="#ffffa667"/>
    <property name="dirRadius" type="float" value="80"/>
    <property name="directional" type="bool" value="false"/>
    <property name="falloff" type="float" value="2"/>
    <property name="radius" type="float" value="3"/>
    <property name="shadows" type="bool" value="false"/>
    <property name="startActive" type="bool" value="true"/>
   </properties>
   <point/>
  </object>
  <object id="164" class="light" x="1072" y="944">
   <properties>
    <property name="angle" type="float" value="270"/>
    <property name="brightness" type="float" value="2"/>
    <property name="color" type="color" value="#ffffa667"/>
    <property name="dirRadius" type="float" value="80"/>
    <property name="directional" type="bool" value="false"/>
    <property name="falloff" type="float" value="2"/>
    <property name="radius" type="float" value="3"/>
    <property name="shadows" type="bool" value="false"/>
    <property name="startActive" type="bool" value="true"/>
   </properties>
   <point/>
  </object>
  <object id="165" class="light" x="576" y="1184">
   <properties>
    <property name="angle" type="float" value="270"/>
    <property name="brightness" type="float" value="3"/>
    <property name="color" type="color" value="#ffffd69c"/>
    <property name="dirRadius" type="float" value="80"/>
    <property name="directional" type="bool" value="false"/>
    <property name="falloff" type="float" value="2"/>
    <property name="radius" type="float" value="1.25"/>
    <property name="shadows" type="bool" value="false"/>
    <property name="startActive" type="bool" value="true"/>
   </properties>
   <point/>
  </object>
  <object id="166" class="light" x="816" y="944">
   <properties>
    <property name="angle" type="float" value="270"/>
    <property name="brightness" type="float" value="2"/>
    <property name="color" type="color" value="#ffffa667"/>
    <property name="dirRadius" type="float" value="80"/>
    <property name="directional" type="bool" value="false"/>
    <property name="falloff" type="float" value="2"/>
    <property name="radius" type="float" value="3"/>
    <property name="shadows" type="bool" value="false"/>
    <property name="startActive" type="bool" value="true"/>
   </properties>
   <point/>
  </object>
  <object id="169" class="light" x="352" y="976">
   <properties>
    <property name="angle" type="float" value="270"/>
    <property name="brightness" type="float" value="2"/>
    <property name="color" type="color" value="#ffffd898"/>
    <property name="dirRadius" type="float" value="80"/>
    <property name="directional" type="bool" value="false"/>
    <property name="falloff" type="float" value="2"/>
    <property name="radius" type="float" value="2.25"/>
    <property name="shadows" type="bool" value="false"/>
    <property name="startActive" type="bool" value="true"/>
   </properties>
   <point/>
  </object>
  <object id="170" class="light" x="752" y="1376">
   <properties>
    <property name="angle" type="float" value="270"/>
    <property name="brightness" type="float" value="2"/>
    <property name="color" type="color" value="#ffffd898"/>
    <property name="dirRadius" type="float" value="80"/>
    <property name="directional" type="bool" value="false"/>
    <property name="falloff" type="float" value="2"/>
    <property name="radius" type="float" value="2.25"/>
    <property name="shadows" type="bool" value="false"/>
    <property name="startActive" type="bool" value="true"/>
   </properties>
   <point/>
  </object>
  <object id="171" class="light" x="416" y="1376">
   <properties>
    <property name="angle" type="float" value="270"/>
    <property name="brightness" type="float" value="2"/>
    <property name="color" type="color" value="#ffffd898"/>
    <property name="dirRadius" type="float" value="80"/>
    <property name="directional" type="bool" value="false"/>
    <property name="falloff" type="float" value="2"/>
    <property name="radius" type="float" value="2.25"/>
    <property name="shadows" type="bool" value="false"/>
    <property name="startActive" type="bool" value="true"/>
   </properties>
   <point/>
  </object>
 </objectgroup>
 <objectgroup color="#7de8b9" id="11" name="deco"/>
 <objectgroup color="#8aadff" id="9" name="puzzles">
  <object id="177" name="magnet1" class="magnet" x="352" y="288">
   <properties>
    <property name="direction" type="bool" value="true"/>
    <property name="draw" type="bool" value="true"/>
    <property name="size" type="int" value="1"/>
    <property name="startActive" type="bool" value="true"/>
   </properties>
   <point/>
  </object>
  <object id="178" name="door1" class="door" x="352" y="480" width="48" height="16">
   <properties>
    <property name="draw" type="bool" value="true"/>
    <property name="skin" type="int" value="0"/>
    <property name="startActive" type="bool" value="true"/>
   </properties>
  </object>
  <object id="179" class="wireOverlay" x="243" y="387">
   <properties>
    <property name="target" value="magnet1"/>
   </properties>
   <polyline points="109,102 69,45 69,-43 109,-99"/>
  </object>
  <object id="181" name="door2" class="door" x="1088" y="640" width="16" height="64">
   <properties>
    <property name="draw" type="bool" value="true"/>
    <property name="skin" type="int" value="0"/>
    <property name="startActive" type="bool" value="true"/>
   </properties>
  </object>
  <object id="182" name="timer1" class="timer" x="592" y="640">
   <properties>
    <property name="draw" type="bool" value="true"/>
    <property name="skin" type="int" value="0"/>
    <property name="startActive" type="bool" value="true"/>
    <property name="time" type="int" value="5"/>
   </properties>
   <point/>
  </object>
  <object id="183" class="wireOverlay" x="697" y="753">
   <properties>
    <property name="target" value="timer1"/>
   </properties>
   <polyline points="391,-65 55,-65 39,-81 39,-97 23,-113 -105,-113"/>
  </object>
  <object id="184" name="timer2" class="timer" x="1184" y="768">
   <properties>
    <property name="draw" type="bool" value="true"/>
    <property name="skin" type="int" value="0"/>
    <property name="startActive" type="bool" value="true"/>
    <property name="time" type="int" value="6"/>
   </properties>
   <point/>
  </object>
  <object id="185" class="wireOverlay" x="1289" y="881">
   <properties>
    <property name="target" value="timer2"/>
   </properties>
   <polyline points="-185,-193 -169,-193 -153,-177 -153,-129 -137,-113 -105,-113"/>
  </object>
  <object id="186" name="door3" class="door" x="1344" y="704" width="16" height="80">
   <properties>
    <property name="draw" type="bool" value="true"/>
    <property name="skin" type="int" value="0"/>
    <property name="startActive" type="bool" value="true"/>
   </properties>
  </object>
  <object id="187" name="magnet2" class="magnet" x="1312" y="624">
   <properties>
    <property name="direction" type="bool" value="true"/>
    <property name="draw" type="bool" value="true"/>
    <property name="size" type="int" value="1"/>
    <property name="startActive" type="bool" value="true"/>
   </properties>
   <point/>
  </object>
  <object id="188" class="wireOverlay" x="1280" y="656">
   <properties>
    <property name="target" value="magnet1"/>
   </properties>
   <polyline points="80,96 112,64 112,0 80,-32 32,-32"/>
  </object>
  <object id="192" name="charger1" class="catalyst_charger" x="1376" y="960">
   <properties>
    <property name="startActive" type="bool" value="true"/>
    <property name="target" value="catalyst1"/>
   </properties>
   <point/>
  </object>
  <object id="195" class="wireOverlay" x="1270" y="1028">
   <properties>
    <property name="target" value="catalyst1"/>
   </properties>
   <polyline points="104,328 138,298 138,-52 122,-68 106,-68"/>
  </object>
  <object id="201" name="magnet3" class="magnet" x="272" y="1408">
   <properties>
    <property name="direction" type="bool" value="true"/>
    <property name="draw" type="bool" value="true"/>
    <property name="size" type="int" value="2"/>
    <property name="startActive" type="bool" value="true"/>
   </properties>
   <point/>
  </object>
  <object id="202" name="door4" class="door" x="256" y="1072" width="16" height="64">
   <properties>
    <property name="draw" type="bool" value="true"/>
    <property name="skin" type="int" value="0"/>
    <property name="startActive" type="bool" value="true"/>
   </properties>
  </object>
  <object id="203" class="wireOverlay" x="320" y="1328">
   <properties>
    <property name="target" value="magnet3"/>
   </properties>
   <polyline points="-56,-192 -56,-48 -72,-32 -72,64 -57,80 -48,80"/>
  </object>
  <object id="205" name="charger2" class="catalyst_charger" x="743" y="1056">
   <properties>
    <property name="startActive" type="bool" value="true"/>
    <property name="target" value="catalyst2"/>
   </properties>
   <point/>
  </object>
  <object id="206" class="wireOverlay" x="506" y="1090">
   <properties>
    <property name="target" value="charger2"/>
   </properties>
   <polyline points="84,346 118,346 150,318 150,-18 166,-34 237,-34"/>
  </object>
 </objectgroup>
 <objectgroup color="#00ff00" id="4" name="nodegraph">
  <object id="118" class="node" x="1072" y="474">
   <point/>
  </object>
  <object id="119" class="node" x="800" y="464">
   <point/>
  </object>
  <object id="120" class="node" x="400" y="464">
   <point/>
  </object>
  <object id="121" class="node" x="544" y="304">
   <point/>
  </object>
  <object id="122" class="node" x="432" y="336">
   <point/>
  </object>
  <object id="123" class="node" x="496" y="464">
   <point/>
  </object>
  <object id="124" class="node" x="368" y="704">
   <point/>
  </object>
  <object id="125" class="node" x="464" y="704">
   <point/>
  </object>
  <object id="126" class="node" x="528" y="640">
   <point/>
  </object>
  <object id="127" class="node" x="608" y="848">
   <point/>
  </object>
  <object id="128" class="node" x="672" y="640">
   <point/>
  </object>
  <object id="129" class="node" x="800" y="848">
   <point/>
  </object>
  <object id="130" class="node" x="976" y="688">
   <point/>
  </object>
  <object id="131" class="node" x="1104" y="688">
   <point/>
  </object>
  <object id="132" class="node" x="1232" y="768">
   <point/>
  </object>
  <object id="133" class="node" x="1424" y="768">
   <point/>
  </object>
  <object id="134" class="node" x="1440" y="1024">
   <point/>
  </object>
  <object id="135" class="node" x="1424" y="1344">
   <point/>
  </object>
  <object id="136" class="node" x="1008" y="1280">
   <point/>
  </object>
  <object id="137" class="node" x="1152" y="1344">
   <point/>
  </object>
  <object id="138" class="node" x="960" y="1280">
   <point/>
  </object>
  <object id="139" class="node" x="944" y="976">
   <point/>
  </object>
  <object id="140" class="node" x="1104" y="976">
   <point/>
  </object>
  <object id="141" class="node" x="832" y="976">
   <point/>
  </object>
  <object id="142" class="node" x="688" y="1056">
   <point/>
  </object>
  <object id="143" class="node" x="512" y="976">
   <point/>
  </object>
  <object id="144" class="node" x="544" y="1264">
   <point/>
  </object>
  <object id="145" class="node" x="608" y="1424">
   <point/>
  </object>
  <object id="146" class="node" x="352" y="1424">
   <point/>
  </object>
  <object id="147" class="node" x="512" y="1120">
   <point/>
  </object>
  <object id="148" class="node" x="336" y="1120">
   <point/>
  </object>
  <object id="149" class="node" x="400" y="976">
   <point/>
  </object>
  <object id="150" class="node" x="480" y="1264">
   <point/>
  </object>
 </objectgroup>
 <objectgroup color="#ffffff" id="12" name="regions"/>
</map>
