<?xml version="1.0" encoding="UTF-8"?>
<map version="1.9" tiledversion="1.9.1" orientation="orthogonal" renderorder="right-down" width="64" height="32" tilewidth="16" tileheight="16" infinite="1" nextlayerid="13" nextobjectid="339">
 <tileset firstgid="1" source="../til/devSet.tsx"/>
 <layer id="5" name="background" width="64" height="32" tintcolor="#433b35">
  <data encoding="csv">
   <chunk x="32" y="0" width="16" height="16">
0,0,0,0,0,0,0,0,0,0,0,0,0,0,0,0,
0,0,0,0,0,0,0,0,0,0,0,0,0,0,0,0,
0,0,0,0,0,0,0,0,0,0,0,0,0,0,0,0,
0,0,0,0,0,0,0,0,0,0,0,0,0,0,0,0,
0,0,0,0,0,0,0,0,0,0,0,0,0,0,0,0,
0,0,0,0,0,0,0,0,0,0,0,0,0,0,0,0,
0,0,0,0,0,0,0,0,0,0,0,0,0,0,0,0,
0,0,0,0,0,0,0,0,0,0,0,0,0,0,0,0,
0,0,0,0,0,0,0,0,0,0,0,0,0,0,0,0,
0,0,0,0,0,0,0,0,0,0,0,0,0,0,0,0,
0,0,0,0,0,0,0,0,0,0,0,0,0,0,0,0,
0,0,0,0,0,0,0,0,0,0,0,0,0,0,0,0,
0,0,0,0,0,0,0,0,0,0,0,0,0,0,0,0,
0,0,0,71,71,71,71,71,71,71,71,71,71,71,71,71,
0,0,0,71,71,71,71,71,71,71,71,71,71,71,71,71,
0,0,0,71,71,71,71,71,71,71,71,71,71,71,71,71
</chunk>
   <chunk x="48" y="0" width="16" height="16">
0,0,0,0,0,0,0,0,0,0,0,0,0,0,0,0,
0,0,0,0,0,0,0,0,0,0,0,0,0,0,0,0,
0,0,0,0,0,0,0,0,0,0,0,0,0,0,0,0,
0,0,0,0,0,0,0,0,0,0,0,0,0,0,0,0,
0,0,0,0,0,0,0,0,0,0,0,0,0,0,0,0,
0,0,0,0,0,0,0,0,0,0,0,0,0,0,0,0,
0,0,0,0,0,0,0,0,0,0,0,0,0,0,0,0,
0,0,0,0,0,0,0,0,0,0,0,0,0,0,0,0,
0,0,0,0,0,0,0,0,0,0,0,0,0,0,0,0,
0,0,0,0,0,0,0,0,0,0,0,0,0,0,0,0,
0,0,0,0,0,0,0,0,0,0,0,0,0,0,0,0,
0,0,0,0,0,0,0,0,0,0,0,0,0,0,0,0,
0,0,0,0,0,0,0,0,0,0,0,0,0,0,0,0,
71,71,71,0,0,0,0,0,0,0,0,0,0,0,0,0,
71,71,71,71,71,71,71,71,71,71,71,71,71,71,71,71,
71,71,71,71,71,71,71,71,71,71,71,71,71,71,71,71
</chunk>
   <chunk x="64" y="0" width="16" height="16">
0,0,0,0,0,0,0,0,0,0,0,0,0,0,0,0,
0,0,0,0,0,0,0,0,0,0,0,0,0,0,0,0,
0,0,0,0,0,0,0,0,0,0,0,0,0,0,0,0,
0,0,0,0,0,0,0,0,0,0,0,0,0,0,0,0,
0,0,0,0,0,0,0,0,0,0,0,0,0,0,0,0,
0,0,0,0,0,0,0,0,0,0,0,0,0,0,0,0,
0,0,0,0,0,0,0,0,0,0,0,0,0,0,0,0,
0,0,0,0,0,0,0,0,0,0,0,0,0,0,0,0,
0,0,0,0,0,0,0,0,0,0,0,0,0,0,0,0,
0,0,0,0,0,0,0,0,0,0,0,0,0,0,0,0,
0,0,0,0,0,0,0,0,0,0,0,0,0,0,0,0,
0,0,0,0,0,0,0,0,0,0,0,0,0,0,0,0,
0,0,0,0,0,0,0,0,0,0,0,0,0,0,0,0,
0,0,0,0,0,0,0,0,0,0,0,0,0,0,0,0,
71,71,71,71,71,71,71,71,71,71,71,71,71,0,0,0,
71,71,71,71,71,71,71,71,71,71,71,71,71,0,0,0
</chunk>
   <chunk x="112" y="0" width="16" height="16">
0,0,0,0,0,0,0,0,0,0,0,0,0,0,0,0,
0,0,0,0,0,0,0,0,0,0,0,0,0,0,0,0,
0,0,0,0,0,0,0,0,0,0,0,0,0,0,0,0,
0,0,0,0,0,0,0,0,0,0,0,0,0,0,0,0,
0,0,0,0,0,0,0,0,0,0,0,0,0,0,0,0,
0,0,0,0,0,0,0,0,0,0,71,71,71,71,71,0,
0,0,0,0,0,0,0,0,0,71,71,71,71,71,71,0,
0,0,0,0,0,0,0,0,0,71,71,71,71,71,71,0,
0,0,0,0,0,0,0,0,0,71,71,71,71,71,71,0,
0,0,0,0,0,0,0,0,0,71,71,71,71,71,71,0,
0,0,0,0,0,0,0,0,0,71,71,71,71,71,71,0,
0,0,0,0,0,0,0,0,0,71,71,71,71,71,71,0,
0,0,0,0,0,0,0,0,0,71,71,71,71,71,71,0,
0,0,0,0,0,0,0,0,0,71,71,71,71,71,71,0,
0,0,0,0,0,0,0,0,0,71,71,71,71,71,71,71,
0,0,0,0,0,0,0,0,0,71,71,71,71,71,71,71
</chunk>
   <chunk x="128" y="0" width="16" height="16">
0,0,0,0,0,0,0,0,0,0,0,0,0,0,0,0,
0,0,0,0,0,0,0,0,0,0,0,0,0,0,0,0,
0,0,0,0,0,0,0,0,0,0,0,0,0,0,0,0,
0,0,0,0,0,0,0,0,0,0,0,0,0,0,0,0,
0,0,0,0,0,0,0,0,0,0,0,0,0,0,0,0,
0,0,0,0,0,0,0,0,0,0,0,0,0,0,0,0,
0,0,0,0,0,0,0,0,0,0,0,0,0,0,0,0,
0,0,0,0,0,0,0,0,0,0,0,0,0,0,0,0,
0,0,0,0,0,0,0,0,0,0,0,0,0,0,0,0,
0,0,0,0,0,0,0,0,0,0,0,0,0,0,0,0,
0,0,0,0,0,0,0,0,0,0,0,0,0,0,0,0,
0,0,0,0,0,0,0,0,0,0,0,0,0,0,0,0,
0,0,0,0,0,0,0,0,0,0,0,0,0,0,0,0,
0,0,0,0,0,0,0,0,0,0,0,0,0,0,0,0,
71,71,0,0,0,0,0,0,0,0,0,0,0,0,0,0,
71,71,0,0,0,0,0,0,0,0,0,0,0,0,0,0
</chunk>
   <chunk x="16" y="16" width="16" height="16">
0,0,0,0,0,0,0,0,0,0,0,0,0,0,0,0,
0,0,0,0,0,0,0,0,0,0,0,0,0,0,0,0,
0,0,0,0,0,0,0,0,0,0,0,0,0,0,0,0,
0,0,0,0,0,0,0,0,0,0,0,0,0,0,0,0,
0,0,0,0,0,0,0,0,0,0,0,0,0,0,0,0,
0,0,0,0,0,0,0,0,0,0,0,0,0,0,0,0,
0,0,0,0,0,0,0,0,0,0,0,0,0,0,0,0,
0,0,0,0,0,0,0,0,0,0,0,0,0,0,0,0,
0,0,0,0,0,0,0,0,0,0,0,0,0,0,0,0,
0,0,0,0,0,0,0,0,0,0,0,0,0,0,0,0,
0,0,0,0,0,0,0,0,61,69,71,71,71,71,71,0,
0,0,0,0,0,0,0,0,79,60,71,71,71,71,71,0,
0,0,0,0,0,0,0,0,0,70,71,71,71,71,71,0,
0,0,0,0,0,0,0,0,0,70,71,71,71,71,71,71,
0,0,0,0,0,0,0,0,0,70,71,71,71,71,71,71,
0,0,0,0,0,0,0,0,0,70,71,71,71,71,71,71
</chunk>
   <chunk x="32" y="16" width="16" height="16">
0,0,0,71,71,71,71,71,71,71,71,71,71,71,71,71,
0,0,0,71,71,71,71,71,71,71,71,71,71,71,71,71,
0,0,0,71,71,71,71,71,71,71,71,71,71,71,71,71,
0,0,0,71,71,71,71,71,71,71,71,71,71,71,71,71,
0,0,0,71,71,71,71,71,71,71,71,71,71,71,71,71,
0,0,0,71,71,71,71,71,71,71,71,71,71,71,71,71,
0,0,0,71,71,71,71,71,71,71,71,71,71,71,71,71,
0,0,0,0,0,0,0,0,0,0,0,0,0,0,0,0,
0,0,0,0,0,0,0,0,0,0,0,0,0,0,0,0,
0,0,0,0,0,0,0,0,0,0,0,0,0,0,0,0,
0,0,0,0,0,0,0,0,0,0,0,0,0,0,0,0,
0,0,0,0,0,0,0,0,0,0,0,0,0,0,0,0,
0,0,0,0,0,0,0,0,0,0,0,0,0,0,0,0,
71,71,0,0,0,0,0,0,0,0,0,0,0,0,0,0,
71,71,0,0,0,0,0,0,0,0,0,0,0,0,0,0,
71,71,0,0,0,0,0,0,0,0,0,0,0,0,0,0
</chunk>
   <chunk x="48" y="16" width="16" height="16">
71,71,71,71,71,71,71,71,71,71,71,71,71,71,71,71,
71,71,71,71,71,71,71,71,71,71,71,71,71,71,71,71,
71,71,71,71,71,71,71,71,71,71,71,71,71,71,71,71,
71,71,71,71,71,71,71,71,71,71,71,71,71,71,71,71,
71,71,71,71,71,71,71,71,71,71,71,71,71,71,71,71,
71,71,71,71,71,71,71,71,71,71,71,71,71,71,71,71,
71,71,71,71,71,71,71,71,71,71,71,71,71,71,71,71,
0,71,71,71,71,71,71,71,71,71,71,71,71,71,71,71,
0,71,71,71,71,71,71,71,71,71,71,71,71,71,71,71,
0,71,71,71,71,71,71,71,71,71,71,71,71,71,71,71,
0,71,71,71,71,71,71,71,71,71,71,71,71,71,71,71,
0,71,71,71,71,71,71,71,71,71,71,71,71,71,71,71,
0,71,71,71,71,71,71,71,71,71,71,71,71,71,71,71,
0,71,71,71,71,71,71,71,71,71,71,71,71,71,71,71,
0,71,71,71,71,71,71,71,71,71,71,71,71,71,71,71,
0,71,71,71,71,71,71,71,71,71,71,71,71,71,71,71
</chunk>
   <chunk x="64" y="16" width="16" height="16">
71,71,71,71,71,71,71,71,71,71,71,71,71,0,0,0,
71,71,71,71,71,71,71,71,71,71,71,71,71,0,0,0,
71,71,71,71,71,71,71,71,71,71,71,71,71,0,0,0,
71,71,71,71,71,71,71,71,71,71,71,71,71,71,71,71,
71,71,71,71,71,71,71,71,71,71,71,71,71,71,71,71,
71,71,71,71,71,71,71,71,71,71,71,71,71,71,71,71,
71,71,71,71,71,71,71,71,71,71,71,71,71,71,71,71,
71,71,71,71,71,71,71,71,71,71,71,71,71,71,71,71,
71,71,71,71,71,71,71,71,71,71,71,71,71,71,71,71,
71,71,71,71,71,71,71,71,71,71,71,71,71,71,71,71,
71,71,71,71,71,71,71,71,71,71,71,71,71,71,71,71,
71,71,71,71,71,71,71,71,71,71,71,71,71,0,0,0,
71,71,71,71,71,71,71,71,71,71,71,71,71,0,0,0,
71,71,71,71,71,71,71,71,71,71,71,71,71,0,0,0,
71,71,71,71,71,71,71,71,71,71,71,71,71,0,0,0,
71,71,71,71,71,71,71,71,71,71,71,71,71,0,0,0
</chunk>
   <chunk x="80" y="16" width="16" height="16">
0,0,0,0,0,0,0,0,0,0,0,0,0,0,0,0,
0,0,0,0,0,0,0,0,0,0,0,0,0,0,0,0,
0,0,0,0,0,0,0,0,0,0,0,0,0,0,0,0,
71,71,71,71,71,71,71,71,71,71,71,71,71,71,0,0,
71,71,71,71,71,71,71,71,71,71,71,71,71,71,71,71,
71,71,71,71,71,71,71,71,71,71,71,71,71,71,71,71,
71,71,71,71,71,71,71,71,71,71,71,71,71,71,71,71,
71,71,71,71,71,71,71,71,71,71,71,71,71,71,71,71,
71,71,71,71,71,71,71,71,71,71,71,71,71,71,71,71,
71,71,71,71,71,71,71,71,71,71,71,71,71,71,71,71,
71,71,71,71,71,71,71,71,71,71,71,71,71,71,71,71,
0,0,0,0,0,0,0,0,0,0,0,0,0,0,71,71,
0,0,0,0,0,0,0,0,0,0,0,0,0,0,71,71,
0,0,0,0,0,0,0,0,0,0,0,0,0,0,71,71,
0,0,0,0,0,0,0,0,0,0,0,0,0,0,0,0,
0,0,0,0,0,0,0,0,0,0,0,0,0,0,0,0
</chunk>
   <chunk x="96" y="16" width="16" height="16">
0,0,0,0,0,0,0,0,0,0,0,0,0,0,0,0,
0,0,0,0,0,0,0,0,0,0,0,0,0,0,0,0,
0,0,0,0,0,0,0,0,0,0,0,0,0,0,0,0,
0,0,0,0,0,0,0,0,0,0,0,0,0,0,0,0,
71,71,71,71,71,0,0,0,0,0,0,0,0,0,0,0,
71,71,71,71,71,0,0,0,0,0,71,71,71,71,71,71,
71,71,71,71,71,0,0,0,0,0,71,71,71,71,71,71,
71,71,71,71,71,0,0,0,0,0,71,71,71,71,71,71,
71,71,71,71,71,71,71,71,71,71,71,71,71,71,71,71,
71,71,71,71,71,71,71,71,71,71,71,71,71,71,71,71,
71,71,71,71,71,71,71,71,71,71,71,71,71,71,71,71,
71,71,71,71,71,71,71,71,71,71,71,71,71,71,71,71,
71,71,71,71,71,71,71,71,71,71,71,71,71,71,71,71,
71,71,71,71,71,71,71,71,71,71,71,71,71,71,71,71,
0,0,0,0,0,0,0,0,0,0,0,71,71,71,71,71,
0,0,0,0,0,0,0,0,0,0,0,71,71,71,71,71
</chunk>
   <chunk x="112" y="16" width="16" height="16">
0,0,0,0,0,0,0,0,0,71,71,71,71,71,71,71,
0,0,0,0,0,0,0,0,0,71,71,71,71,71,71,71,
0,0,0,0,0,0,0,0,0,71,71,71,71,71,71,71,
0,0,0,0,0,0,0,0,0,71,71,71,71,71,71,71,
0,0,0,0,0,0,0,0,0,71,71,71,71,71,71,71,
71,71,71,71,71,71,71,71,71,71,71,71,71,71,71,71,
71,71,71,71,71,71,71,71,71,71,71,71,71,71,59,80,
71,71,71,71,71,71,71,71,71,71,71,71,71,59,18,0,
71,71,71,71,71,71,71,71,71,71,59,80,80,18,0,0,
71,71,71,71,71,71,71,71,71,71,72,0,0,0,0,0,
71,71,59,80,80,80,80,80,80,80,18,0,0,0,0,0,
59,80,18,0,0,0,0,0,0,0,0,0,0,0,0,0,
72,0,0,0,0,0,0,0,0,0,0,0,0,0,0,0,
72,0,0,0,0,0,0,0,0,0,0,0,0,0,0,0,
72,0,0,0,0,0,0,0,0,0,0,0,0,0,0,0,
68,62,62,62,62,62,62,14,15,0,0,0,0,0,0,0
</chunk>
   <chunk x="128" y="16" width="16" height="16">
71,71,0,0,0,0,0,0,0,0,0,0,0,0,0,0,
71,71,0,0,0,0,0,0,0,0,0,0,0,0,0,0,
71,71,0,0,0,0,0,0,0,0,0,0,0,0,0,0,
71,71,0,0,0,0,0,0,0,0,0,0,0,0,0,0,
71,59,81,0,0,0,0,0,0,0,0,0,0,0,0,0,
71,68,63,0,0,0,0,0,0,0,0,0,0,0,0,0,
80,80,81,0,0,0,0,0,0,0,0,0,0,0,0,0,
0,0,0,0,0,0,0,0,0,0,0,0,0,0,0,0,
0,0,0,0,0,0,0,0,0,0,0,0,0,0,0,0,
0,0,0,0,0,0,0,0,0,0,0,0,0,0,0,0,
0,0,0,0,0,0,0,0,0,0,0,0,0,0,0,0,
0,0,0,0,0,0,0,0,0,0,0,0,0,0,0,0,
0,0,0,0,0,0,0,0,0,0,0,0,0,0,0,0,
0,0,0,0,0,0,0,0,0,0,0,0,0,0,0,0,
0,0,0,0,0,0,0,0,0,0,0,0,0,0,0,0,
0,0,0,0,0,0,0,0,0,0,0,0,0,0,0,0
</chunk>
   <chunk x="0" y="32" width="16" height="16">
0,0,0,0,0,0,0,0,0,0,0,0,0,0,0,0,
0,0,0,0,0,0,0,0,0,0,0,0,0,0,0,0,
0,0,0,0,0,0,0,0,0,0,0,0,0,0,0,0,
0,0,0,0,0,0,0,0,0,0,0,0,0,0,0,0,
0,0,0,0,0,0,0,0,0,0,0,0,0,0,0,0,
0,0,0,0,0,0,0,0,0,0,0,0,0,0,0,0,
0,0,0,0,0,0,0,0,0,0,0,0,0,0,0,0,
0,0,0,0,0,0,0,0,0,0,0,0,0,0,0,0,
0,0,0,0,0,0,0,0,0,0,0,0,0,0,0,0,
0,0,0,0,0,0,0,0,0,0,0,0,0,0,0,0,
0,0,0,0,0,0,0,0,0,0,0,0,0,0,0,0,
0,0,0,0,0,0,0,0,0,0,0,61,62,63,0,0,
0,0,0,0,0,0,0,0,0,0,0,70,71,72,0,0,
0,0,0,0,0,0,0,0,0,0,0,70,71,72,0,0,
0,0,0,0,0,0,0,0,0,0,0,70,71,72,0,0,
0,0,0,0,0,0,0,0,0,0,0,79,80,81,0,0
</chunk>
   <chunk x="16" y="32" width="16" height="16">
0,0,0,0,0,0,0,0,0,70,71,71,71,71,71,71,
0,0,0,0,0,0,0,0,0,70,71,71,71,71,71,71,
0,0,0,0,0,0,0,0,0,79,80,80,80,60,71,71,
0,0,0,0,0,0,0,0,0,0,0,0,0,27,60,71,
0,0,0,0,0,0,0,0,0,0,0,0,0,0,70,71,
0,0,0,0,0,0,0,0,0,0,0,0,0,0,70,71,
0,0,0,0,0,0,0,0,0,0,0,0,0,0,79,80,
0,0,0,0,0,0,0,0,0,0,0,0,0,0,0,0,
0,0,0,0,0,0,0,0,0,0,0,0,0,0,0,0,
0,0,0,0,0,0,0,0,0,0,0,0,0,0,0,0,
0,0,0,0,0,0,0,0,0,0,0,0,0,0,0,0,
0,0,0,0,0,0,0,0,0,0,0,0,0,0,0,0,
0,0,0,0,0,0,0,0,0,0,0,0,0,0,0,0,
0,0,0,0,0,0,0,0,0,0,0,0,0,0,0,0,
0,0,0,0,0,0,0,0,0,0,0,0,0,0,0,0,
0,0,0,0,0,0,0,0,0,0,0,0,0,0,0,0
</chunk>
   <chunk x="32" y="32" width="16" height="16">
71,71,71,0,0,0,0,0,0,0,0,0,0,0,0,0,
71,71,71,71,71,0,0,0,0,0,0,0,0,0,0,0,
71,71,71,71,71,0,0,0,0,0,0,0,0,0,0,0,
71,71,71,71,71,71,71,0,0,0,0,0,0,0,0,0,
71,71,71,71,71,71,71,0,0,0,0,0,0,0,0,0,
71,71,71,71,71,71,71,0,0,0,0,0,0,0,0,0,
80,60,71,71,71,71,71,0,0,0,0,0,0,0,0,0,
0,27,80,60,71,71,71,0,0,0,0,0,0,0,0,0,
0,0,0,27,80,60,71,71,71,71,71,71,71,0,0,0,
0,0,0,0,0,70,71,71,71,71,71,71,71,0,0,0,
0,0,0,0,0,70,71,71,71,71,71,71,71,71,71,71,
0,0,0,0,0,79,80,80,80,80,60,71,71,71,71,71,
0,0,0,0,0,0,0,0,0,0,70,71,71,71,71,71,
0,0,0,0,0,0,0,0,0,0,70,71,71,71,71,71,
0,0,0,0,0,0,0,0,0,0,70,71,71,71,71,71,
0,0,0,0,0,0,0,0,0,0,70,71,71,71,71,71
</chunk>
   <chunk x="48" y="32" width="16" height="16">
0,71,71,71,71,71,71,71,71,71,71,71,71,71,71,71,
0,71,71,71,71,71,71,71,71,71,71,71,71,71,71,71,
0,71,71,71,71,71,71,71,71,71,71,71,71,71,71,71,
0,71,71,71,71,71,71,71,71,71,71,71,71,71,71,71,
0,71,71,71,71,71,71,71,71,71,71,71,71,71,71,71,
0,71,71,71,71,71,71,71,71,71,71,71,71,71,71,71,
0,71,71,71,71,71,71,71,71,71,71,71,71,71,71,71,
0,0,0,0,0,0,0,0,0,0,0,71,71,71,71,71,
0,0,0,0,0,0,0,0,0,0,0,71,71,71,71,71,
0,0,0,0,0,0,0,0,0,0,0,71,71,71,71,71,
71,71,71,71,71,71,71,71,71,71,71,71,71,71,71,71,
71,71,71,71,71,71,71,71,71,71,71,71,71,71,71,71,
71,71,71,71,71,71,71,71,71,71,71,71,71,71,71,71,
71,71,71,71,71,71,71,71,71,71,71,71,71,71,71,71,
71,71,71,71,71,71,71,71,71,71,71,71,71,71,71,71,
71,71,71,71,71,71,71,71,71,71,71,71,71,71,71,71
</chunk>
   <chunk x="64" y="32" width="16" height="16">
71,71,71,71,71,71,71,71,71,71,71,71,71,0,0,0,
71,71,71,71,71,71,71,71,71,71,71,71,71,0,0,0,
71,71,71,71,71,71,71,71,71,71,71,71,71,0,0,0,
71,71,71,71,71,71,71,71,71,71,71,71,71,0,0,0,
71,71,71,71,71,71,71,71,71,71,71,71,71,0,0,0,
71,71,71,71,71,71,71,71,71,71,71,71,71,0,0,0,
71,71,71,71,71,71,71,71,71,71,71,71,71,0,0,0,
0,0,0,0,0,0,0,0,0,0,0,0,0,0,0,0,
0,0,0,0,0,0,0,0,0,0,0,0,0,0,0,0,
0,0,0,0,0,0,0,0,0,0,0,0,0,0,0,0,
71,71,71,71,71,71,71,71,71,71,71,0,0,0,0,0,
71,71,71,71,71,71,71,71,71,71,71,0,0,0,0,0,
71,71,71,71,71,71,71,71,71,71,71,0,0,0,0,0,
71,71,71,71,71,71,71,71,71,71,71,0,0,0,0,0,
71,71,71,71,71,71,71,71,71,71,71,0,0,0,0,0,
71,71,71,71,71,71,71,71,71,71,71,0,0,0,0,0
</chunk>
   <chunk x="80" y="32" width="16" height="16">
0,0,0,0,0,0,0,0,0,0,0,0,0,0,0,0,
0,0,0,0,0,0,0,0,0,0,0,0,0,0,0,0,
0,0,0,0,0,0,0,0,0,0,0,0,0,0,0,0,
0,0,0,0,0,0,0,0,0,0,0,0,0,0,0,0,
0,0,0,0,0,0,0,0,0,0,0,0,0,0,0,0,
0,0,0,0,0,0,0,0,0,0,0,0,0,0,0,0,
0,0,0,0,0,0,0,0,0,0,0,0,0,0,0,0,
0,0,0,0,0,0,0,0,0,0,0,0,0,0,0,0,
0,0,0,0,0,0,0,0,0,0,0,0,0,0,0,0,
0,0,0,0,0,0,0,0,0,0,0,0,0,0,0,0,
0,0,0,0,0,0,0,0,0,0,0,0,0,0,0,0,
0,0,0,0,0,0,0,0,0,0,0,0,0,0,0,0,
0,0,0,0,0,71,71,71,71,71,71,71,71,71,71,71,
0,0,0,0,0,71,71,71,71,71,71,71,71,71,71,71,
0,0,0,0,0,71,71,71,71,71,71,71,71,71,71,71,
0,0,0,0,0,71,71,71,71,71,71,71,71,71,71,71
</chunk>
   <chunk x="96" y="32" width="16" height="16">
0,0,0,0,0,0,0,0,0,0,0,71,71,71,71,71,
0,0,0,0,0,0,0,0,0,0,0,71,71,71,71,71,
0,0,0,0,0,0,0,0,0,0,0,0,0,0,0,71,
0,0,0,0,0,0,0,0,0,0,0,0,0,0,0,71,
0,0,0,0,0,0,0,0,0,0,0,0,0,0,0,0,
0,0,0,0,0,0,0,0,0,0,0,0,0,0,0,0,
0,0,0,0,0,0,0,0,0,0,0,0,0,0,0,0,
0,0,0,0,0,0,0,0,0,0,0,0,0,0,0,0,
0,0,0,0,0,0,0,0,0,0,0,0,0,0,0,0,
0,0,0,0,0,0,0,0,0,0,0,0,0,0,0,0,
0,0,0,0,0,0,0,0,0,0,0,0,0,0,0,0,
0,0,0,0,0,0,0,0,0,0,0,0,0,0,0,0,
71,71,71,71,71,71,71,71,71,71,71,71,0,0,0,0,
71,71,71,71,71,71,71,71,71,71,71,71,0,0,0,0,
71,71,71,71,71,71,71,71,71,71,71,71,71,71,71,71,
71,71,71,71,71,71,71,71,71,71,71,71,71,71,71,71
</chunk>
   <chunk x="112" y="32" width="16" height="16">
71,71,71,71,71,71,71,71,72,0,0,0,0,0,0,0,
71,71,71,71,71,71,71,71,68,62,62,62,62,62,62,62,
71,71,71,71,71,71,71,71,71,71,71,71,71,71,71,71,
71,71,71,71,71,71,71,71,71,71,71,71,71,71,71,71,
0,0,0,0,0,0,0,0,0,0,0,0,0,0,0,0,
0,0,0,0,0,0,0,0,0,0,0,0,0,0,0,0,
0,0,0,0,0,0,0,0,0,0,0,0,0,0,0,0,
0,0,0,0,0,0,0,0,0,0,0,0,0,0,0,0,
0,0,0,0,0,0,0,0,0,0,0,0,0,0,0,0,
0,0,0,0,0,0,0,0,0,0,0,0,0,0,0,0,
0,0,0,0,0,0,0,0,0,0,0,0,0,0,0,0,
0,0,0,0,0,0,0,0,0,0,0,0,0,0,0,0,
0,0,0,0,0,0,0,0,0,0,0,0,0,0,0,0,
0,0,0,0,0,0,0,0,0,0,0,0,0,0,0,0,
71,71,71,71,71,71,71,71,71,71,71,71,71,71,71,71,
71,71,71,71,71,71,71,71,71,59,80,80,80,80,80,80
</chunk>
   <chunk x="128" y="32" width="16" height="16">
0,0,0,0,0,0,0,0,0,0,0,0,0,0,0,0,
62,14,15,0,0,0,0,0,0,0,0,0,0,0,0,0,
71,71,68,14,15,0,0,0,0,0,0,0,0,0,0,0,
60,59,60,71,72,0,0,0,0,0,0,0,0,0,0,0,
79,81,79,80,81,0,0,0,0,0,0,0,0,0,0,0,
0,0,0,0,0,0,0,0,0,0,0,0,0,0,0,0,
0,0,0,0,0,0,0,0,0,0,0,0,0,0,0,0,
0,0,0,0,0,0,0,0,0,0,0,0,0,0,0,0,
0,0,0,0,0,0,0,0,0,0,0,0,0,0,0,0,
0,0,0,0,0,0,0,0,0,0,0,0,0,0,0,0,
0,0,0,0,0,0,0,0,0,0,0,0,0,0,0,0,
0,0,0,0,0,0,0,0,0,0,0,0,0,0,0,0,
0,0,0,0,0,0,0,0,0,0,0,0,0,0,0,0,
63,61,63,0,0,0,0,0,0,0,0,0,0,0,0,0,
68,69,68,63,0,0,0,0,0,0,0,0,0,0,0,0,
80,80,80,81,0,0,0,0,0,0,0,0,0,0,0,0
</chunk>
   <chunk x="32" y="48" width="16" height="16">
0,0,0,0,0,0,0,0,0,0,70,71,71,71,71,71,
0,0,0,0,0,0,0,0,0,0,70,71,71,71,59,60,
0,0,0,0,0,0,0,0,0,0,79,80,80,80,81,79,
0,0,0,0,0,0,0,0,0,0,0,0,0,0,0,0,
0,0,0,0,0,0,0,0,0,0,0,0,0,0,0,0,
0,0,0,0,0,0,0,0,0,0,0,0,0,0,0,0,
0,0,0,0,0,0,0,0,0,0,0,0,0,0,0,0,
0,0,0,0,0,0,0,0,0,0,0,0,0,0,0,0,
0,0,0,61,62,62,62,62,63,0,0,0,0,0,0,0,
0,0,0,70,71,71,71,59,81,0,0,0,0,0,0,0,
0,0,0,70,71,71,71,68,63,0,0,0,0,0,71,71,
0,0,0,70,71,71,71,71,0,0,0,0,0,0,71,71,
0,0,0,70,71,71,71,71,0,0,0,0,0,0,71,71,
0,0,0,70,71,71,71,71,0,0,0,0,0,0,71,71,
0,0,0,70,71,71,71,71,0,0,0,0,0,0,71,71,
0,0,0,70,71,71,71,71,0,0,0,0,0,0,71,71
</chunk>
   <chunk x="48" y="48" width="16" height="16">
71,71,71,71,71,71,71,71,71,71,71,71,71,71,71,71,
71,71,71,71,71,71,71,71,71,71,71,71,71,71,71,71,
0,0,0,0,71,71,71,71,71,71,71,71,71,71,71,71,
0,0,0,0,71,71,71,71,71,71,71,71,71,71,71,71,
0,0,0,0,71,71,71,71,71,71,71,71,71,71,71,71,
0,0,0,0,71,71,71,71,71,71,71,71,71,71,71,71,
0,0,0,0,71,71,71,71,71,71,71,71,71,71,71,71,
0,0,0,0,71,71,71,71,71,71,71,71,71,71,71,71,
0,0,0,0,71,71,71,71,71,71,71,71,71,71,71,71,
0,0,0,0,71,71,71,71,71,71,71,71,71,71,71,71,
71,71,71,71,71,71,71,71,71,71,71,71,71,71,71,71,
71,71,71,71,71,71,71,71,71,71,71,71,71,71,71,71,
71,71,71,71,71,71,71,71,71,71,71,71,71,71,71,71,
71,71,71,71,71,71,71,71,71,71,71,71,71,71,71,71,
71,71,71,71,71,71,71,71,71,71,71,71,71,71,71,71,
71,71,71,71,71,71,71,71,71,71,71,71,71,71,71,71
</chunk>
   <chunk x="64" y="48" width="16" height="16">
71,71,71,71,71,71,71,71,71,71,71,0,0,0,0,0,
71,71,71,71,71,71,71,71,71,71,71,0,0,0,0,0,
71,71,71,71,71,71,71,71,71,71,71,0,0,0,0,0,
71,71,71,71,71,71,71,71,71,71,71,0,0,0,0,0,
71,71,71,71,71,71,71,71,71,71,71,0,0,0,0,0,
71,71,71,71,71,71,71,71,71,71,71,0,0,0,0,0,
71,71,71,71,71,71,71,71,71,71,71,0,0,0,0,0,
71,71,71,71,71,71,71,71,71,71,71,0,0,0,0,0,
71,71,71,71,71,71,71,71,71,71,71,0,0,0,0,0,
71,71,71,71,71,71,71,71,71,71,71,0,0,0,0,0,
71,71,71,71,71,71,71,71,71,71,71,0,0,0,0,0,
71,71,71,71,71,71,71,71,71,71,71,0,0,0,0,0,
71,71,71,71,71,71,71,71,71,71,71,71,71,71,71,71,
71,71,71,71,71,71,71,71,71,71,71,71,71,71,71,71,
71,71,71,71,71,71,71,71,71,71,71,71,71,71,71,71,
71,71,71,71,71,71,71,71,71,71,71,71,71,71,71,71
</chunk>
   <chunk x="80" y="48" width="16" height="16">
0,0,0,0,0,71,71,71,71,71,71,71,71,71,71,71,
0,0,0,0,0,71,71,71,71,71,71,71,71,71,71,71,
0,0,0,0,0,71,71,71,71,71,71,71,71,71,71,71,
0,0,0,0,0,71,71,71,71,71,71,71,71,71,71,71,
0,0,0,0,0,71,71,71,71,71,71,71,71,71,71,71,
0,0,0,0,0,71,71,71,71,71,71,71,71,71,71,71,
0,0,0,0,0,71,71,71,71,71,71,71,71,71,71,71,
0,0,0,0,0,71,71,71,71,71,71,71,71,71,71,71,
0,0,0,0,0,71,71,71,71,71,71,71,71,71,71,71,
0,0,0,0,0,71,71,71,71,71,71,71,71,71,71,71,
0,0,0,0,0,71,71,71,71,71,71,71,71,71,71,71,
0,0,0,0,0,71,71,71,71,71,71,71,71,71,71,71,
71,71,71,71,71,71,71,71,71,71,71,71,71,71,71,71,
71,71,71,71,71,71,71,71,71,71,71,71,71,71,71,71,
71,71,71,71,71,71,71,71,71,71,71,71,71,71,71,71,
71,71,71,71,71,71,71,71,71,71,71,71,71,71,71,71
</chunk>
   <chunk x="96" y="48" width="16" height="16">
71,71,71,71,71,71,71,71,71,71,71,71,71,71,71,71,
71,71,71,71,71,71,71,71,71,71,71,71,71,71,71,71,
71,71,71,71,71,71,71,71,71,71,71,71,71,71,71,71,
71,71,71,71,71,71,71,71,71,71,71,71,0,0,0,0,
71,71,71,71,71,71,71,71,71,71,71,71,0,0,0,0,
71,71,71,71,71,71,71,71,71,71,71,71,0,0,0,0,
71,71,71,71,71,71,71,71,71,71,71,71,0,0,0,0,
71,71,71,71,71,71,71,71,71,71,71,71,0,0,0,0,
71,71,71,71,71,71,71,71,71,71,71,71,0,0,0,0,
71,71,71,71,71,71,71,71,71,71,71,71,0,0,0,0,
71,71,71,71,71,71,71,71,71,71,71,71,0,0,0,0,
71,71,71,71,71,71,71,71,71,71,71,71,0,0,0,0,
71,71,71,71,71,71,71,71,71,71,71,71,71,0,0,0,
71,71,71,71,71,71,71,71,71,71,71,71,71,0,0,0,
71,71,71,71,71,71,71,71,71,71,71,71,71,0,0,0,
71,71,71,71,71,71,71,71,71,71,71,71,71,0,0,0
</chunk>
   <chunk x="112" y="48" width="16" height="16">
71,71,71,71,71,71,71,71,71,72,0,0,0,0,0,0,
71,71,71,71,71,71,71,71,71,72,0,0,0,0,0,0,
71,71,71,71,71,71,71,71,71,68,62,62,62,62,62,11,
0,0,0,0,0,0,71,71,71,71,71,71,71,71,71,72,
0,0,0,0,0,0,71,71,71,71,71,71,71,71,71,72,
0,0,0,0,0,0,71,71,71,71,71,71,71,71,71,72,
0,0,0,0,0,0,71,71,71,71,71,71,71,71,59,81,
0,0,0,0,0,0,71,71,71,71,71,71,71,71,72,0,
0,0,0,0,0,0,0,0,0,0,0,71,71,59,18,0,
0,0,0,0,0,0,0,0,0,0,0,71,71,72,0,0,
0,0,0,0,0,0,0,0,0,0,0,71,71,72,0,0,
0,0,0,0,0,0,0,0,0,0,0,71,71,72,0,0,
0,0,0,0,0,0,0,0,0,0,0,71,71,72,0,0,
0,0,0,0,0,0,0,0,0,0,0,71,71,72,0,0,
0,0,0,0,0,0,0,0,0,0,0,59,80,81,0,0,
0,0,0,0,0,0,0,0,0,0,0,81,0,0,0,0
</chunk>
   <chunk x="128" y="48" width="16" height="16">
0,0,0,0,0,0,0,0,0,0,0,0,0,0,0,0,
0,0,0,0,0,0,0,0,0,0,0,0,0,0,0,0,
0,0,0,0,0,0,0,0,0,0,0,0,0,0,0,0,
0,0,0,0,0,0,0,0,0,0,0,0,0,0,0,0,
0,0,0,0,0,0,0,0,0,0,0,0,0,0,0,0,
0,0,0,0,0,0,0,0,0,0,0,0,0,0,0,0,
0,0,0,0,0,0,0,0,0,0,0,0,0,0,0,0,
0,0,0,0,0,0,0,0,0,0,0,0,0,0,0,0,
0,0,0,0,0,0,0,0,0,0,0,0,0,0,0,0,
0,0,0,0,0,0,0,0,0,0,0,0,0,0,0,0,
0,0,0,0,0,0,0,0,0,0,0,0,0,0,0,0,
0,0,0,0,0,0,0,0,0,0,0,0,0,0,0,0,
0,0,0,0,0,0,0,0,0,0,0,0,0,0,0,0,
0,0,0,0,0,0,0,0,0,0,0,0,0,0,0,0,
0,0,0,0,0,0,0,0,0,0,0,0,0,0,0,0,
0,0,0,0,61,63,0,0,0,0,0,0,0,0,0,0
</chunk>
   <chunk x="16" y="64" width="16" height="16">
0,0,0,0,0,0,0,0,0,0,0,0,0,0,0,0,
0,0,0,0,0,0,0,0,0,0,0,0,0,0,0,0,
0,0,0,0,0,0,0,0,0,0,0,0,0,0,0,0,
0,0,0,0,0,0,0,0,0,0,0,0,0,0,0,0,
0,0,0,0,0,0,0,0,0,0,0,0,0,0,0,0,
0,0,0,0,0,0,0,0,0,0,0,0,0,0,0,10,
0,0,0,0,0,0,0,0,0,0,61,62,62,62,62,69,
0,0,0,0,0,0,0,0,0,0,70,71,71,71,71,71,
0,0,0,0,0,0,0,0,0,61,69,71,71,71,71,71,
0,0,0,0,0,0,0,0,0,0,0,0,0,0,0,0,
0,0,0,0,0,0,0,0,0,0,0,0,0,0,0,0,
0,0,0,0,0,0,0,0,0,0,0,0,0,0,0,0,
0,0,0,0,0,0,0,0,0,0,0,0,0,0,0,0,
0,0,0,0,0,0,0,0,0,0,0,0,0,0,0,0,
0,0,0,0,0,0,0,0,0,0,0,0,0,0,0,0,
0,0,0,0,0,0,0,0,0,0,0,0,0,0,0,0
</chunk>
   <chunk x="32" y="64" width="16" height="16">
0,0,0,70,71,71,71,71,0,0,0,0,0,0,71,71,
0,0,0,70,71,71,71,71,0,0,0,0,0,0,71,71,
0,0,0,70,71,71,71,71,0,0,0,0,0,0,71,71,
0,0,10,69,71,71,71,71,0,0,0,0,0,0,71,71,
12,13,69,71,71,71,71,71,0,0,0,0,0,0,71,71,
69,71,71,71,71,71,71,71,0,0,0,0,0,0,71,71,
71,71,71,71,71,71,71,71,0,0,0,0,0,0,71,71,
71,71,71,71,71,71,71,71,0,0,0,0,0,0,71,71,
71,71,71,71,0,0,0,0,0,0,0,0,0,0,71,71,
0,0,0,0,0,0,0,0,0,0,0,0,0,0,71,71,
0,0,0,0,0,0,0,0,0,0,0,0,0,0,71,71,
0,0,0,0,0,0,0,0,0,0,0,0,0,0,71,71,
0,0,0,0,0,0,0,0,0,0,0,0,0,0,0,0,
0,0,0,0,0,0,0,0,0,0,0,0,0,0,0,0,
0,0,0,0,0,0,0,0,0,0,0,0,0,0,0,0,
0,0,0,0,0,0,0,0,0,0,0,0,0,0,0,0
</chunk>
   <chunk x="48" y="64" width="16" height="16">
71,71,71,71,71,71,71,71,71,71,71,71,71,71,71,71,
71,71,71,71,71,71,71,71,71,71,71,71,71,71,71,71,
71,71,71,71,71,71,71,71,71,71,71,71,71,71,71,71,
71,71,71,71,71,71,71,71,71,71,71,71,71,71,71,71,
71,71,71,71,71,71,71,71,71,71,71,71,71,71,71,71,
71,71,71,71,71,71,71,71,71,71,71,71,71,71,71,71,
71,71,71,71,71,71,71,71,71,71,71,71,71,71,71,71,
71,71,71,71,71,71,71,71,71,71,71,71,71,71,71,71,
71,71,71,71,71,71,71,71,71,71,71,71,71,71,71,71,
71,71,71,71,71,71,71,71,71,71,71,71,71,71,71,71,
71,71,71,71,71,71,71,71,71,71,71,71,71,71,71,71,
71,71,71,71,71,71,71,71,71,71,71,71,71,71,71,71,
0,0,0,0,0,0,0,0,0,0,0,0,0,0,0,0,
0,0,0,0,0,0,0,0,0,0,0,0,0,0,0,0,
0,0,0,0,0,0,0,0,0,0,0,0,0,0,0,0,
0,0,0,0,0,0,0,0,0,0,0,0,0,0,0,0
</chunk>
   <chunk x="64" y="64" width="16" height="16">
71,71,71,71,71,71,71,71,71,71,71,71,71,71,71,71,
71,71,71,71,71,71,71,71,71,71,71,71,71,71,71,71,
71,71,71,71,71,71,71,71,71,71,71,71,71,71,71,71,
71,71,0,0,0,0,0,0,0,0,0,0,0,71,71,71,
71,71,0,0,0,0,0,0,0,0,0,0,0,71,71,71,
71,71,0,0,0,0,0,0,0,0,0,0,0,71,71,71,
71,71,0,0,0,0,0,0,0,0,0,0,0,71,71,71,
71,71,0,0,0,0,0,0,0,0,0,0,0,71,71,71,
71,71,0,0,0,0,0,0,0,0,0,0,0,71,71,71,
71,71,0,0,0,0,0,0,0,0,0,0,0,71,71,71,
71,71,0,0,0,0,0,0,0,0,0,0,0,71,71,71,
71,71,0,0,0,0,0,0,71,71,71,71,71,71,71,71,
0,0,0,0,0,0,0,0,71,71,71,71,71,71,71,71,
0,0,0,0,0,0,0,0,71,71,71,71,71,71,71,71,
0,0,0,0,0,0,0,0,71,71,71,71,71,71,71,71,
0,0,0,0,0,0,0,0,71,71,71,71,71,71,71,71
</chunk>
   <chunk x="80" y="64" width="16" height="16">
71,71,71,71,71,71,71,71,71,71,71,71,71,71,71,71,
71,71,71,71,71,71,71,71,71,71,71,71,71,71,71,71,
71,71,71,71,71,71,71,71,71,71,71,71,71,71,71,71,
71,71,71,0,0,0,0,0,0,0,0,0,0,0,0,0,
71,71,71,0,0,0,0,0,0,0,0,0,0,0,0,0,
71,71,71,0,0,0,0,0,0,0,0,0,0,0,0,0,
71,71,71,0,0,0,0,0,0,0,0,0,0,0,0,0,
71,71,71,0,0,0,0,0,0,0,0,0,0,0,0,0,
71,71,71,0,0,0,0,0,0,0,0,0,0,0,0,0,
71,71,71,0,0,0,0,0,0,0,0,0,0,0,0,0,
71,71,71,0,0,0,0,0,0,0,0,0,0,0,0,0,
71,71,71,71,71,71,71,71,0,0,0,0,0,0,0,0,
71,71,71,71,71,71,71,71,0,0,0,0,0,0,0,0,
71,71,71,71,71,71,71,71,0,0,0,0,0,0,0,0,
71,71,71,71,71,71,71,71,0,0,0,0,0,0,0,0,
71,71,71,71,71,71,71,71,0,0,0,0,0,0,0,0
</chunk>
   <chunk x="96" y="64" width="16" height="16">
71,71,71,71,71,71,71,71,71,71,71,71,71,0,0,0,
71,71,71,71,71,71,71,71,71,71,71,71,71,0,0,0,
71,71,71,71,71,71,71,71,71,71,71,71,71,0,0,0,
0,0,0,0,0,0,0,0,0,0,0,0,0,0,0,0,
0,0,0,0,0,0,0,0,0,0,0,0,0,0,0,0,
0,0,0,0,0,0,0,0,0,0,0,0,0,0,0,0,
0,0,0,0,0,0,0,0,0,0,0,0,0,0,0,0,
0,0,0,0,0,0,0,0,0,0,0,0,0,0,0,0,
0,0,0,0,0,0,0,0,0,0,0,0,0,0,0,0,
0,0,0,0,0,0,0,0,0,0,0,0,0,0,0,0,
0,0,0,0,0,0,0,0,0,0,0,0,0,0,0,0,
0,0,0,0,0,0,0,0,0,0,0,0,0,0,0,0,
0,0,0,0,0,0,0,0,0,0,0,0,0,0,0,0,
0,0,0,0,0,0,0,0,0,0,0,0,0,0,0,0,
0,0,0,0,0,0,0,0,0,0,0,0,0,0,0,0,
0,0,0,0,0,0,0,0,0,0,0,0,0,0,0,0
</chunk>
   <chunk x="112" y="64" width="16" height="16">
0,0,0,0,0,0,0,0,0,0,0,0,0,0,0,0,
0,0,0,0,0,0,0,0,0,0,0,0,0,0,0,0,
0,0,0,0,0,0,0,0,0,0,0,0,0,0,0,0,
0,0,0,0,0,0,0,0,0,0,0,0,0,0,0,0,
0,0,0,0,0,0,0,0,0,0,0,0,0,0,0,0,
0,0,0,0,0,0,0,0,0,0,0,0,0,0,0,0,
0,0,0,0,0,0,0,0,0,0,0,0,0,0,0,0,
0,0,0,0,0,0,0,0,61,62,63,0,0,0,0,0,
0,0,71,71,71,71,71,71,69,59,81,0,0,0,0,0,
0,0,71,71,71,71,71,71,71,72,0,0,0,0,0,0,
0,0,71,71,71,71,71,71,71,68,62,62,62,62,14,15,
0,0,71,71,71,71,71,71,71,71,71,71,71,71,71,72,
0,0,71,71,71,71,71,71,71,71,71,71,71,71,71,68,
0,0,71,71,71,71,71,71,71,71,71,71,71,71,71,71,
0,0,0,0,0,0,0,71,71,71,71,71,71,71,71,71,
0,0,0,0,0,0,0,0,0,0,0,0,0,0,0,0
</chunk>
   <chunk x="128" y="64" width="16" height="16">
0,0,0,0,70,72,0,0,0,0,0,0,0,0,0,0,
0,0,0,0,70,72,0,0,0,0,0,0,0,0,0,0,
0,0,0,0,70,72,0,0,0,0,0,0,0,0,0,0,
0,0,0,0,79,81,0,0,0,0,0,0,0,0,0,0,
0,0,0,0,0,0,0,0,0,0,0,0,0,0,0,0,
0,0,0,0,0,0,0,0,0,0,0,0,0,0,0,0,
0,0,0,0,61,62,63,0,0,0,0,0,0,0,0,0,
0,0,0,0,70,71,72,0,0,0,0,0,0,0,0,0,
0,0,0,0,70,71,72,0,0,0,0,0,0,0,0,0,
0,0,0,0,70,71,72,0,0,0,0,0,0,0,0,0,
0,0,0,10,69,71,72,0,0,0,0,0,0,0,0,0,
0,0,10,69,71,59,18,0,0,0,0,0,0,0,0,0,
62,62,69,71,71,72,0,0,0,0,0,0,0,0,0,0,
71,71,71,71,71,72,0,0,0,0,0,0,0,0,0,0,
71,71,71,60,71,68,63,0,0,0,0,0,0,0,0,0,
0,0,0,79,80,80,81,0,0,0,0,0,0,0,0,0
</chunk>
   <chunk x="64" y="80" width="16" height="16">
0,0,71,71,71,71,71,71,71,71,71,71,71,71,71,71,
0,0,71,71,71,71,71,71,71,71,71,71,71,71,71,71,
0,0,71,71,71,71,71,71,71,71,71,71,71,71,71,71,
0,0,71,71,71,71,71,71,71,71,71,71,71,71,71,71,
0,0,71,71,71,71,71,71,71,71,71,71,71,71,71,71,
0,0,71,71,71,71,71,71,71,71,71,71,71,71,71,71,
0,0,71,71,71,71,71,71,71,71,71,71,71,71,71,71,
0,0,71,71,71,71,71,71,71,71,71,71,71,71,71,71,
0,0,71,71,71,71,71,71,71,71,71,71,71,71,71,71,
0,0,71,71,71,71,71,71,71,71,71,71,71,71,71,71,
0,0,71,71,71,71,71,71,71,71,71,71,71,71,71,71,
0,0,71,71,71,71,71,71,71,71,71,71,71,71,71,71,
0,0,71,71,71,71,71,71,71,71,71,71,71,71,71,71,
0,0,71,71,71,71,71,71,71,71,71,71,71,71,71,71,
0,0,71,71,71,71,71,71,71,71,71,71,71,71,71,71,
0,0,71,71,71,71,71,71,71,71,71,71,71,71,71,71
</chunk>
   <chunk x="80" y="80" width="16" height="16">
71,71,71,71,71,71,71,71,71,71,71,71,71,71,0,0,
71,71,71,71,71,71,71,71,71,71,71,71,71,71,0,0,
71,71,71,71,71,71,71,71,71,71,71,71,71,71,0,0,
71,71,71,71,71,71,71,71,71,71,71,71,71,71,0,0,
71,71,71,71,71,71,71,71,71,71,71,71,71,71,0,0,
71,71,71,71,71,71,71,71,71,71,71,71,71,71,0,0,
71,71,71,71,71,71,71,71,71,71,71,71,71,71,0,0,
71,71,71,71,71,71,71,71,71,71,71,71,71,71,0,0,
71,71,71,71,71,71,71,71,71,71,71,71,71,71,0,0,
71,71,71,71,71,71,71,71,71,71,71,71,71,71,0,0,
71,71,71,71,71,71,71,71,71,71,71,71,71,71,0,0,
71,71,71,71,71,71,71,71,71,71,71,71,71,71,0,0,
71,71,71,71,71,71,71,71,71,71,71,71,71,71,0,0,
71,71,71,71,71,71,71,71,71,71,71,71,71,71,0,0,
71,71,71,71,71,71,71,71,71,71,71,71,71,71,0,0,
71,71,71,71,71,71,71,71,71,71,71,71,71,71,0,0
</chunk>
   <chunk x="64" y="96" width="16" height="16">
0,0,0,0,0,0,0,0,0,0,0,71,71,71,71,71,
0,0,0,0,0,0,0,0,0,0,0,71,71,71,71,71,
0,0,0,0,0,0,0,0,0,0,0,71,71,71,71,71,
0,0,0,0,0,0,0,0,0,0,0,71,71,71,71,71,
0,0,0,0,0,0,0,0,0,0,0,71,71,71,71,71,
0,0,0,0,0,0,0,0,0,0,0,71,71,71,71,71,
0,0,0,0,0,0,0,0,0,0,0,71,71,71,71,71,
0,0,0,0,0,0,0,0,0,0,0,71,71,71,71,71,
0,0,0,0,0,0,0,0,0,0,0,71,71,71,71,71,
0,0,0,0,0,0,0,0,0,0,0,71,71,71,71,71,
0,0,0,0,0,0,0,0,0,0,0,0,0,0,0,0,
0,0,0,0,0,0,0,0,0,0,0,0,0,0,0,0,
0,0,0,0,0,0,0,0,0,0,0,0,0,0,0,0,
0,0,0,0,0,0,0,0,0,0,0,0,0,0,0,0,
0,0,0,0,0,0,0,0,0,0,0,0,0,0,0,0,
0,0,0,0,0,0,0,0,0,0,0,0,0,0,0,0
</chunk>
   <chunk x="80" y="96" width="16" height="16">
71,71,71,71,71,0,0,0,0,0,0,0,0,0,0,0,
71,71,71,71,71,0,0,0,0,0,0,0,0,0,0,0,
71,71,71,71,71,0,0,0,0,0,0,0,0,0,0,0,
71,71,71,71,71,0,0,0,0,0,0,0,0,0,0,0,
71,71,71,71,71,0,0,0,0,0,0,0,0,0,0,0,
71,71,71,71,71,0,0,0,0,0,0,0,0,0,0,0,
71,71,71,71,71,0,0,0,0,0,0,0,0,0,0,0,
71,71,71,71,71,0,0,0,0,0,0,0,0,0,0,0,
71,71,71,71,71,0,0,0,0,0,0,0,0,0,0,0,
71,71,71,71,71,0,0,0,0,0,0,0,0,0,0,0,
0,0,0,0,0,0,0,0,0,0,0,0,0,0,0,0,
0,0,0,0,0,0,0,0,0,0,0,0,0,0,0,0,
0,0,0,0,0,0,0,0,0,0,0,0,0,0,0,0,
0,0,0,0,0,0,0,0,0,0,0,0,0,0,0,0,
0,0,0,0,0,0,0,0,0,0,0,0,0,0,0,0,
0,0,0,0,0,0,0,0,0,0,0,0,0,0,0,0
</chunk>
  </data>
 </layer>
 <layer id="1" name="ground" width="64" height="32">
  <data encoding="csv">
   <chunk x="0" y="0" width="16" height="16">
47,0,0,0,0,0,0,0,0,0,0,0,0,0,0,0,
0,0,0,0,0,0,0,0,0,0,0,0,0,0,0,0,
0,0,0,0,0,0,0,0,0,0,0,0,0,0,0,0,
0,0,0,0,0,0,0,0,0,0,0,0,0,0,0,0,
0,0,0,0,0,0,0,0,0,0,0,0,0,0,0,0,
0,0,0,0,0,0,0,0,0,0,0,0,0,0,0,0,
0,0,0,0,0,0,0,0,0,0,0,0,0,0,0,0,
0,0,0,0,0,0,0,0,0,0,0,0,0,0,0,0,
0,0,0,0,0,0,0,0,0,0,0,0,0,0,0,0,
0,0,0,0,0,0,0,0,0,0,0,0,0,0,0,0,
0,0,0,0,0,0,0,0,0,0,0,0,0,0,0,0,
0,0,0,0,0,0,0,0,0,0,0,0,0,0,0,0,
0,0,0,0,0,0,0,0,0,0,0,0,0,0,0,0,
0,0,0,0,0,0,0,0,0,0,0,0,0,0,0,0,
0,0,0,0,0,0,0,0,0,0,0,0,0,0,0,0,
0,0,0,0,0,0,0,0,0,0,0,0,0,0,0,0
</chunk>
   <chunk x="0" y="64" width="16" height="16">
0,0,0,0,0,0,0,0,0,0,0,0,0,0,0,0,
0,0,0,0,0,0,0,0,0,0,0,0,0,0,0,0,
0,0,0,0,0,0,0,0,0,0,0,0,0,0,0,0,
0,0,0,0,0,0,0,0,0,0,0,0,0,0,0,0,
0,0,0,0,0,0,0,0,0,0,0,0,0,0,0,0,
0,0,0,0,0,0,0,0,0,0,0,0,0,0,0,0,
0,0,0,0,0,0,0,0,0,0,0,0,0,0,0,0,
0,0,0,0,0,0,0,0,0,0,0,0,0,0,0,0,
0,0,0,0,0,0,0,0,0,0,0,0,0,0,0,0,
0,0,0,0,0,0,0,0,0,0,0,0,0,0,0,0,
0,0,25,25,25,25,25,25,25,25,25,25,25,25,25,25,
0,0,0,0,0,0,0,0,0,0,0,0,0,0,0,0,
0,0,0,0,0,0,0,0,0,0,0,0,0,0,0,0,
0,0,0,0,0,0,0,0,0,0,0,0,0,0,0,0,
0,0,0,0,0,0,0,0,0,0,0,0,0,0,0,0,
0,0,0,0,0,0,0,0,0,0,0,0,0,0,0,0
</chunk>
   <chunk x="16" y="64" width="16" height="16">
0,0,0,0,0,0,0,0,0,0,0,0,0,0,0,0,
0,0,0,0,0,0,0,0,0,0,0,0,0,0,0,0,
0,0,0,0,0,0,0,0,0,0,0,0,0,0,0,0,
0,0,0,0,0,0,0,0,0,0,0,0,0,0,0,0,
0,0,0,0,0,0,0,0,0,0,0,0,0,0,0,0,
0,0,0,0,0,0,0,0,0,0,0,0,0,0,0,0,
0,0,0,0,0,0,0,0,0,0,0,0,0,0,0,0,
0,0,0,0,0,0,0,0,0,0,0,0,0,0,0,0,
0,0,0,0,0,0,0,0,0,0,0,0,0,0,0,0,
0,0,0,0,0,0,0,0,0,0,0,0,0,0,0,0,
25,25,25,25,0,0,0,0,0,0,0,0,0,0,0,0,
0,0,0,0,0,0,0,0,0,0,0,0,0,0,0,0,
0,0,0,0,0,0,0,0,0,0,0,0,0,0,0,0,
0,0,0,0,0,0,0,0,0,0,0,0,0,0,0,0,
0,0,0,0,0,0,0,0,0,0,0,0,0,0,0,0,
0,0,0,0,0,0,0,0,0,0,0,0,0,0,0,0
</chunk>
  </data>
 </layer>
 <layer id="2" name="collision" width="64" height="32">
  <data encoding="csv">
   <chunk x="0" y="0" width="16" height="16">
0,0,0,0,0,0,0,0,0,0,0,0,0,70,71,71,
0,0,0,0,0,0,0,0,0,0,0,0,0,70,71,71,
0,0,0,0,0,0,0,0,0,0,0,0,0,70,71,71,
0,0,0,0,0,0,0,0,0,0,0,0,0,70,71,71,
0,0,0,0,0,0,0,0,0,0,0,0,0,70,71,71,
0,0,0,0,0,0,0,0,0,0,0,0,0,70,71,71,
0,0,0,0,0,0,0,0,0,0,0,0,0,70,71,71,
0,0,0,0,0,0,0,0,0,0,0,0,0,70,71,71,
0,0,0,0,0,0,0,0,0,0,0,0,0,70,71,71,
0,0,0,0,0,0,0,0,0,0,0,0,0,70,71,71,
0,0,0,0,0,0,0,0,0,0,0,0,0,70,71,71,
0,0,0,0,0,0,0,0,0,0,0,0,0,70,71,71,
0,0,0,0,0,0,0,0,0,0,0,0,0,70,71,71,
0,0,0,0,0,0,0,0,0,0,0,0,0,70,71,71,
0,0,0,0,0,0,0,0,0,0,0,0,0,70,71,71,
0,0,0,0,0,0,0,0,0,0,0,0,0,70,71,71
</chunk>
   <chunk x="16" y="0" width="16" height="16">
71,71,71,71,71,71,71,71,71,71,71,71,71,71,71,71,
71,71,71,71,71,71,71,71,71,71,71,71,71,71,71,71,
71,71,71,71,71,71,71,71,71,71,71,71,71,71,71,71,
71,71,71,71,71,71,71,71,71,71,71,71,71,71,71,71,
71,71,71,71,71,71,71,71,71,71,71,71,71,71,71,71,
71,71,71,71,71,71,71,71,71,71,71,71,71,71,71,71,
71,71,71,71,71,71,71,71,71,71,71,71,71,71,71,71,
71,71,71,71,71,71,71,71,71,71,71,71,71,71,71,71,
71,71,71,71,71,71,71,71,71,71,71,71,71,71,71,71,
71,71,71,71,71,71,71,71,71,71,71,71,71,71,71,71,
71,71,71,71,71,71,71,71,71,71,71,71,71,71,71,71,
71,71,71,71,71,71,71,71,71,71,71,71,71,71,71,71,
71,71,71,71,71,71,71,71,71,71,71,71,71,71,71,71,
71,71,71,71,71,71,71,71,71,71,71,71,71,71,71,71,
71,71,71,71,71,71,71,71,71,71,71,71,71,71,71,71,
71,71,71,71,71,71,71,71,71,71,71,71,71,71,71,71
</chunk>
   <chunk x="32" y="0" width="16" height="16">
71,71,71,71,71,71,71,71,71,71,71,71,71,71,71,71,
71,71,71,71,71,71,71,71,71,71,71,71,71,71,71,71,
71,71,71,71,71,71,71,71,71,71,71,71,71,71,71,71,
71,71,71,71,71,71,71,71,71,71,71,71,71,71,71,71,
71,71,71,71,71,71,71,71,71,71,71,71,71,71,71,71,
71,71,71,71,71,71,71,71,71,71,71,71,71,71,71,71,
71,71,71,71,71,71,71,71,71,71,71,71,71,71,71,71,
71,71,71,71,71,71,71,71,71,71,71,71,71,71,71,71,
71,71,71,71,71,71,71,71,71,71,71,71,71,71,71,71,
71,71,71,71,71,71,71,71,71,71,71,71,71,71,71,71,
71,71,71,71,71,71,71,71,71,71,71,71,71,71,71,71,
71,71,71,71,71,71,71,71,71,71,71,71,71,71,71,71,
71,71,71,71,71,71,71,71,71,71,71,71,71,71,71,71,
71,71,71,59,80,80,80,80,80,80,80,80,80,80,80,60,
71,71,71,72,0,0,0,0,0,0,0,0,0,0,0,27,
71,71,71,72,0,0,0,0,0,0,0,0,0,0,0,0
</chunk>
   <chunk x="48" y="0" width="16" height="16">
71,71,71,71,71,71,71,71,71,71,71,71,71,71,71,71,
71,71,71,71,71,71,71,71,71,71,71,71,71,71,71,71,
71,71,71,71,71,71,71,71,71,71,71,71,71,71,71,71,
71,71,71,71,71,71,71,71,71,71,71,71,71,71,71,71,
71,71,71,71,71,71,71,71,71,71,71,71,71,71,71,71,
71,71,71,71,71,71,71,71,71,71,71,71,71,71,71,71,
71,71,71,71,71,71,71,71,71,71,71,71,71,71,71,71,
71,71,71,71,71,71,71,71,71,71,71,71,71,71,71,71,
71,71,71,71,71,71,71,71,71,71,71,71,71,71,71,71,
71,71,71,71,71,71,71,71,71,71,71,71,71,71,71,71,
71,71,71,71,71,71,71,71,71,71,71,71,71,71,71,71,
71,71,71,71,71,71,71,71,71,71,71,71,71,71,71,71,
71,71,71,71,71,71,71,71,71,71,71,71,71,71,71,71,
71,71,71,71,71,71,71,71,71,71,71,71,71,71,71,71,
80,80,80,80,80,80,80,80,80,80,80,80,80,80,80,80,
0,0,0,0,0,0,0,0,0,0,0,0,0,0,0,0
</chunk>
   <chunk x="64" y="0" width="16" height="16">
71,71,71,71,71,71,71,71,71,71,71,71,71,71,71,71,
71,71,71,71,71,71,71,71,71,71,71,71,71,71,71,71,
71,71,71,71,71,71,71,71,71,71,71,71,71,71,71,71,
71,71,71,71,71,71,71,71,71,71,71,71,71,71,71,71,
71,71,71,71,71,71,71,71,71,71,71,71,71,71,71,71,
71,71,71,71,71,71,71,71,71,71,71,71,71,71,71,71,
71,71,71,71,71,71,71,71,71,71,71,71,71,71,71,71,
71,71,71,71,71,71,71,71,71,71,71,71,71,71,71,71,
71,71,71,71,71,71,71,71,71,71,71,71,71,71,71,71,
71,71,71,71,71,71,71,71,71,71,71,71,71,71,71,71,
71,71,71,71,71,71,71,71,71,71,71,71,71,71,71,71,
71,71,71,71,71,71,71,71,71,71,71,71,71,71,71,71,
71,71,71,71,71,71,71,71,71,71,71,71,71,71,71,71,
71,71,71,71,71,71,71,71,71,71,71,71,71,71,71,71,
80,80,80,80,80,80,60,71,71,71,71,71,71,71,71,71,
0,0,0,0,0,0,27,80,80,60,71,71,71,71,71,71
</chunk>
   <chunk x="80" y="0" width="16" height="16">
71,71,71,71,71,71,71,71,71,71,71,71,71,71,71,71,
71,71,71,71,71,71,71,71,71,71,71,71,71,71,71,71,
71,71,71,71,71,71,71,71,71,71,71,71,71,71,71,71,
71,71,71,71,71,71,71,71,71,71,71,71,71,71,71,71,
71,71,71,71,71,71,71,71,71,71,71,71,71,71,71,71,
71,71,71,71,71,71,71,71,71,71,71,71,71,71,71,71,
71,71,71,71,71,71,71,71,71,71,71,71,71,71,71,71,
71,71,71,71,71,71,71,71,71,71,71,71,71,71,71,71,
71,71,71,71,71,71,71,71,71,71,71,71,71,71,71,71,
71,71,71,71,71,71,71,71,71,71,71,71,71,71,71,71,
71,71,71,71,71,71,71,71,71,71,71,71,71,71,71,71,
71,71,71,71,71,71,71,71,71,71,71,71,71,71,71,71,
71,71,71,71,71,71,71,71,71,71,71,71,71,71,71,71,
71,71,71,71,71,71,71,71,71,71,71,71,71,71,71,71,
71,71,71,71,71,71,71,71,71,71,71,71,71,71,71,71,
71,71,71,71,71,71,71,71,71,71,71,71,71,71,71,71
</chunk>
   <chunk x="96" y="0" width="16" height="16">
71,71,71,71,71,71,71,71,71,71,71,71,71,71,71,71,
71,71,71,71,71,71,71,71,71,71,71,71,71,71,71,71,
71,71,71,71,71,71,71,71,71,71,71,71,71,71,71,71,
71,71,71,71,71,71,71,71,71,71,71,71,71,71,71,71,
71,71,71,71,71,71,71,71,71,71,71,71,71,71,71,71,
71,71,71,71,71,71,71,71,71,71,71,71,71,71,71,71,
71,71,71,71,71,71,71,71,71,71,71,71,71,71,71,71,
71,71,71,71,71,71,71,71,71,71,71,71,71,71,71,71,
71,71,71,71,71,71,71,71,71,71,71,71,71,71,71,71,
71,71,71,71,71,71,71,71,71,71,71,71,71,71,71,71,
71,71,71,71,71,71,71,71,71,71,71,71,71,71,71,71,
71,71,71,71,71,71,71,71,71,71,71,71,71,71,71,71,
71,71,71,71,71,71,71,71,71,71,71,71,71,71,71,71,
71,71,71,71,71,71,71,71,71,71,71,71,71,71,71,71,
71,71,71,71,71,71,71,71,71,71,71,71,71,71,71,71,
71,71,71,71,71,71,71,71,71,71,71,71,71,71,71,71
</chunk>
   <chunk x="112" y="0" width="16" height="16">
71,71,71,71,71,71,71,71,71,71,71,71,71,71,71,71,
71,71,71,71,71,71,71,71,71,71,71,71,71,71,71,71,
71,71,71,71,71,71,71,71,71,71,71,71,71,71,71,71,
71,71,71,71,71,71,71,71,71,71,71,71,71,71,71,71,
71,71,71,71,71,71,71,71,71,71,71,71,71,71,71,71,
71,71,71,71,71,71,71,71,71,59,80,80,80,80,60,71,
71,71,71,71,71,71,71,71,71,72,0,0,0,0,70,71,
71,71,71,71,71,71,71,71,71,72,0,0,0,0,70,71,
71,71,71,71,71,71,71,71,71,72,0,0,0,0,70,71,
71,71,71,71,71,71,71,71,71,72,0,0,0,0,70,71,
71,71,71,71,71,71,71,71,71,72,0,0,0,0,70,71,
71,71,71,71,71,71,71,71,71,72,0,0,0,0,70,71,
71,71,71,71,71,71,71,71,71,72,0,0,0,0,70,71,
71,71,71,71,71,71,71,71,71,72,0,0,0,0,70,71,
71,71,71,71,71,71,71,71,71,72,0,0,0,0,79,80,
71,71,71,71,71,71,71,71,71,72,0,0,0,0,0,0
</chunk>
   <chunk x="128" y="0" width="16" height="16">
71,71,71,71,71,71,72,0,0,0,0,0,0,0,0,0,
71,71,71,71,71,71,72,0,0,0,0,0,0,0,0,0,
71,71,71,71,71,71,72,0,0,0,0,0,0,0,0,0,
71,71,71,71,71,71,72,0,0,0,0,0,0,0,0,0,
71,71,71,71,71,71,72,0,0,0,0,0,0,0,0,0,
71,71,71,71,71,71,72,0,0,0,0,0,0,0,0,0,
71,71,71,71,71,71,72,0,0,0,0,0,0,0,0,0,
71,71,71,71,71,71,72,0,0,0,0,0,0,0,0,0,
71,71,71,71,71,71,72,0,0,0,0,0,0,0,0,0,
71,71,71,71,71,71,72,0,0,0,0,0,0,0,0,0,
71,71,71,71,71,71,72,0,0,0,0,0,0,0,0,0,
71,71,71,71,71,71,72,0,0,0,0,0,0,0,0,0,
71,71,71,71,71,71,72,0,0,0,0,0,0,0,0,0,
71,71,71,71,71,71,72,0,0,0,0,0,0,0,0,0,
60,71,71,71,71,71,72,0,0,0,0,0,0,0,0,0,
70,71,71,71,71,71,72,0,0,0,0,0,0,0,0,0
</chunk>
   <chunk x="0" y="16" width="16" height="16">
0,0,0,0,0,0,0,0,0,0,0,0,0,70,71,71,
0,0,0,0,0,0,0,0,0,0,0,0,0,70,71,71,
0,0,0,0,0,0,0,0,0,0,0,0,0,70,71,71,
0,0,0,0,0,0,0,0,0,0,0,0,0,79,60,71,
0,0,0,0,0,0,0,0,0,0,0,0,0,0,70,71,
0,0,0,0,0,0,0,0,0,0,0,0,0,0,70,71,
0,0,0,0,0,0,0,0,0,0,0,0,0,0,27,60,
0,0,0,0,0,0,0,0,0,0,0,0,0,0,0,70,
0,0,0,0,0,0,0,0,0,0,0,0,0,0,0,70,
0,0,0,0,0,0,0,0,0,0,0,0,0,0,0,70,
0,0,0,0,0,0,0,0,0,0,0,0,0,0,0,79,
0,0,0,0,0,0,0,0,0,0,0,0,0,0,0,0,
0,0,0,0,0,0,0,0,0,0,0,0,0,0,0,0,
0,0,0,0,0,0,0,0,0,0,0,0,0,0,0,0,
0,0,0,0,0,0,0,0,0,0,0,0,0,0,0,0,
0,0,0,0,0,0,0,0,0,0,0,0,0,0,0,0
</chunk>
   <chunk x="16" y="16" width="16" height="16">
71,71,71,71,71,71,71,71,71,71,71,71,71,71,71,71,
71,71,71,71,71,71,71,71,71,71,71,71,71,71,71,71,
71,71,71,71,71,71,71,71,71,71,71,71,71,71,71,71,
71,71,71,71,71,71,71,71,71,71,71,71,71,71,71,71,
71,71,71,71,71,71,71,71,71,71,71,71,71,71,71,71,
71,71,71,71,71,71,71,71,71,71,71,71,71,71,71,71,
71,71,71,71,71,71,71,71,71,71,71,71,71,71,71,71,
71,71,71,71,71,71,71,71,71,71,71,71,71,71,71,71,
71,71,71,71,71,71,71,71,71,71,71,71,71,71,71,71,
71,71,71,71,71,71,71,71,71,71,71,71,71,71,71,71,
80,80,80,80,80,80,80,80,80,80,80,80,80,60,71,71,
0,0,0,0,0,0,0,0,0,0,0,0,0,27,60,71,
0,0,0,0,0,0,0,0,0,0,0,0,0,0,27,60,
0,0,0,0,0,0,0,0,0,0,0,0,0,0,0,27,
0,0,0,0,0,0,0,0,0,0,0,0,0,0,0,0,
0,0,0,0,0,0,0,0,0,0,0,0,0,0,0,0
</chunk>
   <chunk x="32" y="16" width="16" height="16">
71,71,71,72,0,0,0,0,0,0,0,0,0,0,0,0,
71,71,71,72,0,0,0,0,0,0,0,0,0,0,0,0,
71,71,71,72,0,0,0,0,0,0,0,0,0,0,0,0,
71,71,71,72,0,0,0,0,0,0,0,0,0,0,0,0,
71,71,71,72,0,0,0,0,0,0,0,0,0,0,0,0,
71,71,71,68,62,62,62,62,62,62,62,62,14,15,0,0,
71,71,71,71,71,71,71,71,71,71,71,71,71,68,62,62,
71,71,71,71,71,71,71,71,71,71,71,71,71,71,71,71,
71,71,71,71,71,71,71,71,71,71,71,71,71,71,71,71,
71,71,71,71,71,71,71,71,71,71,71,71,71,71,71,71,
71,71,71,71,71,71,71,71,71,71,71,71,71,71,71,71,
71,71,71,71,71,71,71,71,71,71,71,71,71,71,71,71,
71,71,71,71,71,71,71,71,71,71,71,71,71,71,71,71,
60,71,71,71,71,71,71,71,71,71,71,71,71,71,71,71,
27,60,71,71,71,71,71,71,71,71,71,71,71,71,71,71,
0,27,60,71,71,71,71,71,71,71,71,71,71,71,71,71
</chunk>
   <chunk x="48" y="16" width="16" height="16">
0,0,0,0,0,0,0,0,0,0,0,0,0,0,0,0,
0,0,0,0,0,0,0,0,0,0,0,0,0,0,0,0,
0,0,0,0,0,0,0,0,0,0,0,0,0,0,0,0,
0,0,0,0,0,0,0,0,0,0,0,0,0,0,0,0,
0,0,0,0,0,0,0,0,0,0,0,0,0,0,0,0,
0,0,0,0,0,0,0,0,0,0,0,0,0,0,0,0,
62,63,0,0,0,0,0,0,0,0,0,0,0,0,0,0,
71,72,0,0,0,0,0,0,0,0,0,0,0,0,0,0,
71,72,0,0,0,0,0,0,0,0,0,0,0,0,0,0,
71,72,0,0,0,0,0,0,0,0,0,0,0,0,0,0,
71,72,0,0,0,0,0,0,61,62,62,62,63,0,0,0,
71,72,0,0,0,0,0,0,70,71,71,71,72,0,0,0,
71,72,0,0,0,0,0,0,70,71,71,71,72,0,0,0,
71,72,0,0,0,0,0,0,70,71,71,71,72,0,0,0,
71,72,0,0,0,0,0,0,70,71,71,71,72,0,0,0,
71,72,0,0,0,0,0,0,79,80,80,80,81,0,0,0
</chunk>
   <chunk x="64" y="16" width="16" height="16">
0,0,0,0,0,0,0,0,0,27,60,71,71,71,71,71,
0,0,0,0,0,0,0,0,0,0,27,80,60,71,71,71,
0,0,0,0,0,0,0,0,0,0,0,0,70,71,71,71,
0,0,0,0,0,0,0,0,0,0,0,0,79,80,80,80,
0,0,0,0,0,0,0,0,0,0,0,0,0,0,0,0,
0,0,0,0,0,0,0,0,0,0,0,0,0,0,0,0,
0,0,0,0,0,0,0,0,0,0,0,0,0,0,0,0,
0,0,0,0,0,0,0,0,0,0,0,0,0,0,0,0,
0,0,0,0,0,0,0,0,0,0,0,0,0,0,0,0,
0,0,0,0,0,0,0,0,0,0,0,0,0,0,0,0,
0,0,0,0,0,0,0,0,0,0,0,0,61,62,62,62,
0,0,0,0,0,0,0,0,0,0,0,0,70,71,71,71,
0,0,0,0,0,0,0,0,0,0,0,0,70,71,71,71,
0,0,0,0,0,0,0,0,0,0,0,0,70,71,71,71,
0,0,0,0,0,0,0,0,0,0,0,0,70,71,71,71,
0,0,0,0,0,0,0,0,0,0,0,0,70,71,71,71
</chunk>
   <chunk x="80" y="16" width="16" height="16">
71,71,71,71,71,71,71,71,71,71,71,71,71,71,71,71,
71,71,71,71,71,71,71,71,71,71,71,71,71,71,71,71,
71,71,71,71,71,71,71,71,71,71,71,71,71,71,71,71,
80,80,80,80,80,80,80,80,80,80,80,80,80,60,71,71,
0,0,0,0,0,0,0,0,0,0,0,0,0,27,80,80,
0,0,0,0,0,0,0,0,0,0,0,0,0,0,0,0,
0,0,0,0,0,0,0,0,0,0,0,0,0,0,0,0,
0,0,0,0,0,0,0,0,0,0,0,0,0,0,0,0,
0,0,0,0,0,0,0,0,0,0,0,0,0,0,0,0,
0,0,0,0,0,0,0,0,0,0,0,0,0,0,0,0,
62,62,62,62,62,62,62,62,14,15,0,0,0,0,0,0,
71,71,71,71,71,71,71,71,71,68,62,62,62,62,14,15,
71,71,71,71,71,71,71,71,71,71,71,71,71,71,71,68,
71,71,71,71,71,71,71,71,71,71,71,71,71,71,71,71,
71,71,71,71,71,71,71,71,71,71,71,71,71,71,71,71,
71,71,71,71,71,71,71,71,71,71,71,71,71,71,71,71
</chunk>
   <chunk x="96" y="16" width="16" height="16">
71,71,71,71,71,71,71,71,71,71,71,71,71,71,71,71,
71,71,71,71,71,71,71,71,71,71,71,71,71,71,71,71,
71,71,71,71,71,71,71,71,71,71,71,71,71,71,71,71,
71,71,71,71,71,71,71,71,71,71,71,71,71,71,71,71,
60,71,71,71,71,71,71,71,71,71,71,71,71,71,71,71,
27,60,71,71,71,71,71,71,71,71,59,80,80,80,80,80,
0,27,80,60,71,71,71,71,71,71,72,0,0,0,0,0,
0,0,0,70,71,71,71,71,71,71,72,0,0,0,0,0,
0,0,0,79,80,80,80,80,80,80,81,0,0,0,0,0,
0,0,0,0,0,0,0,0,0,0,0,0,0,0,0,0,
0,0,0,0,0,0,0,0,0,0,0,0,0,0,0,0,
0,0,0,0,0,0,0,0,0,0,0,0,0,0,0,0,
14,15,0,0,0,0,0,0,0,0,0,0,0,0,0,0,
71,68,62,62,62,62,62,62,62,62,62,11,0,0,0,0,
71,71,71,71,71,71,71,71,71,71,71,68,11,0,0,0,
71,71,71,71,71,71,71,71,71,71,71,71,68,11,0,0
</chunk>
   <chunk x="112" y="16" width="16" height="16">
71,71,71,71,71,71,71,71,71,72,0,0,0,0,0,0,
71,71,71,71,71,71,71,71,71,72,25,25,25,25,0,0,
71,71,71,71,71,71,71,71,71,72,0,0,0,0,0,0,
71,71,71,71,71,71,71,71,71,72,0,0,0,0,0,0,
71,71,71,71,71,71,71,71,71,72,0,0,0,0,0,0,
80,80,80,80,80,80,80,80,80,81,0,0,0,0,0,0,
0,0,0,0,0,0,0,0,0,0,0,0,0,0,0,0,
0,0,0,0,0,0,0,0,0,0,0,0,0,0,0,0,
0,0,0,0,0,0,0,0,0,0,0,0,0,0,0,0,
0,0,0,0,0,0,0,0,0,0,0,0,0,0,0,0,
0,0,0,0,0,0,0,0,0,0,0,0,0,0,0,0,
0,0,0,0,0,0,0,0,0,0,0,0,0,0,0,0,
0,0,0,0,0,0,0,0,0,0,0,0,0,25,25,25,
0,0,0,0,0,0,0,0,0,0,0,0,0,0,0,0,
0,0,0,0,0,0,0,0,0,0,0,0,0,0,0,0,
0,0,0,0,0,0,0,0,0,0,0,0,0,0,0,0
</chunk>
   <chunk x="128" y="16" width="16" height="16">
70,71,71,71,71,71,72,0,0,0,0,0,0,0,0,0,
70,71,71,71,71,71,72,0,0,0,0,0,0,0,0,0,
70,71,71,71,71,71,72,0,0,0,0,0,0,0,0,0,
70,71,71,71,71,71,72,0,0,0,0,0,0,0,0,0,
70,71,71,71,71,71,72,0,0,0,0,0,0,0,0,0,
79,80,80,80,80,80,81,0,0,0,0,0,0,0,0,0,
0,0,0,0,0,0,0,0,0,0,0,0,0,0,0,0,
0,0,0,0,0,0,0,0,0,0,0,0,0,0,0,0,
0,0,0,0,0,0,0,0,0,0,0,0,0,0,0,0,
0,0,0,0,0,0,0,0,0,0,0,0,0,0,0,0,
0,0,0,0,0,0,0,0,0,0,0,0,0,0,0,0,
0,0,0,0,0,0,0,0,0,0,0,0,0,0,0,0,
25,25,25,25,0,0,0,0,0,0,0,0,0,0,0,0,
0,0,0,0,0,0,0,0,0,0,0,0,0,0,0,0,
0,0,0,0,0,0,0,0,0,0,0,0,0,0,0,0,
0,0,0,0,0,0,0,0,0,0,0,0,0,0,0,0
</chunk>
   <chunk x="0" y="32" width="16" height="16">
0,0,0,0,0,0,0,0,0,0,0,0,0,0,0,0,
0,0,0,0,0,0,0,0,0,0,0,0,0,0,0,0,
0,0,0,0,0,0,0,0,0,0,0,0,0,0,0,0,
0,0,0,0,0,0,0,0,0,0,0,0,0,0,0,0,
0,0,0,0,0,0,0,0,0,0,0,0,0,0,0,0,
0,0,0,0,0,0,0,0,0,0,0,0,0,0,0,0,
0,0,0,0,0,0,0,0,0,0,0,0,0,0,0,0,
0,0,0,0,0,0,0,0,0,0,0,0,0,0,0,0,
0,0,0,0,0,0,0,0,0,0,0,0,0,0,0,0,
0,0,0,0,0,0,0,0,0,0,0,0,0,0,0,0,
0,0,0,0,0,0,0,0,0,0,0,0,0,0,0,0,
0,0,0,0,0,0,0,0,0,0,0,0,0,0,0,0,
0,0,0,0,0,0,0,0,0,0,0,0,0,0,0,0,
0,0,0,0,0,0,0,0,0,0,0,0,0,0,0,0,
0,0,0,0,0,0,0,0,0,0,0,0,0,0,0,0,
0,0,0,0,0,61,62,62,62,62,62,62,62,62,62,63
</chunk>
   <chunk x="16" y="32" width="16" height="16">
0,0,0,0,0,0,0,0,0,0,0,0,0,0,0,0,
0,0,0,0,0,0,0,0,0,0,0,0,0,0,0,0,
0,0,0,0,0,0,0,0,0,0,0,0,0,0,0,0,
0,0,0,0,0,0,0,0,0,0,0,0,0,0,0,0,
0,0,0,0,0,0,0,0,0,0,0,0,0,0,0,0,
0,0,0,0,0,0,0,0,0,0,0,0,0,0,0,0,
0,0,0,0,0,0,0,0,0,0,0,0,0,0,0,0,
0,0,0,0,0,0,0,4,0,0,0,0,0,0,0,0,
0,0,0,0,0,0,0,0,0,0,0,0,0,0,0,0,
0,0,0,0,0,0,0,0,0,0,0,0,0,0,0,0,
0,0,0,0,0,0,0,0,0,0,0,0,0,0,0,0,
0,0,0,0,0,0,0,0,0,0,0,0,0,0,0,0,
0,0,0,0,0,0,0,0,0,0,0,0,0,0,0,0,
0,0,0,0,0,0,0,0,0,0,0,0,0,0,0,0,
0,0,0,0,0,0,0,0,0,0,0,0,0,0,0,0,
0,0,0,0,0,0,0,0,0,0,0,0,0,0,0,0
</chunk>
   <chunk x="32" y="32" width="16" height="16">
0,0,27,60,71,71,71,71,71,71,71,71,71,71,71,71,
0,0,0,27,60,71,71,71,71,71,71,71,71,71,71,71,
0,0,0,0,27,60,71,71,71,71,71,71,71,71,71,71,
0,0,0,0,0,27,60,71,71,71,71,71,71,71,71,71,
0,0,0,0,0,0,27,60,71,71,71,71,71,71,71,71,
0,0,0,0,0,0,0,70,71,71,71,71,71,71,71,71,
0,0,0,0,0,0,0,70,71,71,71,71,71,71,71,71,
0,0,0,0,0,0,0,70,71,71,71,71,71,71,71,71,
0,0,0,0,0,0,0,70,71,71,71,71,71,71,71,71,
0,0,0,0,0,0,0,70,71,71,71,71,71,71,71,71,
0,0,0,0,0,0,0,79,80,80,80,80,80,80,80,80,
0,0,0,0,0,0,0,0,0,0,0,0,0,0,0,0,
0,0,0,0,0,0,0,0,0,0,0,0,0,0,0,0,
0,0,0,0,0,0,0,0,0,0,0,0,0,0,0,0,
0,0,0,0,0,0,0,0,0,0,0,0,0,0,0,0,
0,0,0,0,0,0,0,0,0,0,0,0,0,0,0,0
</chunk>
   <chunk x="48" y="32" width="16" height="16">
71,72,0,0,0,0,0,0,0,0,0,0,0,0,0,0,
71,72,0,0,0,0,0,0,0,0,0,0,0,0,0,0,
71,72,0,0,0,0,0,0,0,0,0,0,0,0,0,0,
71,72,0,0,0,0,0,0,0,0,0,0,0,0,0,0,
71,72,0,0,0,0,0,0,0,0,0,0,0,0,0,0,
71,72,0,0,0,0,0,0,0,0,0,0,0,0,0,0,
71,68,62,62,62,62,62,62,62,62,62,63,0,0,0,61,
71,71,71,71,71,71,71,71,71,71,71,72,0,0,0,70,
71,71,71,71,71,71,71,71,71,71,71,72,0,0,0,70,
71,71,71,71,71,71,71,71,71,71,71,72,0,0,0,70,
80,80,80,80,80,80,80,80,80,80,80,81,0,0,0,79,
0,0,0,0,0,0,0,0,0,0,0,0,0,0,0,0,
0,0,0,0,0,0,0,0,0,0,0,0,0,0,0,0,
0,0,0,0,0,0,0,0,0,0,0,0,0,0,0,0,
0,0,0,0,0,0,0,0,0,0,0,0,0,0,0,0,
0,0,0,0,0,0,0,0,0,0,0,0,0,0,0,0
</chunk>
   <chunk x="64" y="32" width="16" height="16">
0,0,0,0,0,0,0,0,0,0,0,0,70,71,71,71,
0,0,0,0,0,0,0,0,0,0,0,0,70,71,71,71,
0,0,0,0,0,0,0,0,0,0,0,0,70,71,71,71,
0,0,0,0,0,0,0,0,0,0,0,0,70,71,71,71,
0,0,0,0,0,0,0,0,0,0,0,0,70,71,71,71,
0,0,0,0,0,0,0,0,0,0,0,0,70,71,71,71,
62,62,62,62,62,62,62,62,62,62,62,62,69,71,71,71,
71,71,71,71,71,71,71,71,71,71,71,71,71,71,71,71,
71,71,71,71,71,71,71,71,71,71,71,71,71,71,71,71,
71,71,71,71,71,71,71,71,71,71,71,71,71,71,71,71,
80,80,80,80,80,80,80,80,80,80,60,71,71,71,71,71,
0,0,0,0,0,0,0,0,0,0,70,71,71,71,71,71,
0,0,0,0,0,0,0,0,0,0,70,71,71,71,71,71,
0,0,0,0,0,0,0,0,0,0,70,71,71,71,71,71,
0,0,0,0,0,0,0,0,0,0,70,71,71,71,71,71,
0,0,0,0,0,0,0,0,0,0,70,71,71,71,71,71
</chunk>
   <chunk x="80" y="32" width="16" height="16">
71,71,71,71,71,71,71,71,71,71,71,71,71,71,71,71,
71,71,71,71,71,71,71,71,71,71,71,71,71,71,71,71,
71,71,71,71,71,71,71,71,71,71,71,71,71,71,71,71,
71,71,71,71,71,71,71,71,71,71,71,71,71,71,71,71,
71,71,71,71,71,71,71,71,71,71,71,71,71,71,71,71,
71,71,71,71,71,71,71,71,71,71,71,71,71,71,71,71,
71,71,71,71,71,71,71,71,71,71,71,71,71,71,71,71,
71,71,71,71,71,71,71,71,71,71,71,71,71,71,71,71,
71,71,71,71,71,71,71,71,71,71,71,71,71,71,71,71,
71,71,71,71,71,71,71,71,71,71,71,71,71,71,71,71,
71,71,71,71,71,71,71,71,71,71,71,71,71,71,71,71,
71,71,71,71,71,71,71,71,71,71,71,71,71,71,71,71,
71,71,71,71,71,59,80,80,80,80,80,80,80,80,80,80,
71,71,71,71,71,72,0,0,0,0,0,0,0,0,0,0,
71,71,71,71,71,72,0,0,0,0,0,0,0,0,0,0,
71,71,71,71,71,72,0,0,0,0,0,0,0,0,0,0
</chunk>
   <chunk x="96" y="32" width="16" height="16">
71,71,71,71,71,71,71,71,71,71,71,71,71,68,11,0,
71,71,71,71,71,71,71,71,71,71,71,71,71,71,68,11,
71,71,71,71,71,71,71,71,71,71,71,71,71,71,71,68,
71,71,71,71,71,71,71,71,71,71,71,71,71,71,71,71,
71,71,71,71,71,71,71,71,71,71,71,71,71,71,71,71,
71,71,71,71,71,71,71,71,71,71,71,71,71,71,71,71,
71,71,71,71,71,71,71,71,71,71,71,71,71,71,71,71,
71,71,71,71,71,71,71,71,71,71,71,71,71,71,71,71,
71,71,71,71,71,71,71,71,71,71,71,71,71,71,71,71,
71,71,71,71,71,71,71,71,71,71,71,71,71,71,71,71,
71,71,71,71,71,71,71,71,71,71,71,71,71,71,71,71,
71,71,71,71,71,71,71,71,71,71,71,71,71,71,71,71,
80,80,80,80,80,80,80,80,80,80,80,80,60,71,71,71,
0,0,0,0,0,0,0,0,0,0,0,0,70,71,71,71,
0,0,0,0,0,0,0,0,0,0,0,0,79,80,80,80,
0,0,0,0,0,0,0,0,0,0,0,0,0,0,0,0
</chunk>
   <chunk x="112" y="32" width="16" height="16">
0,0,0,0,0,0,0,0,0,0,0,0,0,0,0,0,
0,0,0,0,0,0,0,0,0,0,0,0,0,0,0,0,
11,0,0,0,0,0,0,0,0,0,0,0,0,0,0,0,
68,62,62,62,62,62,62,62,62,62,62,62,62,62,62,62,
71,71,71,71,71,71,71,71,71,71,71,71,71,71,71,71,
71,71,71,71,71,71,71,71,71,71,71,71,71,71,71,71,
71,71,71,71,71,71,71,71,71,71,71,71,71,71,71,71,
71,71,71,71,71,71,71,71,71,71,71,71,71,71,71,71,
71,71,71,71,71,71,71,71,71,71,71,71,71,71,71,71,
71,71,71,71,71,71,71,71,71,71,71,71,71,71,71,71,
71,71,71,71,71,71,71,71,71,71,71,71,71,71,71,71,
71,71,71,71,71,71,71,71,71,71,71,71,71,71,71,71,
71,71,71,71,71,71,71,71,71,71,71,71,71,71,71,71,
71,71,71,71,71,71,71,71,71,71,71,71,71,71,71,71,
80,80,80,80,80,80,80,80,80,80,80,80,80,80,80,80,
0,0,0,0,0,0,0,0,0,0,0,0,0,0,0,0
</chunk>
   <chunk x="128" y="32" width="16" height="16">
0,0,0,0,0,0,0,0,0,0,0,0,0,0,0,0,
0,0,0,0,0,0,0,0,0,0,0,0,0,0,0,0,
0,0,0,0,0,0,0,0,0,0,0,0,0,0,0,0,
62,62,62,62,62,62,63,0,0,0,0,0,0,0,0,0,
71,71,71,71,71,71,72,0,0,0,0,0,0,0,0,0,
71,71,71,71,71,71,72,0,0,0,0,0,0,0,0,0,
71,71,71,71,71,71,72,0,0,0,0,0,0,0,0,0,
71,71,71,71,71,71,72,0,0,0,0,0,0,0,0,0,
71,71,71,71,71,71,72,0,0,0,0,0,0,0,0,0,
71,71,71,71,71,71,72,0,0,0,0,0,0,0,0,0,
71,71,71,71,71,71,72,0,0,0,0,0,0,0,0,0,
71,71,71,71,71,71,72,0,0,0,0,0,0,0,0,0,
71,71,71,71,71,71,72,0,0,0,0,0,0,0,0,0,
71,71,71,71,71,71,72,0,0,0,0,0,0,0,0,0,
80,80,80,80,80,80,81,0,0,0,0,0,0,0,0,0,
0,0,0,0,0,17,26,0,0,0,0,0,0,0,0,0
</chunk>
   <chunk x="0" y="48" width="16" height="16">
0,0,0,0,0,70,71,71,71,71,71,71,71,71,71,72,
0,0,0,0,0,27,60,71,71,71,71,71,71,71,59,18,
0,0,0,0,0,0,70,71,71,71,71,71,71,59,18,0,
0,0,0,0,0,0,27,60,71,71,71,71,71,72,0,0,
0,0,0,0,0,0,0,27,60,71,71,71,59,18,0,0,
0,0,0,0,0,0,0,0,70,71,71,71,72,0,0,0,
0,0,0,0,0,0,0,0,70,71,71,71,72,0,0,0,
0,0,0,0,0,0,0,0,70,71,71,71,72,0,0,0,
0,0,0,0,0,0,0,0,70,71,71,71,72,0,0,0,
0,0,0,0,0,0,0,0,79,80,80,80,81,0,0,0,
0,0,0,0,0,0,0,0,0,0,0,0,0,0,0,0,
0,0,0,0,0,0,0,0,0,0,0,0,0,0,0,0,
0,0,0,0,0,0,0,0,0,0,0,0,0,0,0,0,
0,0,0,0,0,0,0,0,0,0,0,0,0,0,0,0,
0,0,0,0,0,0,0,0,0,0,0,0,0,0,0,0,
0,0,0,0,0,0,0,0,0,0,0,0,0,0,0,0
</chunk>
   <chunk x="16" y="48" width="16" height="16">
0,0,0,0,0,0,0,0,0,0,0,0,0,0,0,0,
0,0,0,0,0,0,61,62,62,62,62,63,0,0,0,0,
0,0,0,0,0,0,70,71,71,71,71,72,0,0,0,0,
0,0,0,0,0,0,70,71,71,71,59,18,0,0,0,0,
0,0,0,0,0,0,70,71,71,71,72,0,0,0,0,0,
0,0,0,0,0,0,70,71,71,71,72,0,0,0,0,0,
0,0,0,0,0,0,27,60,71,71,72,0,0,0,0,0,
0,0,0,0,0,0,0,70,71,71,72,0,0,0,0,0,
0,0,0,0,0,0,0,79,80,80,81,0,0,0,0,0,
0,0,0,0,0,0,0,0,0,0,0,0,0,0,0,0,
0,0,0,0,0,0,0,0,0,0,0,0,0,0,0,0,
0,0,0,0,0,0,0,0,0,0,0,0,0,0,0,0,
0,0,0,0,0,0,0,0,0,0,0,0,0,0,0,0,
0,0,0,0,0,0,0,0,0,0,0,0,0,0,0,0,
0,0,0,0,0,0,0,0,0,0,0,0,0,0,0,0,
0,0,0,0,0,0,0,0,0,0,0,0,0,0,0,0
</chunk>
   <chunk x="32" y="48" width="16" height="16">
0,0,0,0,0,0,0,0,0,0,0,0,0,0,0,0,
0,0,0,25,25,25,25,61,62,62,62,62,62,62,62,62,
0,0,0,0,0,0,0,70,71,71,71,71,71,71,71,71,
0,0,0,0,0,0,0,70,71,71,71,71,71,71,71,71,
0,0,0,0,0,0,0,70,71,71,71,71,71,71,71,71,
0,0,0,0,0,0,0,70,71,71,71,71,71,71,71,71,
0,0,0,0,0,0,0,70,71,71,71,71,71,71,71,71,
0,0,0,0,0,0,0,70,71,71,71,71,71,71,71,71,
0,0,0,0,0,0,0,70,71,71,71,71,71,71,71,71,
0,0,0,0,0,0,0,70,71,71,71,71,71,71,71,71,
0,0,0,0,0,0,0,70,71,71,71,71,71,71,59,80,
0,0,0,0,0,0,0,70,71,71,71,71,71,71,72,0,
0,0,0,0,0,0,0,70,71,71,71,71,71,71,72,0,
0,0,0,0,0,0,25,70,71,71,71,71,71,71,72,0,
0,0,0,0,0,0,0,70,71,71,71,71,71,71,72,0,
0,0,0,0,0,0,0,70,71,71,71,71,71,71,72,0
</chunk>
   <chunk x="48" y="48" width="16" height="16">
0,0,0,0,0,0,0,0,0,0,0,0,0,0,0,0,
62,62,62,62,63,25,25,25,25,25,0,0,0,0,0,0,
71,71,71,71,72,0,0,0,0,0,0,0,0,0,0,0,
71,71,71,71,72,0,0,0,0,0,0,0,0,0,0,0,
71,71,71,71,72,0,0,0,0,0,0,0,0,0,0,0,
71,71,71,71,72,0,0,0,0,0,0,0,0,0,0,0,
71,71,71,71,72,0,0,0,0,0,0,0,0,0,0,0,
71,71,71,71,72,0,0,0,0,0,0,0,0,0,0,0,
71,71,71,71,72,0,0,0,0,0,0,0,0,0,0,0,
71,71,71,71,72,0,0,0,0,0,0,0,0,0,0,0,
80,80,80,80,81,0,0,0,0,0,0,0,0,0,0,0,
0,0,0,0,0,0,0,0,0,0,0,0,0,0,0,0,
0,0,0,0,0,0,0,0,0,0,0,0,0,0,0,0,
0,0,0,0,0,0,0,0,0,0,0,0,0,0,0,0,
0,0,0,0,0,0,0,0,0,0,0,0,0,0,0,0,
0,0,0,0,0,0,0,0,0,0,0,0,0,0,0,0
</chunk>
   <chunk x="64" y="48" width="16" height="16">
0,0,0,0,0,0,0,0,0,0,70,71,71,71,71,71,
0,0,0,0,0,0,0,0,0,0,70,71,71,71,71,71,
0,0,61,62,63,0,0,0,0,0,70,71,71,71,71,71,
0,0,70,71,72,0,0,0,0,0,70,71,71,71,71,71,
0,0,70,71,72,0,0,0,0,0,70,71,71,71,71,71,
0,0,70,71,72,0,0,0,0,0,70,71,71,71,71,71,
0,0,70,71,72,0,0,0,0,0,70,71,71,71,71,71,
25,25,79,80,81,0,0,0,0,0,70,71,71,71,71,71,
0,0,0,0,0,0,0,0,0,0,70,71,71,71,71,71,
0,0,0,0,0,0,0,0,0,0,70,71,71,71,71,71,
0,0,0,0,0,0,0,0,0,0,70,71,71,71,71,71,
0,0,0,0,0,0,0,0,0,0,70,71,71,71,71,71,
0,0,0,0,0,0,0,0,0,0,79,80,80,80,80,80,
0,0,0,0,0,0,0,0,0,0,0,0,0,0,0,0,
0,0,0,0,0,0,0,0,0,0,0,0,0,0,0,0,
0,0,0,0,0,0,0,0,0,0,0,0,0,0,0,0
</chunk>
   <chunk x="80" y="48" width="16" height="16">
71,71,71,71,71,72,0,0,0,0,0,0,0,0,0,0,
71,71,71,71,71,72,0,0,0,0,0,0,0,0,0,0,
71,71,71,71,71,72,0,0,0,0,0,0,0,0,0,0,
71,71,71,71,71,72,0,0,0,0,0,0,0,0,0,0,
71,71,71,71,71,72,0,0,0,0,0,0,0,0,0,0,
71,71,71,71,71,72,0,0,0,0,0,0,0,0,0,0,
71,71,71,71,71,72,0,0,0,0,0,0,0,0,0,0,
71,71,71,71,71,72,0,0,0,0,0,0,0,0,0,25,
71,71,71,71,71,72,0,0,0,0,0,0,0,0,0,0,
71,71,71,71,71,72,0,0,0,0,0,0,0,0,0,0,
71,71,71,71,71,72,0,0,0,0,0,0,0,0,0,0,
71,71,71,71,71,72,0,0,0,0,0,0,0,0,0,0,
80,80,80,80,80,81,0,0,0,0,0,0,0,0,0,0,
0,0,0,0,0,0,0,0,0,0,0,0,0,0,0,0,
0,0,0,0,0,0,0,0,0,0,0,0,0,0,0,0,
0,0,0,0,0,0,0,0,0,0,0,0,0,0,0,0
</chunk>
   <chunk x="96" y="48" width="16" height="16">
0,0,0,0,0,0,0,0,0,0,0,0,0,0,0,0,
0,0,0,0,0,0,0,0,0,0,0,0,0,0,0,0,
0,0,0,0,0,0,0,0,0,0,0,0,61,62,62,62,
0,0,0,0,0,0,0,0,0,0,0,0,70,71,71,71,
0,0,0,0,0,0,0,0,0,0,0,0,70,71,71,71,
0,0,0,0,0,0,0,0,0,0,0,0,70,71,71,71,
0,0,0,0,0,0,0,0,0,0,0,0,70,71,71,71,
25,25,25,25,0,0,0,0,0,0,0,0,70,71,71,71,
0,0,0,0,0,0,0,0,0,0,0,0,70,71,71,71,
0,0,0,0,0,0,0,0,0,0,0,0,70,71,71,71,
0,0,0,0,0,0,0,0,0,0,0,0,70,71,71,71,
0,0,0,0,0,0,0,0,0,0,0,0,79,60,71,71,
0,0,0,0,0,0,0,0,0,0,0,0,0,70,71,71,
0,0,0,0,0,0,0,0,0,0,0,0,0,70,71,71,
0,0,0,0,0,0,0,0,0,0,0,0,0,70,71,71,
0,0,0,0,0,0,0,0,0,0,0,0,0,70,71,71
</chunk>
   <chunk x="112" y="48" width="16" height="16">
0,0,0,0,0,0,0,0,0,0,0,0,0,0,0,0,
0,0,0,0,0,0,0,0,0,0,0,0,0,0,0,0,
62,62,62,62,62,62,63,0,0,0,0,0,0,0,0,0,
71,71,71,71,71,71,72,0,0,0,0,0,0,0,0,0,
71,71,71,71,71,71,72,0,0,0,0,0,0,0,0,0,
71,71,71,71,71,71,72,0,0,0,0,0,0,0,0,0,
71,71,71,71,71,71,72,0,0,0,0,0,0,0,0,0,
71,71,71,71,71,71,68,62,62,62,62,63,0,0,0,0,
71,71,71,71,71,71,71,71,71,71,71,72,0,0,0,0,
71,71,71,71,71,71,71,71,71,71,71,72,0,0,0,0,
71,71,71,71,71,71,71,71,71,71,71,72,0,0,0,0,
71,71,71,71,71,71,71,71,71,71,71,72,0,0,0,0,
71,71,71,71,71,71,71,71,71,71,71,72,0,0,0,0,
71,71,71,71,71,71,71,71,71,71,71,72,0,0,0,0,
71,71,71,71,71,71,71,71,71,71,71,72,0,0,0,0,
71,71,71,71,71,71,71,71,71,71,71,72,0,0,0,0
</chunk>
   <chunk x="128" y="48" width="16" height="16">
0,0,0,0,0,17,26,0,0,0,0,0,0,0,0,0,
0,0,0,0,0,17,26,0,0,0,0,0,0,0,0,0,
0,0,0,0,0,17,26,0,0,0,0,0,0,0,0,0,
0,0,0,0,0,17,26,0,0,0,0,0,0,0,0,0,
0,0,0,0,0,17,26,0,0,0,0,0,0,0,0,0,
0,0,0,0,0,17,26,0,0,0,0,0,0,0,0,0,
0,0,0,0,0,17,26,0,0,0,0,0,0,0,0,0,
0,0,61,62,62,62,63,0,0,0,0,0,0,0,0,0,
0,0,70,71,71,71,72,0,0,0,0,0,0,0,0,0,
0,0,70,71,71,71,72,0,0,0,0,0,0,0,0,0,
0,0,27,60,71,71,72,0,0,0,0,0,0,0,0,0,
0,0,0,70,71,71,72,0,0,0,0,0,0,0,0,0,
0,0,0,70,71,71,72,0,0,0,0,0,0,0,0,0,
0,0,10,69,71,71,72,0,0,0,0,0,0,0,0,0,
0,0,70,71,71,71,72,0,0,0,0,0,0,0,0,0,
0,0,70,71,71,71,72,0,0,0,0,0,0,0,0,0
</chunk>
   <chunk x="0" y="64" width="16" height="16">
0,0,0,0,0,0,0,0,0,0,0,0,0,0,0,0,
0,0,0,0,0,0,0,0,0,0,0,0,0,0,0,0,
0,0,0,0,0,0,0,0,0,0,0,0,0,0,0,0,
0,0,0,0,0,0,0,0,0,0,0,0,0,0,0,0,
0,0,0,0,0,0,0,0,0,0,0,0,0,0,0,0,
0,0,0,0,0,0,0,0,0,0,4,0,0,0,0,0,
0,0,0,0,0,0,0,0,0,0,0,0,0,0,0,0,
0,0,0,0,0,0,0,0,0,0,0,0,0,0,0,0,
0,0,0,0,0,0,0,0,0,0,0,0,0,0,0,0,
0,0,0,0,0,0,0,0,0,0,0,0,0,0,0,0,
0,0,0,0,0,0,0,0,0,0,0,0,0,0,0,0,
0,0,0,0,0,0,0,0,0,0,0,0,0,0,0,0,
0,0,0,0,0,0,0,0,0,0,0,0,0,0,0,0,
0,0,0,0,0,0,0,0,0,0,0,0,0,0,0,0,
0,0,0,0,0,0,0,0,0,0,0,0,0,0,0,0,
0,0,0,0,0,0,0,0,0,0,0,0,0,0,0,0
</chunk>
   <chunk x="16" y="64" width="16" height="16">
0,0,0,0,0,0,0,0,0,0,0,0,0,0,0,0,
0,0,0,0,0,0,0,0,0,0,0,0,0,0,0,0,
0,0,0,0,0,0,0,0,0,0,0,0,0,0,0,0,
0,0,0,0,0,0,0,0,0,0,0,0,0,0,0,0,
0,0,0,0,0,0,0,0,0,0,0,0,0,0,0,0,
0,0,0,0,0,0,0,0,0,0,0,0,0,0,0,0,
0,0,0,0,0,0,0,0,0,0,0,0,0,0,0,0,
0,0,0,0,0,0,0,0,0,0,0,0,0,0,0,0,
0,0,0,0,0,12,13,62,62,62,62,62,62,62,62,62,
0,0,0,0,10,69,71,71,71,71,71,71,71,71,71,71,
0,0,0,0,70,71,71,71,71,71,71,71,71,71,71,71,
0,0,0,0,70,71,71,71,71,71,71,71,71,71,71,71,
0,0,0,0,27,60,71,71,71,71,71,71,71,71,71,71,
0,0,0,0,0,27,80,80,80,80,80,80,80,80,80,80,
0,0,0,0,0,0,0,0,0,0,0,0,0,0,0,0,
0,0,0,0,0,0,0,0,0,0,0,0,0,0,0,0
</chunk>
   <chunk x="32" y="64" width="16" height="16">
0,0,0,0,0,0,0,70,71,71,71,71,71,71,72,0,
0,0,0,0,0,0,0,70,71,71,71,71,71,71,72,0,
0,0,0,0,0,0,0,70,71,71,71,71,71,71,72,25,
0,0,0,0,0,0,0,70,71,71,71,71,71,71,72,0,
0,0,0,0,0,0,0,70,71,71,71,71,71,71,72,0,
0,0,0,0,0,0,0,70,71,71,71,71,71,71,72,0,
0,0,0,0,0,0,0,70,71,71,71,71,71,71,72,0,
0,0,0,0,0,0,0,70,71,71,71,71,71,71,72,0,
62,62,62,62,62,62,62,69,71,71,71,71,71,71,72,0,
71,71,71,71,71,71,71,71,71,71,71,71,71,71,72,0,
71,71,71,71,71,71,71,71,71,71,71,71,71,71,72,0,
71,71,71,71,71,71,71,71,71,71,71,71,71,71,68,62,
71,71,71,71,71,71,71,71,71,71,71,71,71,71,71,71,
80,80,80,80,80,80,80,60,71,71,71,71,71,71,71,71,
0,0,0,0,0,0,0,70,71,71,71,71,71,71,71,71,
0,0,0,0,0,0,0,70,71,71,71,71,71,71,71,71
</chunk>
   <chunk x="48" y="64" width="16" height="16">
0,0,0,0,0,0,0,0,0,0,0,0,0,0,0,0,
0,0,0,0,0,0,0,0,0,0,0,0,0,0,0,0,
25,25,25,0,0,0,0,0,0,0,0,0,0,0,0,0,
0,0,0,0,0,0,0,0,0,0,0,0,0,0,0,0,
0,0,0,0,0,0,0,0,0,0,0,0,0,0,0,0,
0,0,0,0,0,0,0,0,0,0,0,0,25,25,25,25,
0,0,0,0,0,0,0,0,0,0,0,0,0,0,0,0,
0,0,0,0,0,0,0,0,0,0,0,0,0,0,0,0,
0,0,0,0,0,0,0,0,0,0,0,0,0,0,0,0,
0,0,0,0,0,0,0,0,0,0,0,0,0,0,0,0,
0,0,0,0,0,0,0,0,0,0,0,0,0,0,0,0,
62,62,62,62,62,62,62,62,62,62,62,62,62,62,62,62,
71,71,71,71,71,71,71,71,71,71,71,71,71,71,71,71,
71,71,71,71,71,71,71,71,71,71,71,71,71,71,71,71,
71,71,71,71,71,71,71,71,71,71,71,71,71,71,71,71,
71,71,71,71,71,71,71,71,71,71,71,71,71,71,71,71
</chunk>
   <chunk x="64" y="64" width="16" height="16">
0,0,0,0,0,0,0,0,0,0,0,0,0,0,0,0,
0,0,0,0,0,0,0,0,0,0,0,0,0,0,0,0,
0,61,62,62,62,62,62,62,62,62,62,62,62,63,0,0,
0,70,71,71,71,71,71,71,71,71,71,71,71,72,0,0,
0,70,71,71,71,71,71,71,71,71,71,71,71,72,0,0,
25,70,71,71,71,71,71,71,71,71,71,71,71,72,0,0,
0,70,71,71,71,71,71,71,71,71,71,71,71,72,0,0,
0,70,71,71,71,71,71,71,71,71,71,71,71,72,0,0,
0,70,71,71,71,71,71,71,71,71,71,71,71,72,0,0,
0,70,71,71,71,71,71,71,71,71,71,71,71,72,0,0,
0,70,71,71,71,71,71,71,71,71,71,71,71,72,0,0,
62,69,71,71,71,71,71,71,71,71,71,71,59,18,0,0,
71,71,71,71,71,71,71,71,71,71,71,59,18,0,0,0,
71,71,71,71,71,71,71,71,71,71,59,18,0,0,0,0,
71,71,71,71,71,71,71,71,71,59,18,0,0,0,0,0,
71,71,71,71,71,71,71,71,59,18,0,0,0,0,0,0
</chunk>
   <chunk x="80" y="64" width="16" height="16">
0,0,0,0,0,0,0,0,0,0,0,0,0,0,0,0,
0,0,0,0,0,0,0,0,0,0,0,0,0,0,0,0,
0,0,61,62,62,62,62,62,62,62,62,62,62,62,62,62,
0,0,70,71,71,71,71,71,71,71,71,71,71,71,71,71,
0,0,70,71,71,71,71,71,71,71,71,71,71,71,71,71,
0,0,70,71,71,71,71,71,71,71,71,71,71,71,71,71,
0,0,70,71,71,71,71,71,71,71,71,71,71,71,71,71,
0,0,70,71,71,71,71,71,71,71,71,71,71,71,71,71,
0,0,70,71,71,71,71,71,71,71,71,71,71,71,71,71,
0,0,70,71,71,71,71,71,71,71,71,71,71,71,71,71,
0,0,70,71,71,71,71,71,71,71,71,71,71,71,71,71,
0,0,27,60,71,71,71,71,71,71,71,71,71,71,71,71,
0,0,0,27,60,71,71,71,71,71,71,71,71,71,71,71,
0,0,0,0,27,60,71,71,71,71,71,71,71,71,71,71,
0,0,0,0,0,27,60,71,71,71,71,71,71,71,71,71,
0,0,0,0,0,0,27,60,71,71,71,71,71,71,71,71
</chunk>
   <chunk x="96" y="64" width="16" height="16">
0,0,0,0,0,0,0,0,0,0,0,0,0,70,71,71,
0,0,0,0,0,0,0,0,0,0,0,0,0,70,71,71,
62,62,62,62,62,62,62,62,62,62,62,62,62,69,71,71,
71,71,71,71,71,71,71,71,71,71,71,71,71,71,71,71,
71,71,71,71,71,71,71,71,71,71,71,71,71,71,71,71,
71,71,71,71,71,71,71,71,71,71,71,71,71,71,71,71,
71,71,71,71,71,71,71,71,71,71,71,71,71,71,71,71,
71,71,71,71,71,71,71,71,71,71,71,71,71,71,71,71,
71,71,71,71,71,71,71,71,71,71,71,71,71,71,71,71,
71,71,71,71,71,71,71,71,71,71,71,71,71,71,71,71,
71,71,71,71,71,71,71,71,71,71,71,71,71,71,71,71,
71,71,71,71,71,71,71,71,71,71,71,71,71,71,71,71,
71,71,71,71,71,71,71,71,71,71,71,71,71,71,71,71,
71,71,71,71,71,71,71,71,71,71,71,71,71,71,71,71,
71,71,71,71,71,71,71,71,71,71,71,71,71,71,71,71,
71,71,71,71,71,71,71,71,71,71,71,71,71,71,71,71
</chunk>
   <chunk x="112" y="64" width="16" height="16">
71,71,71,71,71,71,71,71,71,71,71,72,0,0,0,0,
71,71,71,71,71,71,71,71,71,71,71,72,0,0,0,0,
71,71,71,71,71,71,71,71,71,71,71,72,0,0,0,0,
71,71,71,71,71,71,71,71,71,71,71,72,0,0,0,0,
71,71,71,71,71,71,71,71,71,71,71,72,0,0,0,0,
71,71,71,71,71,71,71,71,71,71,71,72,0,0,0,0,
71,71,71,71,71,71,71,71,71,71,71,72,0,0,0,0,
71,71,71,71,71,71,71,71,71,71,71,72,0,0,0,0,
71,71,59,80,80,80,80,80,80,80,80,81,0,0,0,0,
71,71,72,0,0,0,0,0,0,0,0,0,0,0,0,0,
71,71,72,0,0,0,0,0,0,0,0,0,0,0,0,0,
71,71,72,0,0,0,0,0,0,0,0,0,0,0,0,0,
71,71,72,0,0,0,0,0,0,0,0,0,0,0,0,0,
71,71,72,0,0,0,0,0,0,0,0,0,0,0,0,0,
71,71,68,62,62,62,62,62,62,62,62,62,62,62,62,62,
71,71,71,71,71,71,71,71,71,71,71,71,71,71,71,71
</chunk>
   <chunk x="128" y="64" width="16" height="16">
0,0,27,80,80,80,18,0,0,0,0,0,0,0,0,0,
0,0,0,0,0,0,0,0,0,0,0,0,0,0,0,0,
0,0,0,0,0,0,0,0,0,0,0,0,0,0,0,0,
0,0,0,10,62,62,63,0,0,0,0,0,0,0,0,0,
0,0,0,70,71,71,72,0,0,0,0,0,0,0,0,0,
0,0,0,70,71,71,72,0,0,0,0,0,0,0,0,0,
0,0,0,70,71,71,72,0,0,0,0,0,0,0,0,0,
0,0,0,70,71,71,72,0,0,0,0,0,0,0,0,0,
0,0,0,79,80,80,18,0,0,0,0,0,0,0,0,0,
0,0,0,0,0,0,0,0,0,0,0,0,0,0,0,0,
0,0,0,0,0,0,0,0,0,0,0,0,0,0,0,0,
0,0,0,0,0,0,0,0,0,0,0,0,0,0,0,0,
0,0,0,0,0,0,0,0,0,0,0,0,0,0,0,0,
0,0,0,0,0,0,0,0,0,0,0,0,0,0,0,0,
62,62,62,62,62,62,63,0,0,0,0,0,0,0,0,0,
71,71,71,71,71,71,72,0,0,0,0,0,0,0,0,0
</chunk>
   <chunk x="0" y="80" width="16" height="16">
0,0,0,0,0,0,0,0,0,0,0,0,0,0,0,0,
0,0,0,0,0,0,0,0,0,0,0,0,0,0,0,0,
0,0,0,0,0,0,0,0,0,0,0,0,0,0,0,0,
0,0,0,0,0,0,0,0,0,0,0,0,0,0,0,0,
0,0,0,0,0,0,0,0,0,0,0,0,0,0,0,0,
0,0,0,0,0,0,0,0,0,0,0,0,0,0,0,0,
0,0,0,0,0,0,4,0,0,0,0,0,0,0,0,0,
0,0,0,0,0,0,0,0,0,0,0,0,0,0,0,0,
0,0,0,0,0,0,0,0,0,0,0,0,0,0,0,0,
0,0,0,0,0,0,0,0,0,0,0,0,0,0,0,0,
0,0,0,0,0,0,0,0,0,0,0,0,0,0,0,0,
0,0,0,0,0,0,0,0,0,0,0,0,0,0,0,0,
0,0,0,0,0,0,0,0,0,0,0,0,0,0,0,0,
0,0,0,0,0,0,0,0,0,0,0,0,0,0,0,0,
0,0,0,0,0,0,0,0,0,0,0,0,0,0,0,0,
0,0,0,0,0,0,0,0,0,0,0,0,0,0,0,0
</chunk>
   <chunk x="16" y="80" width="16" height="16">
0,0,0,0,0,0,0,0,0,0,0,0,0,0,0,0,
0,0,0,0,0,0,0,0,0,0,0,0,0,0,0,0,
0,0,0,0,0,0,0,0,0,0,0,0,0,0,0,0,
0,0,0,0,0,0,0,0,0,0,0,0,0,0,0,0,
0,0,0,0,0,0,0,0,0,0,0,0,0,0,0,0,
0,0,0,0,0,0,0,0,0,0,0,0,0,0,0,0,
0,0,0,0,0,0,0,0,0,0,0,0,0,0,0,0,
0,0,0,0,0,0,0,0,0,0,0,0,0,0,0,0,
0,0,0,0,0,0,0,0,0,0,0,0,0,0,0,0,
0,0,0,0,0,0,0,0,0,0,0,0,0,0,0,0,
0,0,0,0,0,0,0,0,0,0,0,0,0,0,0,0,
0,0,0,0,0,0,0,0,0,0,0,0,0,0,0,10,
0,0,0,0,0,0,0,0,0,0,0,0,0,0,10,69,
0,0,0,0,0,0,0,0,0,0,0,0,0,10,69,71,
0,0,0,0,0,0,0,0,0,0,0,0,0,70,71,71,
0,0,0,0,0,0,0,0,0,0,0,0,0,70,71,71
</chunk>
   <chunk x="32" y="80" width="16" height="16">
0,0,0,0,0,0,0,70,71,71,71,71,71,71,71,71,
0,0,0,0,0,0,0,70,71,71,71,71,71,71,71,71,
0,0,0,0,0,0,0,70,71,71,71,71,71,71,71,71,
0,0,0,0,0,0,0,70,71,71,71,71,71,71,71,71,
0,0,0,0,0,0,10,69,71,71,71,71,71,71,71,71,
0,0,0,0,0,10,69,71,71,71,71,71,71,71,71,71,
0,0,0,0,10,69,71,71,71,71,71,71,71,71,71,71,
0,0,0,10,69,71,71,71,71,71,71,71,71,71,71,71,
0,0,10,69,71,71,71,71,71,71,71,71,71,71,71,71,
0,10,69,71,71,71,71,71,71,71,71,71,71,71,71,71,
10,69,71,71,71,71,71,71,71,71,71,71,71,71,71,71,
69,71,71,71,71,71,71,71,71,71,71,71,71,71,71,71,
71,71,71,71,71,71,71,71,71,71,71,71,71,71,71,71,
71,71,71,71,71,71,71,71,71,71,71,71,71,71,71,71,
71,71,71,71,71,71,71,71,71,71,71,71,71,71,71,71,
71,71,71,71,71,71,71,71,71,71,71,71,71,71,71,71
</chunk>
   <chunk x="48" y="80" width="16" height="16">
71,71,71,71,71,71,71,71,71,71,71,71,71,71,71,71,
71,71,71,71,71,71,71,71,71,71,71,71,71,71,71,71,
71,71,71,71,71,71,71,71,71,71,71,71,71,71,71,71,
71,71,71,71,71,71,71,71,71,71,71,71,71,71,71,71,
71,71,71,71,71,71,71,71,71,71,71,71,71,71,71,71,
71,71,71,71,71,71,71,71,71,71,71,71,71,71,71,71,
71,71,71,71,71,71,71,71,71,71,71,71,71,71,71,71,
71,71,71,71,71,71,71,71,71,71,71,71,71,71,71,71,
71,71,71,71,71,71,71,71,71,71,71,71,71,71,71,71,
71,71,71,71,71,71,71,71,71,71,71,71,71,71,71,71,
71,71,71,71,71,71,71,71,71,71,71,71,71,71,71,71,
71,71,71,71,71,71,71,71,71,71,71,71,71,71,71,71,
71,71,71,71,71,71,71,71,71,71,71,71,71,71,71,71,
71,71,71,71,71,71,71,71,71,71,71,71,71,71,71,71,
71,71,71,71,71,71,71,71,71,71,71,71,71,71,71,71,
71,71,71,71,71,71,71,71,71,71,71,71,71,71,71,71
</chunk>
   <chunk x="64" y="80" width="16" height="16">
71,71,59,80,80,80,80,80,81,0,0,0,0,0,0,0,
71,71,72,0,0,0,0,0,0,0,0,0,25,25,0,0,
71,71,72,0,0,0,0,0,0,0,0,0,0,0,0,0,
71,71,72,0,0,0,0,0,0,0,0,0,0,0,0,0,
71,71,72,0,0,0,0,0,0,0,0,0,0,0,0,0,
71,71,72,0,0,0,0,0,0,0,0,0,0,0,0,0,
71,71,72,0,0,0,0,0,0,0,0,0,0,0,0,0,
71,71,72,0,0,0,0,0,0,0,0,0,0,0,0,0,
71,71,72,0,0,0,0,0,0,0,0,0,0,0,0,0,
71,71,72,0,0,0,0,0,0,0,0,0,0,0,0,0,
71,71,72,0,0,0,0,0,0,0,0,0,0,0,0,0,
71,71,72,0,0,0,0,0,0,0,0,0,0,0,0,0,
71,71,72,0,0,0,0,0,0,0,0,0,0,0,0,0,
71,71,72,0,0,0,0,0,0,0,0,0,0,0,0,0,
71,71,72,0,0,0,0,0,0,0,0,0,0,0,0,0,
71,71,68,62,62,62,62,62,62,62,62,63,0,0,0,0
</chunk>
   <chunk x="80" y="80" width="16" height="16">
0,0,0,0,0,0,0,79,80,80,80,80,80,60,71,71,
0,0,25,25,0,0,0,0,0,0,0,0,0,70,71,71,
0,0,0,0,0,0,0,0,0,0,0,0,0,70,71,71,
0,0,0,0,0,0,0,0,0,0,0,0,0,70,71,71,
0,0,0,0,0,0,0,0,0,0,0,0,0,70,71,71,
0,0,0,0,0,0,0,0,0,0,0,0,0,70,71,71,
0,0,0,0,0,0,0,0,0,0,0,0,0,70,71,71,
0,0,0,0,0,0,0,0,0,0,0,0,0,70,71,71,
0,0,0,0,0,0,0,0,0,0,0,0,0,70,71,71,
0,0,0,0,0,0,0,0,0,0,0,0,0,70,71,71,
0,0,0,0,0,0,0,0,0,0,0,0,0,70,71,71,
0,0,0,0,0,0,0,0,0,0,0,0,0,70,71,71,
0,0,0,0,0,0,0,0,0,0,0,0,0,70,71,71,
0,0,0,0,0,0,0,0,0,0,0,0,0,70,71,71,
0,0,0,0,0,0,0,0,0,0,0,0,0,70,71,71,
0,0,0,0,61,62,62,62,62,62,62,62,62,69,71,71
</chunk>
   <chunk x="96" y="80" width="16" height="16">
71,71,71,71,71,71,71,71,71,71,71,71,71,71,71,71,
71,71,71,71,71,71,71,71,71,71,71,71,71,71,71,71,
71,71,71,71,71,71,71,71,71,71,71,71,71,71,71,71,
71,71,71,71,71,71,71,71,71,71,71,71,71,71,71,71,
71,71,71,71,71,71,71,71,71,71,71,71,71,71,71,71,
71,71,71,71,71,71,71,71,71,71,71,71,71,71,71,71,
71,71,71,71,71,71,71,71,71,71,71,71,71,71,71,71,
71,71,71,71,71,71,71,71,71,71,71,71,71,71,71,71,
71,71,71,71,71,71,71,71,71,71,71,71,71,71,71,71,
71,71,71,71,71,71,71,71,71,71,71,71,71,71,71,71,
71,71,71,71,71,71,71,71,71,71,71,71,71,71,71,71,
71,71,71,71,71,71,71,71,71,71,71,71,71,71,71,71,
71,71,71,71,71,71,71,71,71,71,71,71,71,71,71,71,
71,71,71,71,71,71,71,71,71,71,71,71,71,71,71,71,
71,71,71,71,71,71,71,71,71,71,71,71,71,71,71,71,
71,71,71,71,71,71,71,71,71,71,71,71,71,71,71,71
</chunk>
   <chunk x="112" y="80" width="16" height="16">
71,71,71,71,71,71,71,71,71,71,71,71,71,71,71,71,
71,71,71,71,71,71,71,71,71,71,71,71,71,71,71,71,
71,71,71,71,71,71,71,71,71,71,71,71,71,71,71,71,
71,71,71,71,71,71,71,71,71,71,71,71,71,71,71,71,
71,71,71,71,71,71,71,71,71,71,71,71,71,71,71,71,
71,71,71,71,71,71,71,71,71,71,71,71,71,71,71,71,
71,71,71,71,71,71,71,71,71,71,71,71,71,71,71,71,
71,71,71,71,71,71,71,71,71,71,71,71,71,71,71,71,
71,71,71,71,71,71,71,71,71,71,71,71,71,71,71,71,
71,71,71,71,71,71,71,71,71,71,71,71,71,71,71,71,
71,71,71,71,71,71,71,71,71,71,71,71,71,71,71,71,
71,71,71,71,71,71,71,71,71,71,71,71,71,71,71,71,
71,71,71,71,71,71,71,71,71,71,71,71,71,71,71,71,
71,71,71,71,71,71,71,71,71,71,71,71,71,71,71,71,
71,71,71,71,71,71,71,71,71,71,71,71,71,71,71,71,
71,71,71,71,71,71,71,71,71,71,71,71,71,71,71,71
</chunk>
   <chunk x="128" y="80" width="16" height="16">
71,71,71,71,71,71,72,0,0,0,0,0,0,0,0,0,
71,71,71,71,71,71,72,0,0,0,0,0,0,0,0,0,
71,71,71,71,71,71,72,0,0,0,0,0,0,0,0,0,
71,71,71,71,71,71,72,0,0,0,0,0,0,0,0,0,
71,71,71,71,71,71,72,0,0,0,0,0,0,0,0,0,
71,71,71,71,71,59,18,0,0,0,0,0,0,0,0,0,
71,71,71,71,71,72,0,0,0,0,0,0,0,0,0,0,
71,71,71,71,71,72,0,0,0,0,0,0,0,0,0,0,
71,71,71,71,71,72,0,0,0,0,0,0,0,0,0,0,
71,71,71,71,71,72,0,0,0,0,0,0,0,0,0,0,
71,71,71,71,71,72,0,0,0,0,0,0,0,0,0,0,
71,71,71,71,71,68,63,0,0,0,0,0,0,0,0,0,
71,71,71,71,71,71,72,0,0,0,0,0,0,0,0,0,
71,71,71,71,71,71,72,0,0,0,0,0,0,0,0,0,
71,71,71,71,71,59,18,0,0,0,0,0,0,0,0,0,
71,71,71,71,71,72,0,0,0,0,0,0,0,0,0,0
</chunk>
   <chunk x="0" y="96" width="16" height="16">
0,0,0,0,0,0,0,0,0,0,0,0,0,0,0,0,
0,0,0,0,0,0,0,0,0,0,0,0,0,0,0,0,
0,0,0,0,0,0,0,0,0,0,0,0,0,0,0,0,
0,0,0,0,0,0,0,0,0,0,0,0,0,0,0,0,
0,0,0,0,0,0,0,0,0,0,0,0,0,0,0,0,
0,0,0,4,0,0,0,0,0,0,0,0,0,0,0,0,
0,0,0,0,0,0,0,0,0,0,0,0,0,0,0,0,
0,0,0,0,0,0,0,0,0,0,0,0,0,0,0,0,
0,0,0,0,0,0,0,0,0,0,0,0,0,0,0,0,
0,0,0,0,0,0,0,0,0,0,0,0,0,0,0,0,
0,0,0,0,0,0,0,0,0,0,0,0,0,0,0,0,
0,0,0,0,0,0,0,0,0,0,0,0,0,0,0,0,
0,0,0,0,0,0,0,0,0,0,0,0,0,0,0,0,
0,0,0,0,0,0,0,0,0,0,0,0,0,0,0,0,
0,0,0,0,0,0,0,0,0,0,0,0,0,0,0,0,
0,0,0,0,0,0,0,0,0,0,0,0,0,0,0,0
</chunk>
   <chunk x="16" y="96" width="16" height="16">
0,0,0,0,0,0,0,0,0,0,0,0,0,70,71,71,
0,0,0,0,0,0,0,0,0,0,0,0,0,70,71,71,
0,0,0,0,0,0,0,0,0,0,0,0,0,70,71,71,
0,0,0,0,0,0,0,0,0,0,0,0,0,70,71,71,
0,0,0,0,0,0,0,0,0,0,0,0,0,70,71,71,
0,0,0,0,0,0,0,0,0,0,0,0,0,70,71,71,
0,0,0,0,0,0,0,0,0,0,0,0,0,70,71,71,
0,0,0,0,0,0,0,0,0,0,0,0,0,70,71,71,
0,0,0,0,0,0,0,0,0,0,0,0,0,70,71,71,
0,0,0,0,0,0,0,0,0,0,0,0,0,70,71,71,
0,0,0,0,0,0,0,0,0,0,0,0,0,70,71,71,
0,0,0,0,0,0,0,0,0,0,0,0,0,70,71,71,
0,0,0,0,0,0,0,0,0,0,0,0,0,70,71,71,
0,0,0,0,0,0,0,0,0,0,0,0,0,70,71,71,
0,0,0,0,0,0,0,0,0,0,0,0,0,70,71,71,
0,0,0,0,0,0,0,0,0,0,0,0,0,70,71,71
</chunk>
   <chunk x="32" y="96" width="16" height="16">
71,71,71,71,71,71,71,71,71,71,71,71,71,71,71,71,
71,71,71,71,71,71,71,71,71,71,71,71,71,71,71,71,
71,71,71,71,71,71,71,71,71,71,71,71,71,71,71,71,
71,71,71,71,71,71,71,71,71,71,71,71,71,71,71,71,
71,71,71,71,71,71,71,71,71,71,71,71,71,71,71,71,
71,71,71,71,71,71,71,71,71,71,71,71,71,71,71,71,
71,71,71,71,71,71,71,71,71,71,71,71,71,71,71,71,
71,71,71,71,71,71,71,71,71,71,71,71,71,71,71,71,
71,71,71,71,71,71,71,71,71,71,71,71,71,71,71,71,
71,71,71,71,71,71,71,71,71,71,71,71,71,71,71,71,
71,71,71,71,71,71,71,71,71,71,71,71,71,71,71,71,
71,71,71,71,71,71,71,71,71,71,71,71,71,71,71,71,
71,71,71,71,71,71,71,71,71,71,71,71,71,71,71,71,
71,71,71,71,71,71,71,71,71,71,71,71,71,71,71,71,
71,71,71,71,71,71,71,71,71,71,71,71,71,71,71,71,
71,71,71,71,71,71,71,71,71,71,71,71,71,71,71,71
</chunk>
   <chunk x="48" y="96" width="16" height="16">
71,71,71,71,71,71,71,71,71,71,71,71,71,71,71,71,
71,71,71,71,71,71,71,71,71,71,71,71,71,71,71,71,
71,71,71,71,71,71,71,71,71,71,71,71,71,71,71,71,
71,71,71,71,71,71,71,71,71,71,71,71,71,71,71,71,
71,71,71,71,71,71,71,71,71,71,71,71,71,71,71,71,
71,71,71,71,71,71,71,71,71,71,71,71,71,71,71,71,
71,71,71,71,71,71,71,71,71,71,71,71,71,71,71,71,
71,71,71,71,71,71,71,71,71,71,71,71,71,71,71,71,
71,71,71,71,71,71,71,71,71,71,71,71,71,71,71,71,
71,71,71,71,71,71,71,71,71,71,71,71,71,71,71,71,
71,71,71,71,71,71,71,71,71,71,71,71,71,71,71,71,
71,71,71,71,71,71,71,71,71,71,71,71,71,71,71,71,
71,71,71,71,71,71,71,71,71,71,71,71,71,71,71,71,
71,71,71,71,71,71,71,71,71,71,71,71,71,71,71,71,
71,71,71,71,71,71,71,71,71,71,71,71,71,71,71,71,
71,71,71,71,71,71,71,71,71,71,71,71,71,71,71,71
</chunk>
   <chunk x="64" y="96" width="16" height="16">
71,71,71,71,71,71,71,71,71,71,71,72,0,0,0,0,
71,71,71,71,71,71,71,71,71,71,71,72,0,0,0,0,
71,71,71,71,71,71,71,71,71,71,71,72,0,0,0,0,
71,71,71,71,71,71,71,71,71,71,71,72,0,0,0,0,
71,71,71,71,71,71,71,71,71,71,71,72,0,0,0,0,
71,71,71,71,71,71,71,71,71,71,71,72,0,0,0,0,
71,71,71,71,71,71,71,71,71,71,71,72,0,0,0,0,
71,71,71,71,71,71,71,71,71,71,71,72,0,0,0,0,
71,71,71,71,71,71,71,71,71,71,71,72,0,0,0,0,
71,71,71,71,71,71,71,71,71,71,71,68,62,62,62,62,
71,71,71,71,71,71,71,71,71,71,71,71,71,71,71,71,
71,71,71,71,71,71,71,71,71,71,71,71,71,71,71,71,
71,71,71,71,71,71,71,71,71,71,71,71,71,71,71,71,
71,71,71,71,71,71,71,71,71,71,71,71,71,71,71,71,
71,71,71,71,71,71,71,71,71,71,71,71,71,71,71,71,
71,71,71,71,71,71,71,71,71,71,71,71,71,71,71,71
</chunk>
   <chunk x="80" y="96" width="16" height="16">
0,0,0,0,70,71,71,71,71,71,71,71,71,71,71,71,
0,0,0,0,70,71,71,71,71,71,71,71,71,71,71,71,
0,0,0,0,70,71,71,71,71,71,71,71,71,71,71,71,
0,0,0,0,70,71,71,71,71,71,71,71,71,71,71,71,
0,0,0,0,70,71,71,71,71,71,71,71,71,71,71,71,
0,0,0,0,70,71,71,71,71,71,71,71,71,71,71,71,
0,0,0,0,70,71,71,71,71,71,71,71,71,71,71,71,
0,0,0,0,70,71,71,71,71,71,71,71,71,71,71,71,
0,0,0,0,70,71,71,71,71,71,71,71,71,71,71,71,
62,62,62,62,69,71,71,71,71,71,71,71,71,71,71,71,
71,71,71,71,71,71,71,71,71,71,71,71,71,71,71,71,
71,71,71,71,71,71,71,71,71,71,71,71,71,71,71,71,
71,71,71,71,71,71,71,71,71,71,71,71,71,71,71,71,
71,71,71,71,71,71,71,71,71,71,71,71,71,71,71,71,
71,71,71,71,71,71,71,71,71,71,71,71,71,71,71,71,
71,71,71,71,71,71,71,71,71,71,71,71,71,71,71,71
</chunk>
   <chunk x="96" y="96" width="16" height="16">
71,71,71,71,71,71,71,71,71,71,71,71,71,71,71,71,
71,71,71,71,71,71,71,71,71,71,71,71,71,71,71,71,
71,71,71,71,71,71,71,71,71,71,71,71,71,71,71,71,
71,71,71,71,71,71,71,71,71,71,71,71,71,71,71,71,
71,71,71,71,71,71,71,71,71,71,71,71,71,71,71,71,
71,71,71,71,71,71,71,71,71,71,71,71,71,71,71,71,
71,71,71,71,71,71,71,71,71,71,71,71,71,71,71,71,
71,71,71,71,71,71,71,71,71,71,71,71,71,71,71,71,
71,71,71,71,71,71,71,71,71,71,71,71,71,71,71,71,
71,71,71,71,71,71,71,71,71,71,71,71,71,71,71,71,
71,71,71,71,71,71,71,71,71,71,71,71,71,71,71,71,
71,71,71,71,71,71,71,71,71,71,71,71,71,71,71,71,
71,71,71,71,71,71,71,71,71,71,71,71,71,71,71,71,
71,71,71,71,71,71,71,71,71,71,71,71,71,71,71,71,
71,71,71,71,71,71,71,71,71,71,71,71,71,71,71,71,
71,71,71,71,71,71,71,71,71,71,71,71,71,71,71,71
</chunk>
   <chunk x="112" y="96" width="16" height="16">
71,71,71,71,71,71,71,71,71,71,71,71,71,71,71,71,
71,71,71,71,71,71,71,71,71,71,71,71,71,71,71,71,
71,71,71,71,71,71,71,71,71,71,71,71,71,71,71,71,
71,71,71,71,71,71,71,71,71,71,71,71,71,71,71,71,
71,71,71,71,71,71,71,71,71,71,71,71,71,71,71,71,
71,71,71,71,71,71,71,71,71,71,71,71,71,71,71,71,
71,71,71,71,71,71,71,71,71,71,71,71,71,71,71,71,
71,71,71,71,71,71,71,71,71,71,71,71,71,71,71,71,
71,71,71,71,71,71,71,71,71,71,71,71,71,71,71,71,
71,71,71,71,71,71,71,71,71,71,71,71,71,71,71,71,
71,71,71,71,71,71,71,71,71,71,71,71,71,71,71,71,
71,71,71,71,71,71,71,71,71,71,71,71,71,71,71,71,
71,71,71,71,71,71,71,71,71,71,71,71,71,71,71,71,
71,71,71,71,71,71,71,71,71,71,71,71,71,71,71,71,
71,71,71,71,71,71,71,71,71,71,71,71,71,71,71,71,
71,71,71,71,71,71,71,71,71,71,71,71,71,71,71,71
</chunk>
   <chunk x="128" y="96" width="16" height="16">
71,71,71,71,71,72,0,0,0,0,0,0,0,0,0,0,
71,71,71,71,59,18,0,0,0,0,0,0,0,0,0,0,
71,71,71,71,72,0,0,0,0,0,0,0,0,0,0,0,
71,71,71,71,72,0,0,0,0,0,0,0,0,0,0,0,
71,71,71,71,72,0,0,0,0,0,0,0,0,0,0,0,
71,71,71,71,72,0,0,0,0,0,0,0,0,0,0,0,
71,71,71,71,72,0,0,0,0,0,0,0,0,0,0,0,
71,71,71,71,68,11,0,0,0,0,0,0,0,0,0,0,
71,71,71,71,71,72,0,0,0,0,0,0,0,0,0,0,
71,71,71,71,71,72,0,0,0,0,0,0,0,0,0,0,
71,71,71,71,71,68,11,0,0,0,0,0,0,0,0,0,
71,71,71,71,71,71,72,0,0,0,0,0,0,0,0,0,
71,71,71,71,71,71,72,0,0,0,0,0,0,0,0,0,
71,71,71,71,71,71,72,0,0,0,0,0,0,0,0,0,
71,71,71,71,71,71,72,0,0,0,0,0,0,0,0,0,
71,71,71,71,71,71,72,0,0,0,0,0,0,0,0,0
</chunk>
  </data>
 </layer>
 <objectgroup color="#fffa61" id="8" name="lights">
  <object id="248" class="light_area" x="-367" y="-96" width="671" height="1984">
   <properties>
    <property name="brightness" type="float" value="1"/>
    <property name="color" type="color" value="#ffdcddff"/>
    <property name="radius" type="float" value="6"/>
    <property name="startActive" type="bool" value="true"/>
   </properties>
  </object>
  <object id="249" class="light_area" x="208" y="367" width="336" height="1521">
   <properties>
    <property name="brightness" type="float" value="1"/>
    <property name="color" type="color" value="#ffdcddff"/>
    <property name="radius" type="float" value="6"/>
    <property name="startActive" type="bool" value="true"/>
   </properties>
  </object>
  <object id="250" class="light_area" x="448" y="497" width="257" height="943">
   <properties>
    <property name="brightness" type="float" value="0.75"/>
    <property name="color" type="color" value="#ffdcddff"/>
    <property name="radius" type="float" value="6"/>
    <property name="startActive" type="bool" value="true"/>
   </properties>
  </object>
  <object id="252" class="light_area" x="2064" y="-96" width="336" height="1984">
   <properties>
    <property name="brightness" type="float" value="1"/>
    <property name="color" type="color" value="#ffdcddff"/>
    <property name="radius" type="float" value="6"/>
    <property name="startActive" type="bool" value="true"/>
   </properties>
  </object>
  <object id="253" class="light" x="1952" y="464">
   <properties>
    <property name="angle" type="float" value="270"/>
    <property name="brightness" type="float" value="2.5"/>
    <property name="color" type="color" value="#ffdcddff"/>
    <property name="dirRadius" type="float" value="80"/>
    <property name="directional" type="bool" value="false"/>
    <property name="falloff" type="float" value="2"/>
    <property name="radius" type="float" value="1"/>
    <property name="shadows" type="bool" value="false"/>
    <property name="startActive" type="bool" value="true"/>
   </properties>
   <point/>
  </object>
  <object id="254" class="light" x="2048" y="1120">
   <properties>
    <property name="angle" type="float" value="270"/>
    <property name="brightness" type="float" value="2.5"/>
    <property name="color" type="color" value="#ffdcddff"/>
    <property name="dirRadius" type="float" value="80"/>
    <property name="directional" type="bool" value="false"/>
    <property name="falloff" type="float" value="2"/>
    <property name="radius" type="float" value="1"/>
    <property name="shadows" type="bool" value="false"/>
    <property name="startActive" type="bool" value="true"/>
   </properties>
   <point/>
  </object>
  <object id="255" class="light" x="2064" y="832">
   <properties>
    <property name="angle" type="float" value="270"/>
    <property name="brightness" type="float" value="2.5"/>
    <property name="color" type="color" value="#ffdcddff"/>
    <property name="dirRadius" type="float" value="80"/>
    <property name="directional" type="bool" value="false"/>
    <property name="falloff" type="float" value="2"/>
    <property name="radius" type="float" value="1"/>
    <property name="shadows" type="bool" value="false"/>
    <property name="startActive" type="bool" value="true"/>
   </properties>
   <point/>
  </object>
  <object id="257" class="light" x="1728" y="400">
   <properties>
    <property name="angle" type="float" value="270"/>
    <property name="brightness" type="float" value="2"/>
    <property name="color" type="color" value="#ffffdd55"/>
    <property name="dirRadius" type="float" value="80"/>
    <property name="directional" type="bool" value="false"/>
    <property name="falloff" type="float" value="2"/>
    <property name="radius" type="float" value="2"/>
    <property name="shadows" type="bool" value="false"/>
    <property name="startActive" type="bool" value="true"/>
   </properties>
   <point/>
  </object>
  <object id="258" class="light" x="1120" y="432">
   <properties>
    <property name="angle" type="float" value="270"/>
    <property name="brightness" type="float" value="2.5"/>
    <property name="color" type="color" value="#ffffce6b"/>
    <property name="dirRadius" type="float" value="80"/>
    <property name="directional" type="bool" value="false"/>
    <property name="falloff" type="float" value="2"/>
    <property name="radius" type="float" value="2"/>
    <property name="shadows" type="bool" value="false"/>
    <property name="startActive" type="bool" value="true"/>
   </properties>
   <point/>
  </object>
  <object id="259" class="light" x="1456" y="336">
   <properties>
    <property name="angle" type="float" value="270"/>
    <property name="brightness" type="float" value="1.5"/>
    <property name="color" type="color" value="#fff6ff42"/>
    <property name="dirRadius" type="float" value="80"/>
    <property name="directional" type="bool" value="false"/>
    <property name="falloff" type="float" value="2"/>
    <property name="radius" type="float" value="2"/>
    <property name="shadows" type="bool" value="false"/>
    <property name="startActive" type="bool" value="true"/>
   </properties>
   <point/>
  </object>
  <object id="260" class="light" x="816" y="304">
   <properties>
    <property name="angle" type="float" value="270"/>
    <property name="brightness" type="float" value="2.5"/>
    <property name="color" type="color" value="#fffff45d"/>
    <property name="dirRadius" type="float" value="80"/>
    <property name="directional" type="bool" value="false"/>
    <property name="falloff" type="float" value="2"/>
    <property name="radius" type="float" value="1.75"/>
    <property name="shadows" type="bool" value="false"/>
    <property name="startActive" type="bool" value="true"/>
   </properties>
   <point/>
  </object>
  <object id="261" class="light" x="864" y="560">
   <properties>
    <property name="angle" type="float" value="270"/>
    <property name="brightness" type="float" value="1.5"/>
    <property name="color" type="color" value="#ffc2ff3e"/>
    <property name="dirRadius" type="float" value="80"/>
    <property name="directional" type="bool" value="false"/>
    <property name="falloff" type="float" value="2"/>
    <property name="radius" type="float" value="2"/>
    <property name="shadows" type="bool" value="false"/>
    <property name="startActive" type="bool" value="true"/>
   </properties>
   <point/>
  </object>
  <object id="262" class="light" x="992" y="848">
   <properties>
    <property name="angle" type="float" value="270"/>
    <property name="brightness" type="float" value="3"/>
    <property name="color" type="color" value="#fffff45d"/>
    <property name="dirRadius" type="float" value="80"/>
    <property name="directional" type="bool" value="false"/>
    <property name="falloff" type="float" value="2"/>
    <property name="radius" type="float" value="1.75"/>
    <property name="shadows" type="bool" value="false"/>
    <property name="startActive" type="bool" value="true"/>
   </properties>
   <point/>
  </object>
  <object id="263" class="light" x="880" y="1072">
   <properties>
    <property name="angle" type="float" value="270"/>
    <property name="brightness" type="float" value="2.5"/>
    <property name="color" type="color" value="#ffffce6b"/>
    <property name="dirRadius" type="float" value="80"/>
    <property name="directional" type="bool" value="false"/>
    <property name="falloff" type="float" value="2"/>
    <property name="radius" type="float" value="2"/>
    <property name="shadows" type="bool" value="false"/>
    <property name="startActive" type="bool" value="true"/>
   </properties>
   <point/>
  </object>
  <object id="264" class="light" x="1536" y="816">
   <properties>
    <property name="angle" type="float" value="270"/>
    <property name="brightness" type="float" value="3"/>
    <property name="color" type="color" value="#fffff45d"/>
    <property name="dirRadius" type="float" value="80"/>
    <property name="directional" type="bool" value="false"/>
    <property name="falloff" type="float" value="2"/>
    <property name="radius" type="float" value="1.75"/>
    <property name="shadows" type="bool" value="false"/>
    <property name="startActive" type="bool" value="true"/>
   </properties>
   <point/>
  </object>
  <object id="265" class="light" x="752" y="720">
   <properties>
    <property name="angle" type="float" value="270"/>
    <property name="brightness" type="float" value="1.5"/>
    <property name="color" type="color" value="#fff6ff42"/>
    <property name="dirRadius" type="float" value="80"/>
    <property name="directional" type="bool" value="false"/>
    <property name="falloff" type="float" value="2"/>
    <property name="radius" type="float" value="2"/>
    <property name="shadows" type="bool" value="false"/>
    <property name="startActive" type="bool" value="true"/>
   </properties>
   <point/>
  </object>
  <object id="266" class="light" x="1296" y="1008">
   <properties>
    <property name="angle" type="float" value="270"/>
    <property name="brightness" type="float" value="1.5"/>
    <property name="color" type="color" value="#ffc2ff3e"/>
    <property name="dirRadius" type="float" value="80"/>
    <property name="directional" type="bool" value="false"/>
    <property name="falloff" type="float" value="2"/>
    <property name="radius" type="float" value="2"/>
    <property name="shadows" type="bool" value="false"/>
    <property name="startActive" type="bool" value="true"/>
   </properties>
   <point/>
  </object>
  <object id="267" class="light" x="1282" y="1388">
   <properties>
    <property name="angle" type="float" value="270"/>
    <property name="brightness" type="float" value="2.5"/>
    <property name="color" type="color" value="#fffff45d"/>
    <property name="dirRadius" type="float" value="80"/>
    <property name="directional" type="bool" value="false"/>
    <property name="falloff" type="float" value="2"/>
    <property name="radius" type="float" value="1.75"/>
    <property name="shadows" type="bool" value="false"/>
    <property name="startActive" type="bool" value="true"/>
   </properties>
   <point/>
  </object>
  <object id="268" class="light" x="1696" y="944">
   <properties>
    <property name="angle" type="float" value="270"/>
    <property name="brightness" type="float" value="1.5"/>
    <property name="color" type="color" value="#fff6ff42"/>
    <property name="dirRadius" type="float" value="80"/>
    <property name="directional" type="bool" value="false"/>
    <property name="falloff" type="float" value="2"/>
    <property name="radius" type="float" value="2"/>
    <property name="shadows" type="bool" value="false"/>
    <property name="startActive" type="bool" value="true"/>
   </properties>
   <point/>
  </object>
 </objectgroup>
 <objectgroup color="#ff8284" id="7" name="npcs">
  <object id="316" class="npc" x="1536" y="800">
   <properties>
    <property name="id" type="int" value="11"/>
    <property name="noticeDist" type="int" value="300"/>
    <property name="perma" type="bool" value="true"/>
    <property name="phantom" type="int" value="0"/>
    <property name="wanderDist" type="int" value="0"/>
   </properties>
   <point/>
  </object>
  <object id="317" class="npc" x="1849" y="485">
   <properties>
    <property name="id" type="int" value="5"/>
    <property name="noticeDist" type="int" value="300"/>
    <property name="perma" type="bool" value="true"/>
    <property name="phantom" type="int" value="0"/>
    <property name="wanderDist" type="int" value="0"/>
   </properties>
   <point/>
  </object>
  <object id="318" class="npc" x="924" y="366">
   <properties>
    <property name="id" type="int" value="14"/>
    <property name="noticeDist" type="int" value="300"/>
    <property name="perma" type="bool" value="true"/>
    <property name="phantom" type="int" value="0"/>
    <property name="wanderDist" type="int" value="0"/>
   </properties>
   <point/>
  </object>
  <object id="319" class="npc" x="881" y="555">
   <properties>
    <property name="id" type="int" value="15"/>
    <property name="noticeDist" type="int" value="300"/>
    <property name="perma" type="bool" value="true"/>
    <property name="phantom" type="int" value="0"/>
    <property name="wanderDist" type="int" value="0"/>
   </properties>
   <point/>
  </object>
  <object id="320" class="npc" x="1072" y="547">
   <properties>
    <property name="id" type="int" value="16"/>
    <property name="noticeDist" type="int" value="300"/>
    <property name="perma" type="bool" value="true"/>
    <property name="phantom" type="int" value="0"/>
    <property name="wanderDist" type="int" value="0"/>
   </properties>
   <point/>
  </object>
  <object id="321" class="npc" x="1091" y="977">
   <properties>
    <property name="id" type="int" value="14"/>
    <property name="noticeDist" type="int" value="300"/>
    <property name="perma" type="bool" value="true"/>
    <property name="phantom" type="int" value="0"/>
    <property name="wanderDist" type="int" value="0"/>
   </properties>
   <point/>
  </object>
  <object id="322" class="npc" x="1077" y="754">
   <properties>
    <property name="id" type="int" value="16"/>
    <property name="noticeDist" type="int" value="300"/>
    <property name="perma" type="bool" value="true"/>
    <property name="phantom" type="int" value="0"/>
    <property name="wanderDist" type="int" value="0"/>
   </properties>
   <point/>
  </object>
  <object id="323" class="npc" x="897" y="1165">
   <properties>
    <property name="id" type="int" value="16"/>
    <property name="noticeDist" type="int" value="300"/>
    <property name="perma" type="bool" value="true"/>
    <property name="phantom" type="int" value="0"/>
    <property name="wanderDist" type="int" value="0"/>
   </properties>
   <point/>
  </object>
  <object id="324" class="npc" x="783" y="993">
   <properties>
    <property name="id" type="int" value="17"/>
    <property name="noticeDist" type="int" value="300"/>
    <property name="perma" type="bool" value="true"/>
    <property name="phantom" type="int" value="0"/>
    <property name="wanderDist" type="int" value="0"/>
   </properties>
   <point/>
  </object>
  <object id="325" class="npc" x="1992" y="799">
   <properties>
    <property name="id" type="int" value="6"/>
    <property name="noticeDist" type="int" value="300"/>
    <property name="perma" type="bool" value="true"/>
    <property name="phantom" type="int" value="0"/>
    <property name="wanderDist" type="int" value="0"/>
   </properties>
   <point/>
  </object>
  <object id="328" class="npc" x="795" y="1138">
   <properties>
    <property name="id" type="int" value="14"/>
    <property name="noticeDist" type="int" value="300"/>
    <property name="perma" type="bool" value="true"/>
    <property name="phantom" type="int" value="0"/>
    <property name="wanderDist" type="int" value="0"/>
   </properties>
   <point/>
  </object>
  <object id="329" class="npc" x="-371" y="180">
   <properties>
    <property name="id" type="int" value="25"/>
    <property name="noticeDist" type="int" value="300"/>
    <property name="perma" type="bool" value="true"/>
    <property name="phantom" type="int" value="0"/>
    <property name="wanderDist" type="int" value="0"/>
   </properties>
   <point/>
  </object>
 </objectgroup>
 <objectgroup color="#7de8b9" id="11" name="deco"/>
 <objectgroup color="#8aadff" id="9" name="puzzles">
  <object id="282" name="door1" class="door" x="784" y="240" width="16" height="112">
   <properties>
    <property name="draw" type="bool" value="true"/>
    <property name="skin" type="int" value="0"/>
    <property name="startActive" type="bool" value="true"/>
   </properties>
  </object>
  <object id="283" name="door2" class="door" x="832" y="688" width="16" height="96">
   <properties>
    <property name="draw" type="bool" value="true"/>
    <property name="skin" type="int" value="0"/>
    <property name="startActive" type="bool" value="true"/>
   </properties>
  </object>
  <object id="284" name="door1" class="door" x="960" y="608" width="48" height="16">
   <properties>
    <property name="draw" type="bool" value="true"/>
    <property name="skin" type="int" value="0"/>
    <property name="startActive" type="bool" value="true"/>
   </properties>
  </object>
  <object id="285" name="door4" class="door" x="1248" y="1056" width="64" height="16">
   <properties>
    <property name="draw" type="bool" value="true"/>
    <property name="skin" type="int" value="0"/>
    <property name="startActive" type="bool" value="true"/>
   </properties>
  </object>
  <object id="286" name="door2" class="door" x="1360" y="976" width="16" height="80">
   <properties>
    <property name="draw" type="bool" value="true"/>
    <property name="skin" type="int" value="0"/>
    <property name="startActive" type="bool" value="true"/>
   </properties>
  </object>
  <object id="287" name="sealDoor" class="door" x="1216" y="1524" width="128" height="32">
   <properties>
    <property name="draw" type="bool" value="true"/>
    <property name="skin" type="int" value="0"/>
    <property name="startActive" type="bool" value="true"/>
   </properties>
  </object>
  <object id="288" name="door4" class="door" x="1984" y="880" width="96" height="16">
   <properties>
    <property name="draw" type="bool" value="true"/>
    <property name="skin" type="int" value="0"/>
    <property name="startActive" type="bool" value="true"/>
   </properties>
  </object>
  <object id="291" name="magnet1" class="magnet" x="800" y="592">
   <properties>
    <property name="direction" type="bool" value="true"/>
    <property name="draw" type="bool" value="true"/>
    <property name="size" type="int" value="1"/>
    <property name="startActive" type="bool" value="true"/>
   </properties>
   <point/>
  </object>
  <object id="292" class="wireOverlay" x="752" y="592">
   <properties>
    <property name="target" value="magnet1"/>
   </properties>
   <polyline points="48,0 40,0 40,-240"/>
  </object>
  <object id="293" class="wireOverlay" x="840" y="569">
   <properties>
    <property name="target" value="magnet1"/>
   </properties>
   <polyline points="120,47 -48,47 -48,23"/>
  </object>
  <object id="294" name="magnet2" class="magnet" x="1040" y="1184">
   <properties>
    <property name="direction" type="bool" value="true"/>
    <property name="draw" type="bool" value="true"/>
    <property name="size" type="int" value="2"/>
    <property name="startActive" type="bool" value="true"/>
   </properties>
   <point/>
  </object>
  <object id="295" class="wireOverlay" x="894" y="1299">
   <properties>
    <property name="target" value="magnet2"/>
   </properties>
   <polyline points="474,-243 474,-219 155,-219 155,-115 146,-115"/>
  </object>
  <object id="296" class="wireOverlay" x="1049" y="1184">
   <properties>
    <property name="target" value="magnet2"/>
   </properties>
   <polyline points="0,0 0,24 -305,24 -305,-249 -209,-400"/>
  </object>
  <object id="297" name="switch1" class="switch" x="2128" y="1232">
   <properties>
    <property name="draw" type="bool" value="true"/>
    <property name="once" type="bool" value="false"/>
    <property name="skin" type="int" value="0"/>
    <property name="startActive" type="bool" value="true"/>
   </properties>
   <point/>
  </object>
  <object id="298" class="wireOverlay" x="1709" y="1523">
   <properties>
    <property name="target" value="switch1"/>
   </properties>
   <polyline points="371,-635 403,-635 403,-371 419,-291 419,-259 35,-259 35,-451 27,-459 -397,-459"/>
  </object>
  <object id="299" name="sealMag2" class="magnet" x="1072" y="1481">
   <properties>
    <property name="direction" type="bool" value="true"/>
    <property name="draw" type="bool" value="true"/>
    <property name="size" type="int" value="2"/>
    <property name="startActive" type="bool" value="true"/>
   </properties>
   <point/>
  </object>
  <object id="300" name="sealMag1" class="magnet" x="1488" y="1481">
   <properties>
    <property name="direction" type="bool" value="true"/>
    <property name="draw" type="bool" value="true"/>
    <property name="size" type="int" value="2"/>
    <property name="startActive" type="bool" value="true"/>
   </properties>
   <point/>
  </object>
  <object id="301" class="wireOverlay" x="1241" y="1753">
   <properties>
    <property name="target" value="sealMag1"/>
   </properties>
   <polyline points="247,-272 256,-272 256,-217 103,-217"/>
  </object>
  <object id="302" class="wireOverlay" x="825" y="1753">
   <properties>
    <property name="target" value="sealMag2"/>
   </properties>
   <polyline points="247,-272 239,-272 239,-217 391,-217"/>
  </object>
  <object id="311" class="wireOverlay" x="763" y="1181">
   <properties>
    <property name="target" value="charger1"/>
   </properties>
   <polyline points="293,-141 293,-117 280,-117 280,-81 275,-81"/>
  </object>
 </objectgroup>
 <objectgroup id="3" name="general">
  <object id="245" class="transition" x="1216" y="1648" width="128" height="32">
   <properties>
    <property name="endTarget" value="trans_start"/>
    <property name="start" type="bool" value="false"/>
    <property name="targetLevel" type="int" value="18"/>
   </properties>
  </object>
  <object id="246" name="trans_start" class="transition" x="1952" y="96" width="64" height="16">
   <properties>
    <property name="endTarget" value=""/>
    <property name="start" type="bool" value="true"/>
    <property name="targetLevel" type="int" value="0"/>
   </properties>
  </object>
  <object id="270" class="spiralDoor" x="1984" y="240" width="16" height="32">
   <properties>
    <property name="startActive" type="bool" value="true"/>
    <property name="teleportTarget" value=""/>
   </properties>
  </object>
  <object id="271" name="teleDoor1" class="spiralDoor" x="640" y="304" width="16" height="32">
   <properties>
    <property name="startActive" type="bool" value="true"/>
    <property name="teleportTarget" value="teleDoor2"/>
   </properties>
  </object>
  <object id="272" name="teleDoor2" class="spiralDoor" x="1888" y="1216" width="16" height="32">
   <properties>
    <property name="startActive" type="bool" value="true"/>
    <property name="teleportTarget" value="teleDoor1"/>
   </properties>
  </object>
  <object id="273" class="blockade" x="1664" y="400" width="16" height="64">
   <properties>
    <property name="ballistaVunerable" type="bool" value="false"/>
    <property name="skin" type="int" value="0"/>
    <property name="type" type="int" value="0"/>
   </properties>
  </object>
  <object id="274" class="blockade" x="736" y="224" width="16" height="128">
   <properties>
    <property name="ballistaVunerable" type="bool" value="false"/>
    <property name="skin" type="int" value="0"/>
    <property name="type" type="int" value="1"/>
   </properties>
  </object>
  <object id="276" class="sinkpit" x="384" y="1152" width="144" height="16">
   <properties>
    <property name="count" type="int" value="4"/>
    <property name="draw" type="bool" value="true"/>
    <property name="maxAttacking" type="int" value="1"/>
    <property name="skin" type="int" value="0"/>
   </properties>
  </object>
  <object id="277" class="ladder" x="544" y="768" width="16" height="384">
   <properties>
    <property name="draw" type="bool" value="true"/>
    <property name="skin" type="int" value="0"/>
    <property name="startActive" type="bool" value="true"/>
   </properties>
  </object>
  <object id="278" class="collider" x="2160" y="336" width="16" height="240">
   <properties>
    <property name="tags" value="ex_player"/>
   </properties>
  </object>
  <object id="279" class="collider" x="2160" y="1008" width="16" height="256">
   <properties>
    <property name="tags" value="ex_player"/>
   </properties>
  </object>
  <object id="281" class="collider" x="720" y="688" width="48" height="96">
   <properties>
    <property name="tags" value="ex_player_seeker"/>
   </properties>
  </object>
  <object id="290" name="catalyst1" class="catalyst" x="1122" y="600" width="28" height="8">
   <properties>
    <property name="boostMult" type="float" value="1"/>
    <property name="charged" type="bool" value="false"/>
    <property name="draw" type="bool" value="true"/>
    <property name="startActive" type="bool" value="false"/>
   </properties>
  </object>
  <object id="305" name="trig_blockBoosts" class="trigger" x="1584" y="400" width="32" height="64">
   <properties>
    <property name="corpses" type="bool" value="false"/>
    <property name="npcs" type="bool" value="false"/>
    <property name="once" type="bool" value="false"/>
    <property name="player" type="bool" value="true"/>
    <property name="startActive" type="bool" value="true"/>
   </properties>
  </object>
  <object id="306" name="trig_letBoosts" class="trigger" x="1616" y="400" width="32" height="64">
   <properties>
    <property name="corpses" type="bool" value="false"/>
    <property name="npcs" type="bool" value="false"/>
    <property name="once" type="bool" value="false"/>
    <property name="player" type="bool" value="true"/>
    <property name="startActive" type="bool" value="true"/>
   </properties>
  </object>
  <object id="307" name="trig_blockBoosts" class="trigger" x="960" y="624" width="48" height="32">
   <properties>
    <property name="corpses" type="bool" value="false"/>
    <property name="npcs" type="bool" value="false"/>
    <property name="once" type="bool" value="false"/>
    <property name="player" type="bool" value="true"/>
    <property name="startActive" type="bool" value="true"/>
   </properties>
  </object>
  <object id="308" name="trig_letBoosts" class="trigger" x="960" y="656" width="48" height="32">
   <properties>
    <property name="corpses" type="bool" value="false"/>
    <property name="npcs" type="bool" value="false"/>
    <property name="once" type="bool" value="false"/>
    <property name="player" type="bool" value="true"/>
    <property name="startActive" type="bool" value="true"/>
   </properties>
  </object>
  <object id="309" name="jet" class="catalyst_jet" x="1010" y="1096" width="28" height="8">
   <properties>
    <property name="charged" type="bool" value="true"/>
    <property name="draw" type="bool" value="true"/>
    <property name="startActive" type="bool" value="true"/>
   </properties>
  </object>
  <object id="310" name="charger1" class="catalyst_charger" x="1056" y="1040">
   <properties>
    <property name="startActive" type="bool" value="true"/>
    <property name="target" value="jet"/>
   </properties>
   <point/>
  </object>
  <object id="313" name="trig_fallPlain1" class="trigger" x="2144" y="1536" width="928" height="144">
   <properties>
    <property name="corpses" type="bool" value="false"/>
    <property name="npcs" type="bool" value="false"/>
    <property name="once" type="bool" value="true"/>
    <property name="player" type="bool" value="true"/>
    <property name="startActive" type="bool" value="true"/>
   </properties>
  </object>
  <object id="314" name="trig_fallPlain1" class="trigger" x="-464" y="1552" width="928" height="144">
   <properties>
    <property name="corpses" type="bool" value="false"/>
    <property name="npcs" type="bool" value="false"/>
    <property name="once" type="bool" value="true"/>
    <property name="player" type="bool" value="true"/>
    <property name="startActive" type="bool" value="true"/>
   </properties>
  </object>
  <object id="326" class="collider" x="1072" y="1456" width="16" height="48">
   <properties>
    <property name="tags" value="ex_player_seeker"/>
   </properties>
  </object>
  <object id="327" class="collider" x="1472" y="1456" width="16" height="48">
   <properties>
    <property name="tags" value="ex_player_seeker"/>
   </properties>
  </object>
  <object id="333" class="reverb" x="681" y="66" width="676" height="676">
   <properties>
    <property name="minRadius" type="float" value="10"/>
    <property name="reverbType" type="int" value="0"/>
    <property name="wetness" type="float" value="8"/>
   </properties>
   <ellipse/>
  </object>
  <object id="334" class="reverb" x="682" y="598" width="676" height="676">
   <properties>
    <property name="minRadius" type="float" value="10"/>
    <property name="reverbType" type="int" value="0"/>
    <property name="wetness" type="float" value="4"/>
   </properties>
   <ellipse/>
  </object>
  <object id="335" class="reverb" x="1312" y="607" width="525" height="525">
   <properties>
    <property name="minRadius" type="float" value="10"/>
    <property name="reverbType" type="int" value="0"/>
    <property name="wetness" type="float" value="4"/>
   </properties>
   <ellipse/>
  </object>
  <object id="336" class="reverb" x="1097" y="1191" width="387" height="387">
   <properties>
    <property name="minRadius" type="float" value="10"/>
    <property name="reverbType" type="int" value="2"/>
    <property name="wetness" type="float" value="4"/>
   </properties>
   <ellipse/>
  </object>
  <object id="337" class="collider" x="0" y="304" width="32" height="880">
   <properties>
    <property name="tags" value="ex_player"/>
   </properties>
  </object>
  <object id="338" class="collider" x="0" y="1184" width="320" height="32">
   <properties>
    <property name="tags" value=""/>
   </properties>
  </object>
 </objectgroup>
 <objectgroup color="#00ff00" id="4" name="nodegraph">
  <object id="222" class="node" x="1904" y="544">
   <point/>
  </object>
  <object id="223" class="node" x="2144" y="544">
   <point/>
  </object>
  <object id="224" class="node" x="2112" y="432">
   <point/>
  </object>
  <object id="225" class="node" x="2000" y="432">
   <point/>
  </object>
  <object id="226" class="node" x="1712" y="448">
   <point/>
  </object>
  <object id="227" class="node" x="1408" y="400">
   <point/>
  </object>
  <object id="228" class="node" x="1216" y="400">
   <point/>
  </object>
  <object id="229" class="node" x="928" y="768">
   <point/>
  </object>
  <object id="230" class="node" x="832" y="592">
   <point/>
  </object>
  <object id="231" class="node" x="896" y="400">
   <point/>
  </object>
  <object id="232" class="node" x="976" y="400">
   <point/>
  </object>
  <object id="233" class="node" x="1008" y="592">
   <point/>
  </object>
  <object id="234" class="node" x="1056" y="784">
   <point/>
  </object>
  <object id="235" class="node" x="1104" y="784">
   <point/>
  </object>
  <object id="236" class="node" x="1136" y="1040">
   <point/>
  </object>
  <object id="237" class="node" x="960" y="1088">
   <point/>
  </object>
  <object id="238" class="node" x="800" y="1184">
   <point/>
  </object>
  <object id="239" class="node" x="1408" y="1040">
   <point/>
  </object>
  <object id="240" class="node" x="1520" y="864">
   <point/>
  </object>
  <object id="241" class="node" x="1600" y="864">
   <point/>
  </object>
  <object id="242" class="node" x="1728" y="784">
   <point/>
  </object>
  <object id="243" class="node" x="1648" y="1040">
   <point/>
  </object>
  <object id="244" class="node" x="1904" y="784">
   <point/>
  </object>
  <object id="247" class="node" x="1040" y="1040">
   <point/>
  </object>
 </objectgroup>
 <objectgroup color="#ffffff" id="12" name="regions"/>
</map>
