<?xml version="1.0" encoding="UTF-8"?>
<map version="1.9" tiledversion="1.9.1" orientation="orthogonal" renderorder="right-down" width="64" height="32" tilewidth="16" tileheight="16" infinite="1" nextlayerid="13" nextobjectid="985">
 <tileset firstgid="1" source="../til/devSet.tsx"/>
 <tileset firstgid="118" source="../til/props.tsx"/>
 <layer id="5" name="background" width="64" height="32" tintcolor="#433b35">
  <data encoding="csv">
   <chunk x="16" y="0" width="16" height="16">
0,0,0,0,0,0,0,0,0,0,0,0,0,0,0,0,
0,0,0,0,0,0,0,0,0,0,0,0,0,0,0,0,
0,0,0,0,0,0,0,0,0,0,0,0,0,0,0,0,
0,0,0,0,0,0,0,0,0,0,0,0,0,0,0,0,
0,0,0,0,0,0,0,0,0,0,0,0,0,0,0,0,
0,0,0,0,0,0,0,0,0,0,0,0,0,0,0,0,
0,0,0,0,0,0,0,0,0,0,0,0,0,0,0,0,
0,0,0,0,0,0,0,0,0,0,0,0,0,0,0,0,
0,0,0,0,0,0,0,0,0,0,0,0,0,0,0,0,
0,0,0,0,0,0,0,0,0,0,0,0,0,0,0,0,
0,0,0,0,0,0,0,0,0,0,0,0,0,0,0,0,
0,0,0,0,0,0,0,0,0,0,0,0,0,0,0,0,
0,0,0,0,0,71,71,71,71,71,71,71,71,71,71,71,
0,0,0,0,0,71,71,71,71,71,71,71,71,71,71,71,
0,0,0,0,0,71,71,71,71,71,71,71,71,71,71,71,
0,0,0,0,0,71,71,71,71,71,71,71,71,71,71,71
</chunk>
   <chunk x="32" y="0" width="16" height="16">
0,0,0,0,0,0,0,0,0,0,0,0,0,0,0,0,
0,0,0,0,0,0,0,0,0,0,0,0,0,0,0,0,
0,0,0,0,0,0,0,0,0,0,0,0,0,0,0,0,
0,0,0,0,0,0,0,0,0,0,0,0,0,0,0,0,
0,0,0,0,0,0,0,0,0,0,0,0,0,0,0,0,
0,0,0,0,0,0,0,0,0,0,0,0,0,0,0,0,
0,0,0,0,0,0,0,0,0,0,0,0,0,0,0,0,
0,0,0,0,0,0,0,0,0,0,0,0,0,0,0,0,
0,0,0,0,0,0,0,0,0,0,0,0,0,0,0,0,
0,0,0,0,0,0,0,0,0,0,0,0,0,0,0,0,
0,0,0,0,0,0,0,0,0,0,0,0,0,0,0,0,
0,0,0,0,0,0,0,0,0,0,0,0,0,0,0,0,
71,71,71,71,0,0,0,0,0,0,0,0,0,0,0,0,
71,71,71,71,71,0,0,0,0,0,0,0,0,0,0,0,
71,71,71,71,71,71,0,0,0,0,0,0,0,0,0,0,
71,71,71,71,71,71,71,0,0,0,0,0,0,0,0,0
</chunk>
   <chunk x="48" y="0" width="16" height="16">
0,0,0,0,0,0,0,0,0,0,0,0,0,0,0,0,
0,0,0,0,0,0,0,0,0,0,0,0,0,0,0,0,
0,0,0,0,0,0,0,0,0,0,0,0,0,0,0,0,
0,0,0,0,0,0,0,0,0,0,0,0,0,0,0,0,
0,0,0,0,0,0,0,0,0,0,0,0,0,0,0,0,
0,0,0,0,0,0,0,0,0,0,0,0,0,0,0,0,
0,0,0,0,0,0,0,0,0,0,0,0,0,0,0,0,
0,0,0,0,0,0,0,0,0,0,0,0,0,0,0,0,
0,0,0,0,0,0,0,0,0,0,0,0,0,0,0,0,
0,0,0,0,0,0,0,0,0,0,0,0,0,0,0,0,
0,0,0,0,0,0,0,0,0,0,0,0,0,0,0,0,
0,0,0,0,0,0,0,0,0,0,0,0,0,0,0,0,
0,0,0,0,0,0,0,0,0,0,0,0,0,0,0,0,
0,0,0,0,0,0,0,0,0,0,0,0,0,0,0,0,
0,0,0,0,0,0,0,0,0,0,0,0,0,0,0,0,
0,0,0,0,0,0,0,0,0,0,0,0,0,0,0,71
</chunk>
   <chunk x="64" y="0" width="16" height="16">
0,0,0,0,0,0,0,0,0,0,0,0,0,0,0,0,
0,0,0,0,0,0,0,0,0,0,0,0,0,0,0,0,
71,71,71,71,71,0,0,0,0,0,0,0,0,0,0,0,
71,71,71,71,71,0,0,0,0,0,0,0,0,0,0,0,
71,71,71,71,71,0,0,0,0,0,0,0,0,0,0,0,
71,71,71,71,71,0,0,0,0,0,0,0,0,0,0,0,
71,71,71,71,71,0,0,0,0,0,0,0,0,0,0,0,
71,71,71,71,71,0,0,0,0,0,0,0,0,0,0,0,
71,71,71,71,71,0,0,0,0,0,0,0,0,0,0,0,
71,71,71,71,71,0,0,0,0,0,0,0,0,0,0,0,
71,71,71,71,71,0,0,0,0,0,0,0,0,0,0,0,
71,71,71,71,71,0,0,0,0,0,0,0,0,0,0,0,
71,71,71,71,71,0,0,0,0,0,0,0,0,0,0,0,
71,71,71,71,71,0,0,0,0,0,0,0,0,0,0,0,
71,71,71,71,71,0,0,0,0,0,0,0,0,0,0,0,
71,71,71,71,71,0,0,0,0,0,0,0,0,0,0,0
</chunk>
   <chunk x="16" y="16" width="16" height="16">
0,0,0,0,0,71,71,71,71,71,71,71,71,71,71,71,
0,0,0,0,0,71,71,71,71,71,71,71,71,71,71,71,
0,0,0,0,0,71,71,71,71,71,71,71,71,71,71,71,
0,0,0,0,0,71,71,71,71,71,71,71,71,71,71,71,
0,0,0,0,0,71,71,71,71,71,71,71,71,71,71,71,
0,0,0,0,0,71,71,71,71,71,71,71,71,71,71,71,
0,0,0,0,0,71,71,71,71,71,71,71,71,71,71,71,
0,0,0,0,0,71,71,71,71,71,71,71,71,71,71,71,
0,0,0,0,0,71,71,71,71,71,71,71,71,71,71,71,
0,0,0,0,0,71,71,71,71,71,71,71,71,71,71,71,
0,0,0,0,0,71,71,71,71,71,71,71,71,71,71,71,
0,0,0,0,0,71,71,71,71,71,71,71,71,71,71,71,
0,0,0,0,0,71,71,71,71,71,71,71,71,71,71,71,
0,0,0,0,0,71,71,71,71,71,71,71,71,71,71,71,
0,0,0,0,0,71,71,71,71,71,71,71,71,71,71,71,
0,0,0,0,0,71,71,71,71,71,0,0,0,0,0,0
</chunk>
   <chunk x="32" y="16" width="16" height="16">
71,71,71,71,71,71,71,71,71,0,0,0,0,0,0,0,
71,71,71,71,71,71,71,71,71,71,0,0,0,0,0,0,
71,71,71,71,71,71,71,71,71,71,0,0,0,0,0,0,
71,71,71,71,71,71,71,71,71,71,0,0,0,0,0,0,
71,71,71,71,71,71,71,71,71,71,0,0,0,0,0,0,
71,71,71,71,71,71,71,71,71,71,0,0,0,0,0,0,
71,71,71,71,71,71,71,71,71,71,0,0,0,0,0,0,
71,71,71,71,71,71,71,71,71,71,0,0,0,0,0,0,
71,71,71,71,71,71,71,71,71,71,71,71,71,71,71,71,
71,71,71,71,71,71,71,71,71,71,71,71,71,71,71,71,
71,71,71,71,71,71,71,71,71,71,71,71,71,71,71,71,
71,71,71,71,71,71,71,71,71,71,71,71,71,71,71,71,
71,71,71,71,71,71,71,71,71,71,71,71,71,71,71,71,
71,71,71,71,71,71,71,71,71,71,71,71,71,71,71,71,
71,71,71,71,71,71,71,71,71,71,71,71,71,71,71,71,
0,0,0,0,0,0,0,0,0,0,0,0,0,0,0,0
</chunk>
   <chunk x="48" y="16" width="16" height="16">
0,0,0,0,0,0,0,0,0,0,0,0,0,71,71,71,
0,0,0,0,0,0,0,0,0,0,0,0,0,71,71,71,
0,0,0,0,0,0,0,0,0,0,0,0,71,71,71,71,
0,0,0,0,0,0,0,0,0,0,0,0,71,71,71,71,
0,0,0,0,0,0,0,0,0,0,0,0,71,71,71,71,
0,0,0,0,0,0,0,0,0,0,0,71,71,71,71,71,
0,0,0,0,0,0,0,0,0,0,0,71,71,71,71,71,
0,0,0,0,0,0,0,0,0,0,0,71,71,71,71,71,
71,71,71,71,71,71,71,71,71,71,71,71,71,71,71,71,
71,71,71,71,71,71,71,71,71,71,71,71,71,71,71,71,
71,71,71,71,71,71,71,71,71,71,71,71,71,71,71,71,
71,71,71,71,71,71,71,71,71,71,71,71,71,71,71,71,
71,71,71,71,71,71,71,71,71,71,71,71,71,71,71,71,
71,71,71,71,71,71,71,71,71,71,71,71,71,71,71,71,
71,71,71,71,71,71,71,71,71,71,71,71,71,71,71,71,
0,0,0,0,0,0,0,0,0,0,0,0,0,0,0,0
</chunk>
   <chunk x="64" y="16" width="16" height="16">
71,71,71,71,71,71,71,71,0,0,0,0,0,0,0,0,
71,71,71,71,71,71,71,71,0,0,0,0,0,0,0,0,
71,71,71,71,71,71,71,71,71,0,0,0,0,0,0,0,
71,71,71,71,71,71,71,71,71,0,0,0,0,0,0,0,
71,71,71,71,71,71,71,71,71,0,0,0,0,0,0,0,
71,71,71,71,71,71,71,71,71,71,0,0,0,0,0,0,
71,71,71,71,71,71,71,71,71,71,0,0,0,0,0,0,
71,71,71,71,71,71,71,71,71,71,0,0,0,0,0,0,
71,71,71,71,71,71,71,71,71,71,71,71,71,71,71,71,
71,71,71,71,71,71,71,71,71,71,71,71,71,71,71,71,
71,71,71,71,71,71,71,71,71,71,71,71,71,71,71,71,
71,71,71,71,71,71,71,71,71,71,71,71,71,71,71,71,
71,71,71,71,71,71,71,71,71,71,71,71,71,71,71,71,
71,71,71,71,71,71,71,71,71,71,71,71,71,71,71,71,
71,71,71,71,71,71,71,71,71,71,71,71,71,71,71,71,
0,0,0,0,0,0,0,0,0,0,0,0,0,0,0,0
</chunk>
   <chunk x="80" y="16" width="16" height="16">
0,0,0,0,0,0,0,0,0,0,0,0,0,0,0,0,
0,0,0,0,0,0,0,0,0,0,0,0,0,0,0,0,
0,0,0,0,0,0,0,0,0,0,0,0,0,0,0,0,
0,0,0,0,0,0,0,0,0,0,0,0,0,0,0,0,
0,0,0,0,0,0,0,0,0,0,0,0,0,0,0,0,
0,0,0,0,0,0,0,0,0,0,0,0,0,0,0,0,
0,0,0,0,0,0,0,0,0,0,0,0,0,0,0,0,
0,0,0,0,0,0,0,0,0,0,0,0,0,0,0,0,
71,71,71,71,71,0,0,0,0,0,0,0,0,0,0,0,
71,71,71,71,71,0,0,0,0,0,0,0,0,0,0,0,
71,71,71,71,71,0,0,0,0,0,0,0,0,0,0,0,
71,71,71,71,71,0,0,0,0,0,0,0,0,0,0,0,
71,71,71,71,71,0,0,0,0,0,0,0,0,0,0,0,
71,71,71,71,71,0,0,0,0,0,0,0,0,0,0,0,
71,71,71,71,71,0,0,0,0,0,0,0,0,0,0,0,
0,0,0,0,0,0,0,0,0,0,0,0,0,0,0,0
</chunk>
   <chunk x="16" y="32" width="16" height="16">
0,0,0,0,0,71,71,71,71,71,0,0,0,0,0,0,
0,0,0,0,0,71,71,71,71,71,0,0,0,0,0,0,
0,0,0,0,0,71,71,71,71,71,0,0,0,0,0,0,
0,0,0,0,0,71,71,71,71,71,0,0,71,71,71,71,
0,0,0,0,0,71,71,71,71,71,0,0,71,71,71,71,
0,0,0,0,0,71,71,71,71,71,0,0,71,71,71,71,
0,0,0,0,0,71,71,71,71,71,0,0,71,71,71,71,
0,0,0,0,0,71,71,71,71,71,71,71,71,71,71,71,
0,0,0,0,0,71,71,71,71,71,71,71,71,71,71,71,
0,0,0,0,0,71,71,71,71,71,71,71,71,71,71,71,
0,0,0,0,0,71,71,71,71,71,71,71,71,71,71,71,
0,0,0,0,0,71,71,71,71,71,71,71,71,71,71,71,
0,0,0,0,0,71,71,71,71,71,71,71,71,71,71,71,
0,0,0,0,0,71,71,71,71,71,71,71,71,71,71,71,
0,0,0,0,0,0,0,0,0,0,0,0,71,71,71,71,
0,0,0,0,0,0,0,0,0,0,0,0,71,71,71,71
</chunk>
   <chunk x="32" y="32" width="16" height="16">
0,0,0,0,0,0,0,0,0,0,0,0,0,0,0,0,
0,0,0,0,0,0,0,0,0,0,0,0,0,0,0,0,
0,0,0,0,0,0,0,0,0,0,0,0,0,0,0,0,
71,71,71,71,71,71,71,71,71,71,71,71,71,71,71,71,
71,71,71,71,71,71,71,71,71,71,71,71,71,71,71,71,
71,71,71,71,71,71,71,71,71,71,71,71,71,71,71,71,
71,71,71,71,71,71,71,71,71,71,71,71,71,71,71,71,
71,71,71,71,71,71,71,71,71,71,71,71,71,71,71,71,
71,71,71,71,71,71,71,71,71,71,71,71,71,71,71,71,
71,71,71,71,71,71,71,71,71,71,71,71,71,71,71,71,
71,71,71,71,71,71,71,71,71,71,71,71,71,71,71,71,
71,71,71,71,71,71,71,71,71,71,71,71,71,71,71,71,
71,71,71,71,71,71,71,71,71,71,71,71,71,71,71,71,
71,71,71,71,71,71,71,71,71,71,71,71,71,71,71,71,
71,71,71,71,71,71,71,71,71,71,71,71,71,71,71,71,
71,71,71,71,71,71,71,71,71,71,71,71,71,71,71,71
</chunk>
   <chunk x="48" y="32" width="16" height="16">
0,0,0,0,0,0,0,0,0,0,0,0,0,0,0,0,
0,0,0,0,0,0,0,0,0,0,0,0,0,0,0,0,
0,0,0,0,0,0,0,0,0,0,0,0,0,0,0,0,
71,71,71,71,0,0,0,0,0,0,0,0,0,0,0,0,
71,71,71,71,0,0,0,0,0,0,0,0,0,0,0,0,
71,71,71,71,0,0,0,0,0,0,0,0,0,0,0,0,
71,71,71,71,0,0,0,0,0,0,0,0,0,0,0,0,
71,71,71,71,71,71,71,71,71,71,71,71,71,71,71,71,
71,71,71,71,71,71,71,71,71,71,71,71,71,71,71,71,
71,71,71,71,71,71,71,71,71,71,71,71,71,71,71,71,
71,71,71,71,71,71,71,71,71,71,71,71,71,71,71,71,
71,71,71,71,71,71,71,71,71,71,71,71,71,71,71,71,
71,71,71,71,71,71,71,71,71,71,71,71,71,71,71,71,
71,71,71,71,71,71,71,71,71,71,71,71,71,0,0,0,
71,71,71,71,71,71,71,71,71,71,71,71,0,0,0,0,
71,71,71,71,71,71,71,71,71,71,71,71,0,0,0,0
</chunk>
   <chunk x="64" y="32" width="16" height="16">
0,0,0,0,0,0,0,0,0,0,0,0,0,0,0,0,
0,0,0,0,0,0,0,0,0,0,0,0,0,0,0,0,
0,0,0,0,71,71,71,71,71,71,71,71,71,71,71,71,
0,0,0,0,71,71,71,71,71,71,71,71,71,71,71,71,
0,0,0,0,71,71,71,71,71,71,71,71,71,71,71,71,
0,0,0,0,71,71,71,71,71,71,71,71,71,71,71,71,
0,0,0,0,71,71,71,71,71,71,71,71,71,71,71,71,
71,71,71,71,71,71,71,71,71,71,71,71,71,71,71,71,
71,71,71,71,71,71,71,71,71,71,71,71,71,71,71,71,
71,71,71,71,71,71,71,71,71,71,71,71,71,71,71,71,
71,71,71,71,71,71,71,71,71,71,71,71,71,71,71,71,
71,71,71,71,71,71,71,71,71,71,71,71,71,71,71,71,
71,71,71,71,71,71,71,71,71,71,71,71,71,71,71,71,
0,0,0,0,71,71,71,71,71,71,71,71,71,71,71,71,
0,0,0,0,71,71,71,71,71,71,71,71,71,71,71,71,
0,0,0,0,71,71,71,71,71,71,71,71,71,71,71,71
</chunk>
   <chunk x="80" y="32" width="16" height="16">
0,0,0,0,0,0,0,0,0,0,0,0,0,0,0,0,
0,0,0,0,0,0,0,0,0,0,0,0,0,0,0,0,
71,71,71,0,0,0,0,0,0,0,0,0,0,0,0,0,
71,71,71,0,0,0,0,0,0,0,0,0,0,0,0,0,
71,71,71,0,0,0,0,0,0,0,0,0,0,0,0,0,
71,71,71,0,0,0,0,0,0,0,0,0,0,0,0,0,
71,71,71,0,0,0,0,0,0,0,0,0,0,0,0,0,
71,71,71,0,0,0,0,0,0,0,0,0,0,0,0,0,
71,71,71,0,0,0,0,0,0,0,0,0,0,0,0,0,
71,71,71,0,0,0,0,0,0,0,0,0,0,0,0,0,
71,71,71,0,0,0,0,0,0,0,0,0,0,0,0,0,
71,71,71,71,71,71,71,71,71,71,71,71,0,0,0,0,
71,71,71,71,71,71,71,71,71,71,71,71,0,0,0,0,
71,71,71,71,71,71,71,71,71,71,71,71,0,0,0,0,
71,71,71,71,71,71,71,71,71,71,71,71,0,0,0,0,
71,71,71,71,71,71,71,71,71,71,71,71,0,0,0,0
</chunk>
   <chunk x="16" y="48" width="16" height="16">
0,0,0,0,0,0,0,0,0,0,0,0,71,71,71,71,
0,0,0,0,0,0,0,0,0,0,0,0,71,71,71,71,
0,0,0,0,0,0,0,0,0,0,0,0,71,71,71,71,
0,0,0,0,0,0,0,0,0,0,0,0,71,71,71,71,
0,0,0,0,0,0,0,0,0,0,0,0,71,71,71,71,
0,0,0,0,0,0,0,0,0,0,0,0,71,71,71,71,
0,0,0,0,0,0,0,0,0,0,0,0,71,71,71,71,
0,0,0,0,0,0,0,0,0,0,0,0,0,0,0,0,
0,0,0,0,0,0,0,0,0,0,0,0,0,0,0,0,
0,0,71,71,71,71,71,71,71,71,71,71,71,71,71,71,
0,0,71,71,71,71,71,71,71,71,71,71,71,71,71,71,
0,0,71,71,71,71,71,71,71,71,71,71,71,71,71,71,
0,0,71,71,71,71,71,71,71,71,71,71,71,71,71,71,
0,0,71,71,71,71,71,71,71,71,71,71,71,71,71,71,
0,0,71,71,71,71,71,71,71,71,71,71,71,71,71,71,
0,0,71,71,71,71,71,71,71,71,0,0,0,0,0,71
</chunk>
   <chunk x="32" y="48" width="16" height="16">
71,71,71,71,71,71,71,71,71,71,71,71,71,71,71,71,
71,71,71,71,71,71,71,71,71,71,71,71,71,71,71,71,
71,71,71,71,71,71,71,71,71,71,71,71,71,71,71,71,
71,71,71,71,71,71,71,71,71,71,71,71,71,71,71,71,
71,71,71,71,71,71,71,71,71,71,71,71,71,71,71,71,
71,71,71,71,71,71,71,71,71,71,71,71,71,71,71,71,
71,71,71,71,71,71,71,71,71,71,71,71,71,71,71,71,
0,0,0,0,0,0,0,0,0,0,0,0,0,0,0,0,
0,0,0,0,0,0,0,0,0,0,0,0,0,0,0,0,
71,71,71,71,71,71,71,71,71,71,71,71,71,71,71,71,
71,71,71,71,71,71,71,71,71,71,71,71,71,71,71,71,
71,71,71,71,71,71,71,71,71,71,71,71,71,71,71,71,
71,71,71,71,71,71,71,71,71,71,71,71,71,71,71,71,
71,71,71,71,71,71,71,71,71,71,71,71,71,71,71,71,
71,71,71,71,71,71,71,71,71,71,71,71,71,71,71,71,
71,71,71,71,71,71,71,71,71,71,71,71,71,71,71,71
</chunk>
   <chunk x="48" y="48" width="16" height="16">
71,71,71,71,71,71,71,71,71,71,71,71,0,0,0,0,
71,71,71,71,71,71,71,71,71,71,71,71,0,0,0,0,
71,71,71,71,71,71,71,71,71,71,71,71,0,0,0,0,
71,71,71,71,71,71,71,71,71,71,71,71,0,0,0,0,
71,71,71,71,71,71,71,71,71,71,71,71,0,0,0,0,
71,71,71,71,71,71,71,71,71,71,71,71,0,0,0,0,
71,71,71,71,71,71,71,71,71,71,71,71,0,0,0,0,
0,0,0,0,0,0,0,0,0,0,0,0,0,0,0,0,
0,0,0,0,0,0,0,0,0,0,0,0,0,0,0,0,
71,71,71,71,71,71,71,71,71,71,71,71,71,71,71,71,
71,71,71,71,71,71,71,71,71,71,71,71,71,71,71,71,
71,71,71,71,71,71,71,71,71,71,71,71,71,71,71,71,
71,71,71,71,71,71,71,71,71,71,71,71,71,71,71,71,
71,71,71,71,71,71,71,71,71,71,71,71,71,71,71,71,
71,71,71,71,71,71,71,71,71,71,71,71,71,71,71,71,
71,71,71,71,71,0,0,0,0,0,71,71,71,71,0,0
</chunk>
   <chunk x="64" y="48" width="16" height="16">
0,0,0,0,71,71,71,71,71,71,71,71,71,71,71,71,
0,0,0,0,71,71,71,71,71,71,71,71,71,71,71,71,
0,0,0,0,0,0,0,0,0,0,0,0,0,0,0,0,
0,0,0,0,0,0,0,0,0,0,0,0,0,0,0,0,
0,0,0,0,0,0,0,0,0,0,0,0,0,0,0,0,
0,0,0,0,0,0,0,0,0,0,0,0,0,0,0,0,
0,0,0,0,0,0,0,0,0,0,0,0,0,0,0,0,
0,0,0,0,0,0,0,0,0,0,0,0,0,0,0,0,
0,0,0,0,0,0,0,0,0,0,0,0,0,0,0,0,
71,71,71,71,71,71,71,71,71,71,0,0,0,0,0,0,
71,71,71,71,71,71,71,71,71,71,0,0,0,0,0,0,
71,71,71,71,71,71,71,71,71,71,0,0,0,0,0,0,
71,71,71,71,71,71,71,71,71,71,0,0,0,0,0,0,
71,71,71,71,71,71,71,71,71,71,0,0,0,0,0,0,
71,71,71,71,71,71,71,71,71,71,0,0,0,0,0,0,
0,0,0,0,0,0,0,0,0,0,0,0,0,0,0,0
</chunk>
   <chunk x="80" y="48" width="16" height="16">
71,71,71,71,71,71,71,71,71,71,71,71,0,0,0,0,
71,71,71,71,71,71,71,71,71,71,71,71,0,0,0,0,
0,0,0,0,0,0,0,0,71,71,71,71,0,0,0,0,
0,0,0,0,0,0,0,0,71,71,71,71,0,0,0,0,
0,0,0,0,0,0,0,0,71,71,71,71,0,0,0,0,
0,0,0,0,0,0,0,0,71,71,71,71,0,0,0,0,
0,0,0,0,0,0,0,0,71,71,71,71,0,0,0,0,
0,0,0,71,71,71,71,71,71,71,71,71,0,0,0,0,
0,0,0,71,71,71,71,71,71,71,71,71,0,0,0,0,
0,0,0,71,71,71,71,71,71,71,71,71,0,0,0,0,
0,0,0,71,71,71,71,71,71,71,71,71,0,0,0,0,
0,0,0,71,71,71,71,71,71,71,71,71,0,0,0,0,
0,0,0,71,71,71,71,71,71,71,71,71,0,0,0,0,
0,0,0,71,71,71,71,71,71,71,71,71,0,0,0,0,
0,0,0,0,0,0,0,0,71,71,71,71,0,0,0,0,
0,0,0,0,0,0,0,0,71,71,71,71,0,0,0,0
</chunk>
   <chunk x="0" y="64" width="16" height="16">
0,0,0,0,0,0,0,0,0,0,0,0,0,0,0,0,
0,0,0,0,0,0,0,0,0,0,0,0,0,0,0,0,
0,0,0,0,0,0,0,71,71,71,71,71,71,71,71,71,
0,0,0,0,0,0,0,71,71,71,71,71,71,71,71,71,
0,0,0,0,0,0,0,71,71,71,71,71,71,71,71,71,
0,0,0,0,0,0,0,71,71,71,71,71,71,71,71,71,
0,0,0,0,0,0,0,71,71,71,71,71,71,71,71,71,
0,0,0,0,0,0,0,71,71,71,71,71,71,71,71,71,
0,0,0,0,0,0,0,71,71,71,71,71,0,0,0,0,
0,0,0,0,0,0,0,71,71,71,71,71,0,0,0,0,
0,0,0,0,0,0,0,71,71,71,71,71,0,0,0,0,
0,0,0,0,0,0,0,71,71,71,71,71,0,0,0,0,
0,0,0,0,0,0,0,71,71,71,71,71,0,0,0,0,
0,0,0,0,0,0,0,0,0,0,0,0,0,0,0,0,
0,0,0,0,0,0,0,0,0,0,0,0,0,0,0,0,
0,0,0,0,0,0,0,0,0,0,0,0,0,0,0,0
</chunk>
   <chunk x="16" y="64" width="16" height="16">
0,0,71,71,71,71,71,71,71,71,0,0,0,0,0,71,
0,0,71,71,71,71,71,71,71,71,0,0,0,0,0,71,
71,71,71,71,71,71,71,71,71,71,71,71,71,71,71,71,
71,71,71,71,71,71,71,71,71,71,71,71,71,71,71,71,
71,71,71,71,71,71,71,71,71,71,71,71,71,71,71,71,
71,71,71,71,71,71,71,71,71,71,71,71,71,71,71,71,
71,71,71,71,71,71,71,71,71,71,71,71,71,71,71,71,
71,71,71,71,71,71,71,71,71,71,71,71,71,71,71,71,
0,0,71,71,71,71,71,71,71,71,71,71,71,71,71,71,
0,0,71,71,71,71,71,71,71,71,71,71,71,71,71,71,
0,0,71,71,71,71,71,71,71,71,71,71,71,71,71,71,
0,0,71,71,71,71,71,71,71,71,71,71,71,71,71,71,
0,0,71,71,71,71,71,71,71,71,71,71,71,71,71,71,
0,0,0,0,0,71,71,71,71,71,71,71,71,71,71,71,
0,0,0,0,0,71,71,71,71,71,71,71,71,71,71,71,
0,0,0,0,0,71,71,71,71,71,71,71,71,71,71,71
</chunk>
   <chunk x="32" y="64" width="16" height="16">
71,71,71,71,71,71,71,71,71,71,71,71,71,71,71,71,
71,71,71,71,71,71,71,71,71,71,71,71,71,71,71,71,
71,71,71,71,71,71,71,71,71,71,71,71,71,71,71,71,
71,71,71,71,71,71,71,71,71,71,71,71,71,71,71,71,
71,71,71,71,71,71,71,71,71,71,71,71,0,0,0,0,
71,71,71,71,71,71,71,71,71,71,71,71,0,0,0,0,
71,71,71,71,71,71,71,71,71,71,71,71,0,0,0,0,
71,71,71,71,71,71,71,71,71,71,71,71,0,0,0,0,
71,71,71,71,71,71,71,71,71,71,71,71,0,0,0,0,
71,71,71,71,71,71,71,71,71,71,71,71,0,0,0,0,
71,71,71,71,71,71,71,71,71,71,71,71,0,0,0,0,
71,71,71,71,71,71,71,71,71,71,71,71,0,0,0,0,
71,71,71,71,71,71,71,71,71,71,71,71,0,0,0,0,
71,71,71,71,71,71,71,71,71,71,71,71,71,71,71,71,
71,71,71,71,71,71,71,71,71,71,71,71,71,71,71,71,
71,71,71,71,71,71,71,71,71,71,71,71,71,71,71,71
</chunk>
   <chunk x="48" y="64" width="16" height="16">
71,71,71,71,71,0,0,0,0,0,71,71,71,71,0,0,
71,71,71,71,71,0,0,0,0,0,71,71,71,71,0,0,
71,71,71,71,71,0,0,0,0,0,71,71,71,71,0,0,
71,71,71,71,71,0,0,0,0,0,71,71,71,71,0,0,
0,71,71,71,71,0,0,0,0,0,71,71,71,71,0,0,
0,71,71,71,71,0,0,0,0,0,71,71,71,71,0,0,
0,71,71,71,71,0,0,0,0,0,71,71,71,71,0,0,
0,71,71,71,71,0,0,0,0,0,71,71,71,71,0,0,
0,71,71,71,71,0,0,0,0,0,71,71,71,71,0,0,
0,71,71,71,71,0,0,0,0,0,71,71,71,71,71,71,
0,71,71,71,71,0,0,0,0,0,71,71,71,71,71,71,
0,71,71,71,71,0,0,0,0,0,71,71,71,71,71,71,
0,71,71,71,71,0,0,0,0,0,71,71,71,71,71,71,
71,71,71,71,71,0,0,0,0,0,71,71,71,71,71,71,
71,71,71,71,71,0,0,0,0,0,71,71,71,71,71,71,
71,71,71,71,71,0,0,0,0,0,71,71,71,71,71,71
</chunk>
   <chunk x="64" y="64" width="16" height="16">
0,0,0,0,0,0,0,0,0,0,0,0,0,0,0,0,
0,0,0,0,0,0,0,0,0,0,0,0,0,0,0,0,
0,0,0,0,0,0,0,0,0,0,0,0,0,0,0,0,
0,0,0,0,0,0,0,0,0,0,0,0,0,0,0,0,
0,0,0,0,0,0,0,0,0,0,0,0,0,0,0,0,
0,0,0,0,0,71,71,71,71,71,71,71,71,71,71,71,
0,0,0,71,71,71,71,71,71,71,71,71,71,71,71,71,
0,0,71,71,71,71,71,71,71,71,71,71,71,71,71,71,
0,0,71,71,71,71,71,71,71,71,71,71,71,71,71,71,
71,71,71,71,71,71,71,71,71,71,71,71,71,71,71,71,
71,71,71,71,71,71,71,71,71,71,71,71,71,71,71,71,
71,71,71,71,71,71,71,71,71,71,71,71,71,71,71,71,
71,71,71,71,71,71,71,71,71,71,71,71,71,71,71,71,
71,71,71,71,71,71,71,71,71,71,71,71,71,71,71,71,
71,71,71,71,71,71,71,71,71,71,71,71,71,71,71,71,
71,71,71,71,71,71,71,71,71,71,71,71,71,71,71,71
</chunk>
   <chunk x="80" y="64" width="16" height="16">
0,0,0,0,0,0,0,0,71,71,71,71,0,0,0,0,
0,0,0,0,0,0,0,0,71,71,71,71,0,0,0,0,
0,0,0,0,0,0,0,0,71,71,71,71,0,0,0,0,
0,0,0,0,0,0,0,0,71,71,71,71,0,0,0,0,
0,0,0,0,0,0,0,0,71,71,71,71,0,0,0,0,
71,71,71,71,71,71,0,0,71,71,71,71,0,0,0,0,
71,71,71,71,71,71,0,0,71,71,71,71,0,0,0,0,
71,71,71,71,71,71,0,0,71,71,71,71,0,0,0,0,
71,71,71,71,71,71,0,0,71,71,71,71,0,0,0,0,
71,71,71,71,71,71,0,0,71,71,71,71,0,0,0,0,
71,71,71,71,71,71,0,0,71,71,71,71,0,0,0,0,
71,71,71,71,71,71,0,0,71,71,71,71,0,0,0,0,
71,71,71,71,71,71,0,0,71,71,71,71,0,0,0,0,
71,71,71,71,71,71,71,71,71,71,71,71,0,0,0,0,
71,71,71,71,71,71,71,71,71,71,71,71,0,0,0,0,
71,71,71,71,71,71,71,71,71,71,71,71,0,0,0,0
</chunk>
   <chunk x="16" y="80" width="16" height="16">
0,0,0,0,0,71,71,71,71,71,71,71,71,71,71,71,
0,0,0,0,0,71,71,71,71,71,71,71,71,71,71,71,
0,0,0,0,0,71,71,71,71,71,71,71,71,71,71,71,
71,71,71,71,71,71,71,71,71,71,71,71,71,71,71,71,
71,71,71,71,71,71,71,71,71,71,71,71,71,71,71,71,
71,71,71,71,71,71,71,71,71,71,71,71,71,71,71,71,
71,71,71,71,71,71,71,71,71,71,71,71,71,71,71,71,
71,71,71,71,71,71,71,71,71,71,71,71,71,71,71,71,
71,71,71,71,71,71,71,71,71,71,71,71,71,71,71,71,
71,71,71,71,71,71,71,71,71,71,71,71,71,71,71,71,
71,71,71,71,71,71,71,71,71,71,71,71,71,71,71,71,
0,0,0,0,0,0,0,0,0,0,0,0,0,0,0,0,
0,0,0,0,0,0,0,0,0,0,0,0,0,0,0,0,
0,0,0,0,0,0,0,0,0,0,0,0,0,0,0,0,
0,0,0,0,0,0,0,0,0,0,0,0,0,0,0,0,
0,0,0,0,0,0,0,0,0,0,0,0,0,0,0,0
</chunk>
   <chunk x="32" y="80" width="16" height="16">
71,71,71,71,71,71,71,71,71,71,71,71,71,71,71,71,
71,71,71,71,71,71,71,71,71,71,71,71,71,71,71,71,
71,71,71,71,71,71,71,71,71,71,71,71,71,71,71,71,
71,71,71,71,71,71,71,71,71,71,71,71,71,71,71,71,
71,71,71,71,71,71,71,71,71,71,71,71,71,71,71,71,
71,71,71,71,71,71,71,71,71,71,71,71,71,71,71,71,
71,71,71,71,71,71,71,71,71,71,71,71,71,71,71,71,
71,71,71,71,71,71,71,71,71,71,71,71,71,71,71,71,
71,71,71,71,71,71,71,71,71,71,71,71,71,71,71,71,
71,71,71,71,71,71,71,71,71,71,71,71,71,71,71,71,
71,71,71,71,71,71,71,71,71,71,71,71,71,71,71,71,
0,0,0,0,0,0,0,0,0,0,0,0,0,0,0,0,
0,0,0,0,0,0,0,0,0,0,0,0,0,0,0,0,
0,0,0,0,0,0,0,0,0,0,0,0,0,0,0,0,
0,0,0,0,0,0,0,0,0,0,0,0,0,0,0,0,
0,0,0,0,0,0,0,0,0,0,0,0,0,0,0,0
</chunk>
   <chunk x="48" y="80" width="16" height="16">
71,71,71,71,71,0,0,0,0,0,71,71,71,71,71,71,
71,71,71,71,71,0,0,0,0,0,71,71,71,71,71,71,
71,71,71,71,71,0,0,0,0,0,0,0,0,0,71,71,
71,71,71,71,71,0,0,0,0,0,0,0,0,0,71,71,
71,71,71,71,71,0,0,0,0,0,0,0,0,0,71,71,
71,71,71,71,71,0,0,0,0,0,0,0,0,0,71,71,
71,71,71,71,71,0,0,0,0,0,0,0,0,0,71,71,
71,71,71,71,71,0,0,0,0,0,0,0,0,0,71,71,
71,71,71,71,71,0,0,0,0,0,0,0,0,0,0,0,
71,71,71,71,71,0,0,0,0,0,0,0,0,0,0,0,
71,71,71,71,71,0,0,0,0,0,0,0,0,0,0,0,
0,0,0,0,0,0,0,0,0,0,0,0,0,0,0,0,
0,0,0,0,0,0,0,0,0,0,0,0,0,0,0,0,
0,0,0,0,0,0,0,0,0,0,0,0,0,0,0,0,
0,0,0,0,0,0,0,0,0,0,0,0,0,0,0,0,
0,0,0,0,0,0,0,0,0,0,0,0,0,0,0,0
</chunk>
   <chunk x="64" y="80" width="16" height="16">
71,71,71,71,71,71,71,71,71,71,71,71,71,71,71,71,
71,71,71,71,71,71,71,71,71,71,71,71,71,71,71,71,
71,71,71,71,71,71,71,71,71,71,71,71,71,71,71,71,
71,71,71,71,71,71,71,71,71,71,71,71,71,71,71,71,
71,71,71,71,71,71,71,71,71,71,71,71,71,71,71,71,
71,71,71,71,71,71,71,71,71,71,71,71,71,71,71,71,
71,71,71,71,71,71,71,71,71,71,71,71,71,71,71,71,
71,71,71,71,71,71,71,71,71,71,71,71,71,71,71,71,
0,0,0,0,0,0,0,0,0,0,0,0,0,0,0,0,
0,0,0,0,0,0,0,0,0,0,0,0,0,0,0,0,
0,0,0,0,0,0,0,0,0,0,0,0,0,0,0,0,
0,0,0,0,0,0,0,0,0,0,0,0,0,0,0,0,
0,0,0,0,0,0,0,0,0,0,0,0,0,0,0,0,
0,0,0,0,0,0,0,0,0,0,0,0,0,0,0,0,
0,0,0,0,0,0,0,0,0,0,0,0,0,0,0,0,
0,0,0,0,0,0,0,0,0,0,0,0,0,0,0,0
</chunk>
   <chunk x="80" y="80" width="16" height="16">
71,71,71,71,71,71,71,71,71,71,71,71,0,0,0,0,
71,71,71,71,71,71,71,71,71,71,71,71,0,0,0,0,
71,71,71,71,71,71,71,71,71,71,71,71,0,0,0,0,
71,71,71,71,71,71,71,71,71,71,71,71,0,0,0,0,
71,71,71,71,71,71,71,71,71,71,71,71,0,0,0,0,
71,71,71,71,71,71,71,71,71,71,71,71,0,0,0,0,
71,71,71,0,0,0,0,0,0,0,0,0,0,0,0,0,
71,71,71,0,0,0,0,0,0,0,0,0,0,0,0,0,
0,0,0,0,0,0,0,0,0,0,0,0,0,0,0,0,
0,0,0,0,0,0,0,0,0,0,0,0,0,0,0,0,
0,0,0,0,0,0,0,0,0,0,0,0,0,0,0,0,
0,0,0,0,0,0,0,0,0,0,0,0,0,0,0,0,
0,0,0,0,0,0,0,0,0,0,0,0,0,0,0,0,
0,0,0,0,0,0,0,0,0,0,0,0,0,0,0,0,
0,0,0,0,0,0,0,0,0,0,0,0,0,0,0,0,
0,0,0,0,0,0,0,0,0,0,0,0,0,0,0,0
</chunk>
  </data>
 </layer>
 <layer id="1" name="ground" width="64" height="32">
  <data encoding="csv"/>
 </layer>
 <layer id="2" name="collision" width="64" height="32">
  <data encoding="csv">
   <chunk x="0" y="0" width="16" height="16">
71,71,71,71,71,71,71,71,71,71,71,71,71,71,71,71,
71,71,71,71,71,71,71,71,71,71,71,71,71,71,71,71,
71,71,71,71,71,71,71,71,71,71,71,71,71,71,71,71,
71,71,71,71,71,71,71,71,71,71,71,71,71,71,71,71,
71,71,71,71,71,71,71,71,71,71,71,71,71,71,71,71,
71,71,71,71,71,71,71,71,71,71,71,71,71,71,71,71,
71,71,71,71,71,71,71,71,71,71,71,71,71,71,71,71,
71,71,71,71,71,71,71,71,71,71,71,71,71,71,71,71,
71,71,71,71,71,71,71,71,71,71,71,71,71,71,71,71,
71,71,71,71,71,71,71,71,71,71,71,71,71,71,71,71,
71,71,71,71,71,71,71,71,71,71,71,71,71,71,71,71,
71,71,71,71,71,71,71,71,71,71,71,71,71,71,71,71,
71,71,71,71,71,71,71,71,71,71,71,71,71,71,71,71,
71,71,71,71,71,71,71,71,71,71,71,71,71,71,71,71,
71,71,71,71,71,71,71,71,71,71,71,71,71,71,71,71,
71,71,71,71,71,71,71,71,71,71,71,71,71,71,71,71
</chunk>
   <chunk x="16" y="0" width="16" height="16">
71,71,71,71,71,71,71,71,71,71,71,71,71,71,71,71,
71,71,71,71,71,71,71,71,71,71,71,71,71,71,71,71,
71,71,71,71,71,71,71,71,71,71,71,71,71,71,71,71,
71,71,71,71,71,71,71,71,71,71,71,71,71,71,71,71,
71,71,71,71,71,71,71,71,71,71,71,71,71,71,71,71,
71,71,71,71,71,71,71,71,71,71,71,71,71,71,71,71,
71,71,71,71,71,71,71,71,71,71,71,71,71,71,71,71,
71,71,71,71,71,71,71,71,71,71,71,71,71,71,71,71,
71,71,71,71,71,71,71,71,71,71,71,71,71,71,71,71,
71,71,71,71,71,71,71,71,71,71,71,71,71,71,71,71,
71,71,71,71,71,71,71,71,71,71,71,71,71,71,71,71,
71,71,71,71,71,71,71,71,71,71,71,71,71,71,71,71,
71,71,71,71,71,59,80,80,80,80,80,80,80,80,80,80,
71,71,71,71,71,72,0,0,0,0,0,0,0,0,0,0,
71,71,71,71,71,72,0,0,0,0,0,0,0,0,0,0,
71,71,71,71,71,72,0,0,0,0,0,0,0,0,0,0
</chunk>
   <chunk x="32" y="0" width="16" height="16">
71,71,71,71,71,71,71,71,71,71,71,71,71,71,71,71,
71,71,71,71,71,71,71,71,71,71,71,71,71,71,71,71,
71,71,71,71,71,71,71,71,71,71,71,71,71,71,71,71,
71,71,71,71,71,71,71,71,71,71,71,71,71,71,71,71,
71,71,71,71,71,71,71,71,71,71,71,71,71,71,71,71,
71,71,71,71,71,71,71,71,71,71,71,71,71,71,71,71,
71,71,71,71,71,71,71,71,71,71,71,71,71,71,71,71,
71,71,71,71,71,71,71,71,71,71,71,71,71,71,71,71,
71,71,71,71,71,71,71,71,71,71,71,71,71,71,71,71,
71,71,71,71,71,71,71,71,71,71,71,71,71,71,71,71,
71,71,71,71,71,71,71,71,71,71,71,71,71,71,71,71,
71,71,71,71,71,71,71,71,71,71,71,71,71,71,71,71,
80,80,80,80,60,71,71,71,71,71,71,71,71,71,71,71,
0,0,0,0,27,60,71,71,71,71,71,71,71,71,71,71,
0,0,0,0,0,27,60,71,71,71,71,71,71,71,71,71,
0,0,0,0,0,0,27,60,71,71,71,71,71,71,71,71
</chunk>
   <chunk x="48" y="0" width="16" height="16">
71,71,71,71,71,71,71,71,71,71,71,71,71,71,71,71,
71,71,71,71,71,71,71,71,71,71,71,71,71,71,71,71,
71,71,71,71,71,71,71,71,71,71,71,71,71,71,71,71,
71,71,71,71,71,71,71,71,71,71,71,71,71,71,71,71,
71,71,71,71,71,71,71,71,71,71,71,71,71,71,71,71,
71,71,71,71,71,71,71,71,71,71,71,71,71,71,71,71,
71,71,71,71,71,71,71,71,71,71,71,71,71,71,71,71,
71,71,71,71,71,71,71,71,71,71,71,71,71,71,71,71,
71,71,71,71,71,71,71,71,71,71,71,71,71,71,71,71,
71,71,71,71,71,71,71,71,71,71,71,71,71,71,71,71,
71,71,71,71,71,71,71,71,71,71,71,71,71,71,71,71,
71,71,71,71,71,71,71,71,71,71,71,71,71,71,71,71,
71,71,71,71,71,71,71,71,71,71,71,71,71,71,71,71,
71,71,71,71,71,71,71,71,71,71,71,71,71,71,71,71,
71,71,71,71,71,71,71,71,71,71,71,71,71,71,71,71,
71,71,71,71,71,71,71,71,71,71,71,71,71,71,71,59
</chunk>
   <chunk x="64" y="0" width="16" height="16">
71,71,71,71,71,71,71,71,71,71,71,71,71,71,71,71,
71,71,71,71,71,71,71,71,71,71,71,71,71,71,71,71,
59,80,80,80,60,71,71,71,71,71,71,71,71,71,71,71,
72,0,0,0,70,71,71,71,71,71,71,71,71,71,71,71,
72,0,0,0,70,71,71,71,71,71,71,71,71,71,71,71,
72,0,0,0,70,71,71,71,71,71,71,71,71,71,71,71,
72,0,0,0,70,71,71,71,71,71,71,71,71,71,71,71,
72,0,0,0,70,71,71,71,71,71,71,71,71,71,71,71,
72,0,0,0,70,71,71,71,71,71,71,71,71,71,71,71,
72,0,0,0,70,71,71,71,71,71,71,71,71,71,71,71,
72,0,0,0,70,71,71,71,71,71,71,71,71,71,71,71,
72,0,0,0,70,71,71,71,71,71,71,71,71,71,71,71,
72,0,0,0,70,71,71,71,71,71,71,71,71,71,71,71,
72,0,0,0,70,71,71,71,71,71,71,71,71,71,71,71,
72,0,0,0,70,71,71,71,71,71,71,71,71,71,71,71,
18,0,0,0,27,60,71,71,71,71,71,71,71,71,71,71
</chunk>
   <chunk x="80" y="0" width="16" height="16">
71,71,71,71,71,71,71,71,71,71,71,71,71,71,71,71,
71,71,71,71,71,71,71,71,71,71,71,71,71,71,71,71,
71,71,71,71,71,71,71,71,71,71,71,71,71,71,71,71,
71,71,71,71,71,71,71,71,71,71,71,71,71,71,71,71,
71,71,71,71,71,71,71,71,71,71,71,71,71,71,71,71,
71,71,71,71,71,71,71,71,71,71,71,71,71,71,71,71,
71,71,71,71,71,71,71,71,71,71,71,71,71,71,71,71,
71,71,71,71,71,71,71,71,71,71,71,71,71,71,71,71,
71,71,71,71,71,71,71,71,71,71,71,71,71,71,71,71,
71,71,71,71,71,71,71,71,71,71,71,71,71,71,71,71,
71,71,71,71,71,71,71,71,71,71,71,71,71,71,71,71,
71,71,71,71,71,71,71,71,71,71,71,71,71,71,71,71,
71,71,71,71,71,71,71,71,71,71,71,71,71,71,71,71,
71,71,71,71,71,71,71,71,71,71,71,71,71,71,71,71,
71,71,71,71,71,71,71,71,71,71,71,71,71,71,71,71,
71,71,71,71,71,71,71,71,71,71,71,71,71,71,71,71
</chunk>
   <chunk x="0" y="16" width="16" height="16">
71,71,71,71,71,71,71,71,71,71,71,71,71,71,71,71,
71,71,71,71,71,71,71,71,71,71,71,71,71,71,71,71,
71,71,71,71,71,71,71,71,71,71,71,71,71,71,71,71,
71,71,71,71,71,71,71,71,71,71,71,71,71,71,71,71,
71,71,71,71,71,71,71,71,71,71,71,71,71,71,71,71,
71,71,71,71,71,71,71,71,71,71,71,71,71,71,71,71,
71,71,71,71,71,71,71,71,71,71,71,71,71,71,71,71,
71,71,71,71,71,71,71,71,71,71,71,71,71,71,71,71,
71,71,71,71,71,71,71,71,71,71,71,71,71,71,71,71,
71,71,71,71,71,71,71,71,71,71,71,71,71,71,71,71,
71,71,71,71,71,71,71,71,71,71,71,71,71,71,71,71,
71,71,71,71,71,71,71,71,71,71,71,71,71,71,71,71,
71,71,71,71,71,71,71,71,71,71,71,71,71,71,71,71,
71,71,71,71,71,71,71,71,71,71,71,71,71,71,71,71,
71,71,71,71,71,71,71,71,71,71,71,71,71,71,71,71,
71,71,71,71,71,71,71,71,71,71,71,71,71,71,71,71
</chunk>
   <chunk x="16" y="16" width="16" height="16">
71,71,71,71,71,72,0,0,0,0,0,0,0,0,0,0,
71,71,71,71,71,72,0,0,0,0,0,0,0,0,0,0,
71,71,71,71,71,72,0,0,0,0,0,0,0,0,0,0,
71,71,71,71,71,72,0,0,0,0,0,0,0,0,0,0,
71,71,71,71,71,72,0,0,0,0,0,0,0,0,0,0,
71,71,71,71,71,72,0,0,0,0,0,0,0,0,0,0,
71,71,71,71,71,72,25,25,25,25,25,0,0,0,0,0,
71,71,71,71,71,72,0,0,0,0,0,0,0,0,0,0,
71,71,71,71,71,72,0,0,0,0,0,0,0,0,0,0,
71,71,71,71,71,72,0,0,0,0,0,0,0,0,0,0,
71,71,71,71,71,72,0,0,0,0,0,0,0,0,0,0,
71,71,71,71,71,72,0,0,0,0,0,0,0,0,0,0,
71,71,71,71,71,72,0,0,0,0,0,0,0,0,0,0,
71,71,71,71,71,72,0,0,0,0,0,0,0,0,0,0,
71,71,71,71,71,72,0,0,0,61,62,62,62,62,62,62,
71,71,71,71,71,72,0,0,0,70,71,71,71,71,71,71
</chunk>
   <chunk x="32" y="16" width="16" height="16">
0,0,0,0,0,0,0,27,60,71,71,71,71,71,71,71,
0,0,0,0,0,0,0,0,27,60,71,71,71,71,71,71,
0,0,0,0,0,0,0,0,0,70,71,71,71,71,71,71,
0,0,0,0,0,0,0,0,0,70,71,71,71,71,71,71,
0,0,25,25,25,25,25,25,25,70,71,71,71,71,71,71,
0,0,0,0,0,0,0,0,0,70,71,71,71,71,71,71,
0,0,0,0,0,0,0,0,0,70,71,71,71,71,71,71,
0,0,0,0,0,0,0,0,0,70,71,71,71,71,71,71,
0,0,0,0,0,0,0,0,0,70,71,71,71,71,71,71,
0,0,0,0,0,0,0,0,0,79,80,80,80,80,80,80,
0,0,0,0,0,0,0,0,0,0,0,0,0,0,0,0,
0,0,0,0,0,0,0,0,0,0,0,0,0,0,0,0,
0,0,0,0,0,0,0,0,0,0,0,0,0,0,0,0,
0,0,0,0,0,0,0,0,0,0,0,0,0,0,0,0,
62,62,62,62,62,62,62,62,62,62,62,62,62,62,62,62,
71,71,71,71,71,71,71,71,71,71,71,71,71,71,71,71
</chunk>
   <chunk x="48" y="16" width="16" height="16">
71,71,71,71,71,71,71,71,71,71,71,71,71,59,80,18,
71,71,71,71,71,71,71,71,71,71,71,71,71,72,0,0,
71,71,71,71,71,71,71,71,71,71,71,71,59,18,0,0,
71,71,71,71,71,71,71,71,71,71,71,71,72,0,0,0,
71,71,71,71,71,71,71,71,71,71,71,71,72,0,0,0,
71,71,71,71,71,71,71,71,71,71,71,59,18,0,0,0,
71,71,71,71,71,71,71,71,71,71,71,72,0,0,0,0,
71,71,71,71,71,71,71,71,71,71,71,72,0,0,0,0,
71,71,71,71,71,71,71,71,71,71,71,72,0,0,0,0,
80,80,80,80,80,80,80,80,80,80,80,81,0,0,0,0,
0,0,0,0,0,0,0,0,0,0,0,0,0,0,0,0,
0,0,0,0,0,0,0,0,0,0,0,0,0,0,0,0,
0,0,0,0,0,0,0,0,0,0,0,0,0,0,0,0,
0,0,0,0,0,0,0,0,0,0,0,0,0,0,0,0,
62,62,62,62,62,62,62,62,62,62,62,62,62,62,62,14,
71,71,71,71,71,71,71,71,71,71,71,71,71,71,71,71
</chunk>
   <chunk x="64" y="16" width="16" height="16">
0,0,0,0,0,27,80,60,71,71,71,71,71,71,71,71,
0,0,0,0,0,0,0,70,71,71,71,71,71,71,71,71,
0,0,0,0,0,0,0,27,60,71,71,71,71,71,71,71,
0,0,0,0,0,0,0,0,70,71,71,71,71,71,71,71,
0,0,0,0,0,0,0,0,70,71,71,71,71,71,71,71,
0,0,0,0,0,0,0,0,27,60,71,71,71,71,71,71,
0,0,0,0,0,0,0,0,0,70,71,71,71,71,71,71,
0,0,0,0,0,0,0,0,0,70,71,71,71,71,71,71,
0,0,0,0,0,0,0,0,0,79,80,80,80,80,80,80,
0,0,0,0,0,0,0,0,0,0,0,0,0,0,0,0,
0,0,0,0,0,0,0,0,0,0,0,0,0,0,0,0,
0,0,0,0,0,0,0,0,0,0,0,0,0,0,0,0,
0,0,0,0,0,0,0,0,0,0,0,0,0,0,0,0,
0,0,0,0,0,0,0,0,0,0,0,0,0,0,0,0,
15,0,0,0,12,13,62,62,62,62,62,62,62,62,62,62,
68,62,62,62,69,71,71,71,71,71,71,71,71,71,71,71
</chunk>
   <chunk x="80" y="16" width="16" height="16">
71,71,71,71,71,71,71,71,71,71,71,71,71,71,71,71,
71,71,71,71,71,71,71,71,71,71,71,71,71,71,71,71,
71,71,71,71,71,71,71,71,71,71,71,71,71,71,71,71,
71,71,71,71,71,71,71,71,71,71,71,71,71,71,71,71,
71,71,71,71,71,71,71,71,71,71,71,71,71,71,71,71,
71,71,71,71,71,71,71,71,71,71,71,71,71,71,71,71,
71,71,71,71,71,71,71,71,71,71,71,71,71,71,71,71,
71,71,71,71,71,71,71,71,71,71,71,71,71,71,71,71,
80,80,80,80,60,71,71,71,71,71,71,71,71,71,71,71,
0,0,0,0,70,71,71,71,71,71,71,71,71,71,71,71,
0,0,0,0,70,71,71,71,71,71,71,71,71,71,71,71,
0,0,0,0,70,71,71,71,71,71,71,71,71,71,71,71,
0,0,0,0,70,71,71,71,71,71,71,71,71,71,71,71,
0,0,0,0,70,71,71,71,71,71,71,71,71,71,71,71,
62,62,62,62,69,71,71,71,71,71,71,71,71,71,71,71,
71,71,71,71,71,71,71,71,71,71,71,71,71,71,71,71
</chunk>
   <chunk x="0" y="32" width="16" height="16">
71,71,71,71,71,71,71,71,71,71,71,71,71,71,71,71,
71,71,71,71,71,71,71,71,71,71,71,71,71,71,71,71,
71,71,71,71,71,71,71,71,71,71,71,71,71,71,71,71,
71,71,71,71,71,71,71,71,71,71,71,71,71,71,71,71,
71,71,71,71,71,71,71,71,71,71,71,71,71,71,71,71,
71,71,71,71,71,71,71,71,71,71,71,71,71,71,71,71,
71,71,71,71,71,71,71,71,71,71,71,71,71,71,71,71,
71,71,71,71,71,71,71,71,71,71,71,71,71,71,71,71,
71,71,71,71,71,71,71,71,71,71,71,71,71,71,71,71,
71,71,71,71,71,71,71,71,71,71,71,71,71,71,71,71,
71,71,71,71,71,71,71,71,71,71,71,71,71,71,71,71,
71,71,71,71,71,71,71,71,71,71,71,71,71,71,71,71,
71,71,71,71,71,71,71,71,71,71,71,71,71,71,71,71,
71,71,71,71,71,71,71,71,71,71,71,71,71,71,71,71,
71,71,71,71,71,71,71,71,71,71,71,71,71,71,71,71,
71,71,71,71,71,71,71,71,71,71,71,71,71,71,71,71
</chunk>
   <chunk x="16" y="32" width="16" height="16">
71,71,71,71,71,72,0,0,0,70,71,71,71,71,71,71,
71,71,71,71,71,72,0,0,0,70,71,71,71,71,71,71,
71,71,71,71,71,72,0,0,0,70,71,71,71,71,71,71,
71,71,71,71,71,72,0,0,0,70,71,71,59,80,80,80,
71,71,71,71,71,72,0,0,0,70,71,71,72,0,0,0,
71,71,71,71,71,72,0,0,0,70,71,71,72,0,0,0,
71,71,71,71,71,72,0,0,0,70,71,71,72,0,0,0,
71,71,71,71,71,72,0,0,0,79,80,80,81,0,0,0,
71,71,71,71,71,72,0,0,0,0,0,0,0,0,0,0,
71,71,71,71,71,72,0,0,0,0,0,0,0,0,0,0,
71,71,71,71,71,72,0,0,0,0,0,0,0,0,0,0,
71,71,71,71,71,72,0,0,0,0,0,0,0,0,0,0,
71,71,71,71,71,72,0,0,0,0,0,0,0,0,0,0,
71,71,71,71,71,68,62,62,62,62,62,62,63,25,25,25,
71,71,71,71,71,71,71,71,71,71,71,71,72,0,0,0,
71,71,71,71,71,71,71,71,71,71,71,71,72,0,0,0
</chunk>
   <chunk x="32" y="32" width="16" height="16">
71,71,71,71,71,71,71,71,71,71,71,71,71,71,71,71,
71,71,71,71,71,71,71,71,71,71,71,71,71,71,71,71,
71,71,71,71,71,71,71,71,71,71,71,71,71,71,71,71,
80,80,80,80,80,80,80,80,80,80,80,80,80,80,80,80,
0,0,0,0,0,0,0,0,0,0,0,0,0,0,0,0,
0,0,0,0,0,0,0,0,0,0,0,0,0,0,0,0,
0,0,0,0,0,0,0,0,0,0,0,0,0,0,0,0,
0,0,0,0,0,0,0,0,0,0,0,0,0,0,0,0,
0,0,0,0,0,0,0,0,0,0,0,0,0,0,0,0,
0,25,25,25,25,25,25,25,25,25,0,0,0,0,0,0,
0,0,0,0,0,0,0,0,0,0,0,0,0,0,0,0,
0,0,0,0,0,0,0,0,0,0,0,0,0,0,0,0,
0,0,0,0,0,0,0,0,0,0,0,0,0,0,0,0,
25,0,0,0,0,0,0,0,0,0,0,0,0,0,0,0,
0,0,0,0,0,0,0,0,0,0,0,0,0,0,0,0,
0,0,0,0,0,0,0,0,0,0,0,0,0,0,0,0
</chunk>
   <chunk x="48" y="32" width="16" height="16">
71,71,71,71,71,71,71,71,71,71,71,71,71,71,71,71,
71,71,71,71,71,71,71,71,71,71,71,71,71,71,71,71,
71,71,71,71,71,71,71,71,71,71,71,71,71,71,71,71,
80,80,80,60,71,71,71,71,71,71,71,71,71,71,71,71,
0,0,0,70,71,71,71,71,71,71,71,71,71,71,71,71,
0,0,0,70,71,71,71,71,71,71,71,71,71,71,71,71,
0,0,0,70,71,71,71,71,71,71,71,71,71,71,71,71,
0,0,0,79,80,80,80,80,80,80,80,80,80,80,80,80,
0,0,0,0,0,0,0,0,0,0,0,0,0,0,0,0,
0,0,0,0,0,0,0,0,0,0,0,0,0,0,0,0,
0,0,0,0,0,0,0,0,0,0,0,0,0,0,0,0,
0,0,0,0,0,0,0,0,0,0,0,0,0,0,0,0,
0,0,0,0,0,0,0,0,0,0,0,0,10,62,62,62,
0,0,0,0,0,0,0,0,0,0,0,10,69,71,71,71,
0,0,0,0,0,0,0,0,0,0,10,69,71,71,71,71,
0,0,0,0,0,0,0,0,0,10,69,71,71,71,71,71
</chunk>
   <chunk x="64" y="32" width="16" height="16">
71,71,71,71,71,71,71,71,71,71,71,71,71,71,71,71,
71,71,71,71,71,71,71,71,71,71,71,71,71,71,71,71,
71,71,71,71,59,80,80,80,80,80,80,80,80,80,80,80,
71,71,71,71,72,0,0,0,0,0,0,0,0,0,0,0,
71,71,71,71,72,0,0,0,0,0,0,0,0,0,0,0,
71,71,71,71,72,0,0,0,0,0,0,0,0,0,0,0,
71,71,71,71,72,0,0,0,0,0,0,0,0,0,0,0,
80,80,80,80,81,0,0,0,0,0,0,0,0,0,0,0,
0,0,0,0,0,0,0,0,0,0,0,0,0,0,0,0,
0,0,0,0,0,0,0,0,0,0,0,0,0,0,0,0,
0,0,0,0,0,0,0,0,0,0,0,0,0,0,0,0,
0,0,0,0,0,0,0,0,0,0,0,0,0,0,0,0,
62,62,62,62,63,0,0,0,0,0,0,0,0,0,0,0,
71,71,71,71,72,0,0,0,0,0,0,0,0,0,0,0,
71,71,71,71,72,0,0,0,0,0,0,0,0,0,0,0,
71,71,71,71,72,0,0,0,0,0,0,0,0,0,0,0
</chunk>
   <chunk x="80" y="32" width="16" height="16">
71,71,71,71,71,71,71,71,71,71,71,71,71,71,71,71,
71,71,71,71,71,71,71,71,71,71,71,71,71,71,71,71,
80,80,60,71,71,71,71,71,71,71,71,71,71,71,71,71,
0,0,70,71,71,71,71,71,71,71,71,71,71,71,71,71,
0,0,70,71,71,71,71,71,71,71,71,71,71,71,71,71,
0,0,70,71,71,71,71,71,71,71,71,71,71,71,71,71,
0,0,70,71,71,71,71,71,71,71,71,71,71,71,71,71,
0,0,70,71,71,71,71,71,71,71,71,71,71,71,71,71,
0,0,70,71,71,71,71,71,71,71,71,71,71,71,71,71,
0,0,70,71,71,71,71,71,71,71,71,71,71,71,71,71,
0,0,70,71,71,71,71,71,71,71,71,71,71,71,71,71,
0,0,79,80,80,80,80,80,80,80,80,60,71,71,71,71,
0,0,0,0,0,0,0,0,0,0,0,70,71,71,71,71,
0,0,0,0,0,0,0,0,0,0,0,70,71,71,71,71,
0,0,0,0,0,0,0,0,0,0,0,70,71,71,71,71,
0,0,0,0,0,0,0,0,0,0,0,70,71,71,71,71
</chunk>
   <chunk x="0" y="48" width="16" height="16">
71,71,71,71,71,71,71,71,71,71,71,71,71,71,71,71,
71,71,71,71,71,71,71,71,71,71,71,71,71,71,71,71,
71,71,71,71,71,71,71,71,71,71,71,71,71,71,71,71,
71,71,71,71,71,71,71,71,71,71,71,71,71,71,71,71,
71,71,71,71,71,71,71,71,71,71,71,71,71,71,71,71,
71,71,71,71,71,71,71,71,71,71,71,71,71,71,71,71,
71,71,71,71,71,71,71,71,71,71,71,71,71,71,71,71,
71,71,71,71,71,71,71,71,71,71,71,71,71,71,71,71,
71,71,71,71,71,71,71,71,71,71,71,71,71,71,71,71,
71,71,71,71,71,71,71,71,71,71,71,71,71,71,71,71,
71,71,71,71,71,71,71,71,71,71,71,71,71,71,71,71,
71,71,71,71,71,71,71,71,71,71,71,71,71,71,71,71,
71,71,71,71,71,71,71,71,71,71,71,71,71,71,71,71,
71,71,71,71,71,71,71,71,71,71,71,71,71,71,71,71,
71,71,71,71,71,71,71,71,71,71,71,71,71,71,71,71,
71,71,71,71,71,71,71,71,71,71,71,71,71,71,71,71
</chunk>
   <chunk x="16" y="48" width="16" height="16">
71,71,71,71,71,71,71,71,71,71,71,71,72,0,0,0,
71,71,71,71,71,71,71,71,71,71,71,71,72,0,0,0,
71,71,71,71,71,71,71,71,71,71,71,71,72,0,0,0,
71,71,71,71,71,71,71,71,71,71,71,71,72,0,0,0,
71,71,71,71,71,71,71,71,71,71,71,71,72,0,0,0,
71,71,71,71,71,71,71,71,71,71,71,71,72,0,0,0,
71,71,71,71,71,71,71,71,71,71,71,71,68,62,62,62,
71,71,71,71,71,71,71,71,71,71,71,71,71,71,71,71,
71,71,71,71,71,71,71,71,71,71,71,71,71,71,71,71,
71,71,59,80,80,80,80,80,80,80,80,80,80,80,80,80,
71,71,72,0,0,0,0,0,0,0,0,0,0,0,0,0,
71,71,72,0,0,0,0,0,0,0,0,0,0,0,0,0,
71,71,72,0,0,0,0,0,0,0,0,0,0,0,0,0,
71,71,72,0,0,0,0,0,0,0,0,0,0,0,0,0,
71,71,72,0,0,0,0,0,0,61,62,62,62,62,62,63,
71,71,72,0,0,0,0,0,0,70,71,71,71,71,71,72
</chunk>
   <chunk x="32" y="48" width="16" height="16">
0,0,0,0,0,0,0,0,0,0,0,0,0,0,0,0,
0,0,0,0,0,0,0,0,0,0,0,0,0,0,0,0,
0,0,0,0,0,0,0,0,0,0,0,0,0,0,0,0,
0,0,0,0,0,0,0,0,0,0,0,0,0,0,0,0,
0,0,0,0,0,0,0,0,0,0,0,0,0,0,0,0,
0,0,0,0,0,0,0,0,0,0,0,0,0,0,0,0,
62,62,62,62,62,62,62,62,62,62,62,62,62,62,62,62,
71,71,71,71,71,71,71,71,71,71,71,71,71,71,71,71,
71,71,71,71,71,71,71,71,71,71,71,71,71,71,71,71,
80,80,80,80,80,80,80,80,80,80,80,80,80,80,80,80,
0,0,0,0,0,0,0,0,0,0,0,0,0,0,0,0,
0,0,0,0,0,0,0,0,0,0,0,0,0,0,0,0,
0,0,0,0,0,0,0,0,0,0,0,0,0,0,0,0,
0,0,0,0,0,0,0,0,0,0,0,0,0,0,0,0,
0,0,0,0,0,0,0,0,0,0,0,0,0,0,0,0,
0,0,0,0,0,0,0,0,0,0,0,0,0,0,0,0
</chunk>
   <chunk x="48" y="48" width="16" height="16">
0,0,0,0,0,0,0,0,10,69,71,71,71,71,71,71,
0,0,0,0,0,0,0,10,69,71,71,71,71,71,71,71,
0,0,0,0,0,0,10,69,71,71,71,71,71,71,71,71,
0,0,0,0,0,10,69,71,71,71,71,71,71,71,71,71,
0,0,0,0,10,69,71,71,71,71,71,71,71,71,71,71,
0,0,0,10,69,71,71,71,71,71,71,71,71,71,71,71,
62,62,62,69,71,71,71,71,71,71,71,71,71,71,71,71,
71,71,71,71,71,71,71,71,71,71,71,71,71,71,71,71,
71,71,71,71,71,71,71,71,71,71,71,71,71,71,71,71,
80,80,80,80,80,80,80,80,80,80,80,80,80,80,80,80,
0,0,0,0,0,0,0,0,0,0,0,0,0,0,0,0,
0,0,0,0,0,0,0,0,0,0,0,0,0,0,0,0,
0,0,0,0,0,0,0,0,0,0,0,0,0,0,0,0,
0,0,0,0,0,0,0,0,0,0,0,0,0,0,0,0,
0,0,0,0,61,62,62,62,62,62,63,0,0,61,62,62,
0,0,0,0,70,71,71,71,71,71,72,0,0,70,71,71
</chunk>
   <chunk x="64" y="48" width="16" height="16">
71,71,71,71,72,0,0,0,0,0,0,0,0,0,0,0,
71,71,71,71,68,62,62,62,62,62,62,62,62,62,62,62,
71,71,71,71,71,71,71,71,71,71,71,71,71,71,71,71,
71,71,71,71,71,71,71,71,71,71,71,71,71,71,71,71,
71,71,71,71,71,71,71,71,71,71,71,71,71,71,71,71,
71,71,71,71,71,71,71,71,71,71,71,71,71,71,71,71,
71,71,71,71,71,71,71,71,71,71,71,71,71,71,71,71,
71,71,71,71,71,71,71,71,71,71,71,71,71,71,71,71,
71,71,71,71,71,71,71,71,71,71,71,71,71,71,71,71,
80,80,80,80,80,80,80,80,80,60,71,71,71,71,71,71,
0,0,0,0,0,0,0,0,0,70,71,71,71,71,71,71,
0,0,0,0,0,0,0,0,0,70,71,71,71,71,71,71,
0,0,0,0,0,0,0,0,0,70,71,71,71,71,71,71,
0,0,0,0,0,0,0,0,0,70,71,71,71,71,71,71,
62,62,62,62,62,62,62,62,62,69,71,71,71,71,71,71,
71,71,71,71,71,71,71,71,71,71,71,71,71,71,71,71
</chunk>
   <chunk x="80" y="48" width="16" height="16">
0,0,0,0,0,0,0,0,0,0,0,70,71,71,71,71,
62,62,62,62,62,62,62,62,63,0,0,70,71,71,71,71,
71,71,71,71,71,71,71,71,72,0,0,70,71,71,71,71,
71,71,71,71,71,71,71,71,72,0,0,70,71,71,71,71,
71,71,71,71,71,71,71,71,72,0,0,70,71,71,71,71,
71,71,71,71,71,71,71,71,72,0,0,70,71,71,71,71,
71,71,71,71,71,71,71,71,72,0,0,70,71,71,71,71,
71,71,71,59,80,80,80,80,81,0,0,70,71,71,71,71,
71,71,71,72,0,0,0,0,0,0,0,70,71,71,71,71,
71,71,71,72,0,0,0,0,0,0,0,70,71,71,71,71,
71,71,71,72,0,0,0,0,0,0,0,70,71,71,71,71,
71,71,71,72,0,0,0,0,0,0,0,70,71,71,71,71,
71,71,71,72,0,0,0,0,0,0,0,70,71,71,71,71,
71,71,71,68,62,62,62,62,63,0,0,70,71,71,71,71,
71,71,71,71,71,71,71,71,72,0,0,70,71,71,71,71,
71,71,71,71,71,71,71,71,72,0,0,70,71,71,71,71
</chunk>
   <chunk x="0" y="64" width="16" height="16">
71,71,71,71,71,71,71,71,71,71,71,71,71,71,71,71,
71,71,71,71,71,71,71,71,71,71,71,71,71,71,71,71,
71,71,71,71,71,71,71,59,80,80,80,80,80,80,80,80,
71,71,71,71,71,71,71,72,0,0,0,0,0,0,0,0,
71,71,71,71,71,71,71,72,0,0,0,0,0,0,0,0,
71,71,71,71,71,71,71,72,0,0,0,0,0,0,0,0,
71,71,71,71,71,71,71,72,0,0,0,0,0,0,0,0,
71,71,71,71,71,71,71,72,0,0,0,61,62,62,62,62,
71,71,71,71,71,71,71,72,0,0,0,70,71,71,71,71,
71,71,71,71,71,71,71,72,0,0,0,70,71,71,71,71,
71,71,71,71,71,71,71,72,0,0,0,70,71,71,71,71,
71,71,71,71,71,71,71,72,0,0,0,70,71,71,71,71,
71,71,71,71,71,71,71,68,62,62,62,69,71,71,71,71,
71,71,71,71,71,71,71,71,71,71,71,71,71,71,71,71,
71,71,71,71,71,71,71,71,71,71,71,71,71,71,71,71,
71,71,71,71,71,71,71,71,71,71,71,71,71,71,71,71
</chunk>
   <chunk x="16" y="64" width="16" height="16">
71,71,72,0,0,0,0,0,0,70,71,71,71,71,71,72,
71,71,72,0,0,0,0,0,0,70,71,71,71,71,71,72,
80,80,81,0,0,0,0,0,0,79,80,80,80,80,80,81,
0,0,0,0,0,0,0,0,0,0,0,0,0,0,0,0,
0,0,0,0,0,0,0,0,0,0,0,0,0,0,0,0,
0,0,0,0,0,0,0,0,0,0,0,0,0,0,0,0,
0,0,0,0,0,0,0,0,0,0,0,0,0,0,0,0,
62,62,63,25,25,25,25,25,25,25,25,25,25,25,25,0,
71,71,72,0,0,0,0,0,0,0,0,0,0,0,0,0,
71,71,72,0,0,0,0,0,0,0,0,0,0,0,0,0,
71,71,72,0,0,0,0,0,0,0,0,0,0,0,0,0,
71,71,72,0,0,0,0,0,0,0,0,0,0,0,0,0,
71,71,68,62,62,63,0,0,0,0,0,0,0,0,0,0,
71,71,71,71,71,72,0,0,0,0,0,0,0,0,0,0,
71,71,71,71,71,72,0,0,0,0,0,0,0,0,0,0,
71,71,71,71,71,72,0,0,0,0,0,0,0,0,0,0
</chunk>
   <chunk x="32" y="64" width="16" height="16">
0,0,0,0,0,0,0,0,0,0,0,0,0,0,0,0,
0,0,0,0,0,0,0,0,0,0,0,0,0,0,0,0,
0,0,0,0,0,0,0,0,0,0,0,0,0,0,0,0,
0,0,0,0,0,0,0,0,0,0,0,61,62,62,62,62,
0,0,0,0,0,0,0,0,0,0,0,70,71,71,71,71,
0,0,0,0,0,0,0,0,0,0,0,70,71,71,71,71,
0,0,0,0,0,0,0,0,0,0,0,70,71,71,71,71,
0,0,0,0,0,0,0,0,0,0,0,70,71,71,71,71,
0,0,0,0,0,0,0,0,0,0,0,70,71,71,71,71,
0,0,0,0,0,0,0,0,0,0,0,70,71,71,71,71,
0,0,0,0,0,0,0,0,0,0,0,70,71,71,71,71,
0,0,0,0,0,0,0,0,0,0,0,70,71,71,71,71,
0,0,0,0,0,0,0,0,0,0,0,70,71,71,71,71,
0,0,0,0,0,0,0,0,0,0,0,79,80,80,80,80,
0,0,0,0,0,0,0,0,0,0,0,0,0,0,0,0,
0,0,0,0,0,0,0,0,0,0,0,0,0,0,0,0
</chunk>
   <chunk x="48" y="64" width="16" height="16">
0,0,0,0,70,71,71,71,71,71,72,0,0,70,71,71,
0,0,0,0,70,71,71,71,71,71,72,0,0,70,71,71,
0,0,0,0,70,71,71,71,71,71,72,0,0,70,71,71,
62,63,0,0,70,71,71,71,71,71,72,0,0,70,71,71,
71,72,0,0,70,71,71,71,71,71,72,0,0,70,71,71,
71,72,0,0,70,71,71,71,71,71,72,0,0,70,71,71,
71,72,0,0,70,71,71,71,71,71,72,0,0,70,71,71,
71,72,0,0,70,71,71,71,71,71,72,0,0,70,71,71,
71,72,0,0,70,71,71,71,71,71,72,0,0,79,80,80,
71,72,0,0,70,71,71,71,71,71,72,0,0,0,0,0,
71,72,0,0,70,71,71,71,71,71,72,0,0,0,0,0,
71,72,0,0,70,71,71,71,71,71,72,0,0,0,0,0,
71,72,0,0,70,71,71,71,71,71,72,0,0,0,0,0,
80,81,0,0,70,71,71,71,71,71,72,0,0,0,0,0,
0,0,0,0,70,71,71,71,71,71,72,0,0,0,0,0,
0,0,0,0,70,71,71,71,71,71,72,0,0,0,0,0
</chunk>
   <chunk x="64" y="64" width="16" height="16">
71,71,71,71,71,71,71,71,71,71,71,71,71,71,71,71,
71,71,71,71,71,71,71,71,71,71,71,71,71,71,71,71,
71,71,71,71,71,71,71,71,71,71,71,71,71,71,71,71,
71,71,71,71,71,71,71,71,71,71,71,71,71,71,71,71,
71,71,71,71,71,71,71,71,71,71,71,71,71,71,71,71,
71,71,71,71,59,80,80,80,80,80,80,80,80,80,80,80,
71,71,71,59,18,0,0,0,0,0,0,0,0,0,0,0,
71,71,59,18,0,0,0,0,0,0,0,0,0,0,0,0,
80,80,18,0,0,0,0,0,0,0,0,0,0,0,0,0,
0,0,0,0,0,0,0,0,0,0,0,0,0,0,0,0,
0,0,0,0,0,0,0,0,0,0,0,0,0,0,0,0,
0,0,0,0,0,0,0,0,0,0,0,0,0,0,0,0,
0,0,0,0,0,0,0,0,0,0,0,0,0,0,0,0,
0,0,0,0,0,0,0,0,0,0,0,0,0,0,0,0,
0,0,0,0,0,0,0,0,0,0,0,0,0,0,0,0,
0,0,0,0,0,0,0,0,0,0,0,0,0,0,0,0
</chunk>
   <chunk x="80" y="64" width="16" height="16">
71,71,71,71,71,71,71,71,72,0,0,70,71,71,71,71,
71,71,71,71,71,71,71,71,72,0,0,70,71,71,71,71,
71,71,71,71,71,71,71,71,72,0,0,70,71,71,71,71,
71,71,71,71,71,71,71,71,72,0,0,70,71,71,71,71,
71,71,71,71,71,71,71,71,72,0,0,70,71,71,71,71,
80,80,80,80,80,60,71,71,72,0,0,70,71,71,71,71,
0,0,0,0,0,70,71,71,72,0,0,70,71,71,71,71,
0,0,0,0,0,70,71,71,72,0,0,70,71,71,71,71,
0,0,0,0,0,70,71,71,72,0,0,70,71,71,71,71,
0,0,0,0,0,70,71,71,72,0,0,70,71,71,71,71,
0,0,0,0,0,70,71,71,72,0,0,70,71,71,71,71,
0,0,0,0,0,70,71,71,72,0,0,70,71,71,71,71,
0,0,0,0,0,70,71,71,72,0,0,70,71,71,71,71,
0,0,0,0,0,79,80,80,81,0,0,70,71,71,71,71,
0,0,0,0,0,0,0,0,0,0,0,70,71,71,71,71,
0,0,0,0,0,0,0,0,0,0,0,70,71,71,71,71
</chunk>
   <chunk x="0" y="80" width="16" height="16">
71,71,71,71,71,71,71,71,71,71,71,71,71,71,71,71,
71,71,71,71,71,71,71,71,71,71,71,71,71,71,71,71,
71,71,71,71,71,71,71,71,71,71,71,71,71,71,71,71,
71,71,71,71,71,71,71,71,71,71,71,71,71,71,71,71,
71,71,71,71,71,71,71,71,71,71,71,71,71,71,71,71,
71,71,71,71,71,71,71,71,71,71,71,71,71,71,71,71,
71,71,71,71,71,71,71,71,71,71,71,71,71,71,71,71,
71,71,71,71,71,71,71,71,71,71,71,71,71,71,71,71,
71,71,71,71,71,71,71,71,71,71,71,71,71,71,71,71,
71,71,71,71,71,71,71,71,71,71,71,71,71,71,71,71,
71,71,71,71,71,71,71,71,71,71,71,71,71,71,71,71,
71,71,71,71,71,71,71,71,71,71,71,71,71,71,71,71,
71,71,71,71,71,71,71,71,71,71,71,71,71,71,71,71,
71,71,71,71,71,71,71,71,71,71,71,71,71,71,71,71,
71,71,71,71,71,71,71,71,71,71,71,71,71,71,71,71,
71,71,71,71,71,71,71,71,71,71,71,71,71,71,71,71
</chunk>
   <chunk x="16" y="80" width="16" height="16">
71,71,71,71,71,72,0,0,0,0,0,0,0,0,0,25,
71,71,71,71,71,72,0,0,0,0,0,0,0,0,0,0,
71,71,71,71,71,72,0,0,0,0,0,0,0,0,0,0,
59,80,80,80,80,81,0,0,0,0,0,0,0,0,0,0,
72,0,0,0,0,0,0,0,0,0,0,0,0,0,0,0,
72,0,0,0,0,0,0,0,0,0,0,0,0,0,0,0,
72,0,0,0,0,0,0,0,0,0,0,0,0,0,0,0,
72,0,0,0,0,0,0,0,0,0,0,0,0,0,0,0,
72,0,0,0,0,0,0,0,0,0,0,0,0,0,0,0,
72,0,0,0,0,0,0,0,0,0,0,0,0,0,0,0,
68,62,62,62,62,62,62,62,62,62,62,62,62,62,62,62,
71,71,71,71,71,71,71,71,71,71,71,71,71,71,71,71,
71,71,71,71,71,71,71,71,71,71,71,71,71,71,71,71,
71,71,71,71,71,71,71,71,71,71,71,71,71,71,71,71,
71,71,71,71,71,71,71,71,71,71,71,71,71,71,71,71,
71,71,71,71,71,71,71,71,71,71,71,71,71,71,71,71
</chunk>
   <chunk x="32" y="80" width="16" height="16">
25,25,25,0,0,0,0,0,0,0,0,0,0,0,0,0,
0,0,0,0,0,0,0,0,0,0,0,0,0,0,0,0,
0,0,0,0,0,0,0,0,0,0,0,0,0,0,0,0,
0,0,0,0,0,0,0,0,0,0,0,0,0,0,0,0,
0,0,0,0,0,0,0,0,0,0,0,0,0,0,0,0,
0,0,0,0,0,0,0,0,0,0,0,0,0,0,0,0,
0,0,0,0,0,0,0,0,0,0,0,0,0,0,0,0,
0,0,0,0,0,0,0,0,0,0,0,0,0,0,0,0,
0,0,0,0,0,0,0,0,0,0,0,0,0,0,0,0,
0,0,0,0,0,0,0,0,0,0,0,0,0,0,0,0,
62,62,62,62,62,62,62,62,62,62,62,62,62,62,62,62,
71,71,71,71,71,71,71,71,71,71,71,71,71,71,71,71,
71,71,71,71,71,71,71,71,71,71,71,71,71,71,71,71,
71,71,71,71,71,71,71,71,71,71,71,71,71,71,71,71,
71,71,71,71,71,71,71,71,71,71,71,71,71,71,71,71,
71,71,71,71,71,71,71,71,71,71,71,71,71,71,71,71
</chunk>
   <chunk x="48" y="80" width="16" height="16">
0,0,0,0,70,71,71,71,71,71,72,0,0,0,0,0,
0,0,0,0,70,71,71,71,71,71,68,62,62,62,63,0,
0,0,0,0,70,71,71,71,71,71,71,71,71,71,72,0,
0,0,0,0,70,71,71,71,71,71,71,71,71,71,72,0,
0,0,0,0,70,71,71,71,71,71,71,71,71,71,72,0,
0,0,0,0,70,71,71,71,71,71,71,71,71,71,72,0,
0,0,0,0,70,71,71,71,71,71,71,71,71,71,72,0,
0,0,0,0,70,71,71,71,71,71,71,71,71,71,68,62,
0,0,0,0,70,71,71,71,71,71,71,71,71,71,71,71,
0,0,0,0,70,71,71,71,71,71,71,71,71,71,71,71,
62,62,62,62,69,71,71,71,71,71,71,71,71,71,71,71,
71,71,71,71,71,71,71,71,71,71,71,71,71,71,71,71,
71,71,71,71,71,71,71,71,71,71,71,71,71,71,71,71,
71,71,71,71,71,71,71,71,71,71,71,71,71,71,71,71,
71,71,71,71,71,71,71,71,71,71,71,71,71,71,71,71,
71,71,71,71,71,71,71,71,71,71,71,71,71,71,71,71
</chunk>
   <chunk x="64" y="80" width="16" height="16">
0,0,0,0,0,0,0,0,0,0,0,0,0,0,0,0,
0,0,0,0,0,0,0,0,0,0,0,0,0,0,0,0,
0,0,0,0,0,0,0,0,0,0,0,0,0,0,0,0,
0,0,0,0,0,0,0,0,0,0,0,0,0,0,0,0,
0,0,0,0,0,0,0,0,0,0,0,0,0,0,0,0,
0,0,0,0,0,0,0,0,0,0,0,0,0,0,0,0,
0,0,0,0,0,0,0,0,0,0,0,0,0,0,0,0,
62,62,62,62,62,62,62,62,62,62,62,62,62,62,62,62,
71,71,71,71,71,71,71,71,71,71,71,71,71,71,71,71,
71,71,71,71,71,71,71,71,71,71,71,71,71,71,71,71,
71,71,71,71,71,71,71,71,71,71,71,71,71,71,71,71,
71,71,71,71,71,71,71,71,71,71,71,71,71,71,71,71,
71,71,71,71,71,71,71,71,71,71,71,71,71,71,71,71,
71,71,71,71,71,71,71,71,71,71,71,71,71,71,71,71,
71,71,71,71,71,71,71,71,71,71,71,71,71,71,71,71,
71,71,71,71,71,71,71,71,71,71,71,71,71,71,71,71
</chunk>
   <chunk x="80" y="80" width="16" height="16">
0,0,0,0,0,0,0,0,0,0,0,70,71,71,71,71,
0,0,0,0,0,0,0,0,0,0,0,70,71,71,71,71,
0,0,0,0,0,0,0,0,0,0,0,70,71,71,71,71,
0,0,0,0,0,0,0,0,0,0,0,70,71,71,71,71,
0,0,0,0,0,0,0,0,0,0,0,70,71,71,71,71,
0,0,10,62,62,62,62,62,62,62,62,69,71,71,71,71,
0,10,69,71,71,71,71,71,71,71,71,71,71,71,71,71,
62,69,71,71,71,71,71,71,71,71,71,71,71,71,71,71,
71,71,71,71,71,71,71,71,71,71,71,71,71,71,71,71,
71,71,71,71,71,71,71,71,71,71,71,71,71,71,71,71,
71,71,71,71,71,71,71,71,71,71,71,71,71,71,71,71,
71,71,71,71,71,71,71,71,71,71,71,71,71,71,71,71,
71,71,71,71,71,71,71,71,71,71,71,71,71,71,71,71,
71,71,71,71,71,71,71,71,71,71,71,71,71,71,71,71,
71,71,71,71,71,71,71,71,71,71,71,71,71,71,71,71,
71,71,71,71,71,71,71,71,71,71,71,71,71,71,71,71
</chunk>
  </data>
 </layer>
 <objectgroup id="3" name="general" visible="0">
  <object id="172" class="spiralDoor" x="976" y="448" width="16" height="32">
   <properties>
    <property name="startActive" type="bool" value="true"/>
    <property name="teleportTarget" value=""/>
   </properties>
  </object>
  <object id="180" class="blockade" x="656" y="576" width="16" height="80">
   <properties>
    <property name="ballistaVunerable" type="bool" value="false"/>
    <property name="skin" type="int" value="0"/>
    <property name="type" type="int" value="0"/>
   </properties>
  </object>
  <object id="189" class="ladder" x="1432" y="768" width="16" height="592">
   <properties>
    <property name="draw" type="bool" value="true"/>
    <property name="skin" type="int" value="0"/>
    <property name="startActive" type="bool" value="true"/>
   </properties>
  </object>
  <object id="190" class="sinkpit" x="1008" y="1392" width="288" height="16">
   <properties>
    <property name="count" type="int" value="2"/>
    <property name="draw" type="bool" value="true"/>
    <property name="maxAttacking" type="int" value="1"/>
    <property name="skin" type="int" value="0"/>
   </properties>
  </object>
  <object id="191" class="ladder" x="952" y="976" width="16" height="320">
   <properties>
    <property name="draw" type="bool" value="true"/>
    <property name="skin" type="int" value="0"/>
    <property name="startActive" type="bool" value="true"/>
   </properties>
  </object>
  <object id="194" name="catalyst1" class="catalyst" x="1346" y="1352" width="28" height="8">
   <properties>
    <property name="boostMult" type="float" value="1"/>
    <property name="charged" type="bool" value="true"/>
    <property name="draw" type="bool" value="true"/>
    <property name="startActive" type="bool" value="true"/>
   </properties>
  </object>
  <object id="196" name="trig_blockBoosts" class="trigger" x="1424" y="1056" width="32" height="48">
   <properties>
    <property name="corpses" type="bool" value="false"/>
    <property name="npcs" type="bool" value="false"/>
    <property name="once" type="bool" value="false"/>
    <property name="player" type="bool" value="true"/>
    <property name="startActive" type="bool" value="true"/>
   </properties>
  </object>
  <object id="197" name="trig_letBoosts" class="trigger" x="1424" y="1008" width="32" height="48">
   <properties>
    <property name="corpses" type="bool" value="false"/>
    <property name="npcs" type="bool" value="false"/>
    <property name="once" type="bool" value="false"/>
    <property name="player" type="bool" value="true"/>
    <property name="startActive" type="bool" value="true"/>
   </properties>
  </object>
  <object id="204" name="catalyst2" class="catalyst" x="562" y="1432" width="28" height="8">
   <properties>
    <property name="boostMult" type="float" value="1.5"/>
    <property name="charged" type="bool" value="true"/>
    <property name="draw" type="bool" value="true"/>
    <property name="startActive" type="bool" value="true"/>
   </properties>
  </object>
  <object id="207" class="ladder" x="808" y="1056" width="16" height="384">
   <properties>
    <property name="draw" type="bool" value="true"/>
    <property name="skin" type="int" value="0"/>
    <property name="startActive" type="bool" value="true"/>
   </properties>
  </object>
  <object id="217" class="reverb" x="222" y="891" width="671" height="671">
   <properties>
    <property name="minRadius" type="float" value="10"/>
    <property name="reverbType" type="int" value="0"/>
    <property name="wetness" type="float" value="8"/>
   </properties>
   <ellipse/>
  </object>
  <object id="218" class="reverb" x="311" y="170" width="354" height="354">
   <properties>
    <property name="minRadius" type="float" value="5"/>
    <property name="reverbType" type="int" value="2"/>
    <property name="wetness" type="float" value="4"/>
   </properties>
   <ellipse/>
  </object>
  <object id="219" class="reverb" x="479" y="509" width="395" height="395">
   <properties>
    <property name="minRadius" type="float" value="5"/>
    <property name="reverbType" type="int" value="2"/>
    <property name="wetness" type="float" value="4"/>
   </properties>
   <ellipse/>
  </object>
  <object id="220" class="reverb" x="997" y="1046" width="395" height="395">
   <properties>
    <property name="minRadius" type="float" value="5"/>
    <property name="reverbType" type="int" value="2"/>
    <property name="wetness" type="float" value="4"/>
   </properties>
   <ellipse/>
  </object>
  <object id="221" name="trans_start" class="transition" x="1040" y="48" width="48" height="16">
   <properties>
    <property name="endTarget" value=""/>
    <property name="start" type="bool" value="true"/>
    <property name="targetLevel" type="int" value="0"/>
   </properties>
  </object>
  <object id="222" class="transition" x="128" y="1200" width="48" height="16">
   <properties>
    <property name="endTarget" value="trans_start"/>
    <property name="start" type="bool" value="false"/>
    <property name="targetLevel" type="int" value="9"/>
   </properties>
  </object>
  <object id="223" name="trig_dia" class="trigger" x="928" y="416" width="32" height="64">
   <properties>
    <property name="corpses" type="bool" value="false"/>
    <property name="npcs" type="bool" value="false"/>
    <property name="once" type="bool" value="true"/>
    <property name="player" type="bool" value="true"/>
    <property name="startActive" type="bool" value="true"/>
   </properties>
  </object>
 </objectgroup>
 <objectgroup color="#ff8284" id="7" name="npcs">
  <object id="174" class="npc" x="572" y="288">
   <properties>
    <property name="id" type="int" value="12"/>
    <property name="noticeDist" type="int" value="300"/>
    <property name="perma" type="bool" value="false"/>
    <property name="phantom" type="int" value="0"/>
    <property name="wanderDist" type="int" value="0"/>
   </properties>
   <point/>
  </object>
  <object id="175" class="npc" x="400" y="320">
   <properties>
    <property name="id" type="int" value="12"/>
    <property name="noticeDist" type="int" value="300"/>
    <property name="perma" type="bool" value="false"/>
    <property name="phantom" type="int" value="0"/>
    <property name="wanderDist" type="int" value="0"/>
   </properties>
   <point/>
  </object>
  <object id="208" class="npc" x="448" y="960">
   <properties>
    <property name="id" type="int" value="12"/>
    <property name="noticeDist" type="int" value="300"/>
    <property name="perma" type="bool" value="false"/>
    <property name="phantom" type="int" value="0"/>
    <property name="wanderDist" type="int" value="0"/>
   </properties>
   <point/>
  </object>
  <object id="209" class="npc" x="464" y="1104">
   <properties>
    <property name="id" type="int" value="12"/>
    <property name="noticeDist" type="int" value="300"/>
    <property name="perma" type="bool" value="false"/>
    <property name="phantom" type="int" value="0"/>
    <property name="wanderDist" type="int" value="0"/>
   </properties>
   <point/>
  </object>
  <object id="211" class="npc" x="384" y="1104">
   <properties>
    <property name="id" type="int" value="12"/>
    <property name="noticeDist" type="int" value="300"/>
    <property name="perma" type="bool" value="false"/>
    <property name="phantom" type="int" value="0"/>
    <property name="wanderDist" type="int" value="0"/>
   </properties>
   <point/>
  </object>
  <object id="212" class="npc" x="464" y="1312">
   <properties>
    <property name="foreground" type="bool" value="false"/>
    <property name="id" type="int" value="13"/>
    <property name="noticeDist" type="int" value="300"/>
    <property name="perma" type="bool" value="false"/>
    <property name="phantom" type="int" value="0"/>
    <property name="wanderDist" type="int" value="0"/>
   </properties>
   <point/>
  </object>
  <object id="213" class="npc" x="544" y="832">
   <properties>
    <property name="id" type="int" value="12"/>
    <property name="noticeDist" type="int" value="300"/>
    <property name="perma" type="bool" value="false"/>
    <property name="phantom" type="int" value="0"/>
    <property name="wanderDist" type="int" value="0"/>
   </properties>
   <point/>
  </object>
  <object id="214" class="npc" x="496" y="832">
   <properties>
    <property name="id" type="int" value="12"/>
    <property name="noticeDist" type="int" value="300"/>
    <property name="perma" type="bool" value="false"/>
    <property name="phantom" type="int" value="0"/>
    <property name="wanderDist" type="int" value="0"/>
   </properties>
   <point/>
  </object>
  <object id="215" class="npc" x="752" y="816">
   <properties>
    <property name="id" type="int" value="1"/>
    <property name="noticeDist" type="int" value="300"/>
    <property name="perma" type="bool" value="false"/>
    <property name="phantom" type="int" value="0"/>
    <property name="wanderDist" type="int" value="0"/>
   </properties>
   <point/>
  </object>
 </objectgroup>
 <objectgroup color="#fffa61" id="8" name="lights">
  <object id="151" class="light" x="1064" y="368">
   <properties>
    <property name="angle" type="float" value="270"/>
    <property name="brightness" type="float" value="3"/>
    <property name="color" type="color" value="#ffffd69c"/>
    <property name="dirRadius" type="float" value="80"/>
    <property name="directional" type="bool" value="false"/>
    <property name="falloff" type="float" value="2"/>
    <property name="radius" type="float" value="1.75"/>
    <property name="shadows" type="bool" value="false"/>
    <property name="startActive" type="bool" value="true"/>
   </properties>
   <point/>
  </object>
  <object id="152" class="light" x="1264" y="416">
   <properties>
    <property name="angle" type="float" value="270"/>
    <property name="brightness" type="float" value="2"/>
    <property name="color" type="color" value="#ffff816b"/>
    <property name="dirRadius" type="float" value="80"/>
    <property name="directional" type="bool" value="false"/>
    <property name="falloff" type="float" value="2"/>
    <property name="radius" type="float" value="3"/>
    <property name="shadows" type="bool" value="false"/>
    <property name="startActive" type="bool" value="true"/>
   </properties>
   <point/>
  </object>
  <object id="153" class="light" x="816" y="432">
   <properties>
    <property name="angle" type="float" value="270"/>
    <property name="brightness" type="float" value="2"/>
    <property name="color" type="color" value="#ffffa667"/>
    <property name="dirRadius" type="float" value="80"/>
    <property name="directional" type="bool" value="false"/>
    <property name="falloff" type="float" value="2"/>
    <property name="radius" type="float" value="3"/>
    <property name="shadows" type="bool" value="false"/>
    <property name="startActive" type="bool" value="true"/>
   </properties>
   <point/>
  </object>
  <object id="154" class="light" x="496" y="352">
   <properties>
    <property name="angle" type="float" value="270"/>
    <property name="brightness" type="float" value="3"/>
    <property name="color" type="color" value="#ffffd69c"/>
    <property name="dirRadius" type="float" value="80"/>
    <property name="directional" type="bool" value="false"/>
    <property name="falloff" type="float" value="2"/>
    <property name="radius" type="float" value="1.75"/>
    <property name="shadows" type="bool" value="false"/>
    <property name="startActive" type="bool" value="true"/>
   </properties>
   <point/>
  </object>
  <object id="155" class="light" x="376" y="608">
   <properties>
    <property name="angle" type="float" value="270"/>
    <property name="brightness" type="float" value="3"/>
    <property name="color" type="color" value="#ffff816b"/>
    <property name="dirRadius" type="float" value="80"/>
    <property name="directional" type="bool" value="false"/>
    <property name="falloff" type="float" value="2"/>
    <property name="radius" type="float" value="5"/>
    <property name="shadows" type="bool" value="false"/>
    <property name="startActive" type="bool" value="true"/>
   </properties>
   <point/>
  </object>
  <object id="156" class="light" x="656" y="720">
   <properties>
    <property name="angle" type="float" value="270"/>
    <property name="brightness" type="float" value="3"/>
    <property name="color" type="color" value="#ffffd69c"/>
    <property name="dirRadius" type="float" value="80"/>
    <property name="directional" type="bool" value="false"/>
    <property name="falloff" type="float" value="2"/>
    <property name="radius" type="float" value="1.25"/>
    <property name="shadows" type="bool" value="false"/>
    <property name="startActive" type="bool" value="true"/>
   </properties>
   <point/>
  </object>
  <object id="157" class="light" x="912" y="672">
   <properties>
    <property name="angle" type="float" value="270"/>
    <property name="brightness" type="float" value="2"/>
    <property name="color" type="color" value="#ffffa667"/>
    <property name="dirRadius" type="float" value="80"/>
    <property name="directional" type="bool" value="false"/>
    <property name="falloff" type="float" value="2"/>
    <property name="radius" type="float" value="3"/>
    <property name="shadows" type="bool" value="false"/>
    <property name="startActive" type="bool" value="true"/>
   </properties>
   <point/>
  </object>
  <object id="158" class="light" x="1208" y="640">
   <properties>
    <property name="angle" type="float" value="270"/>
    <property name="brightness" type="float" value="2"/>
    <property name="color" type="color" value="#ffffd69c"/>
    <property name="dirRadius" type="float" value="80"/>
    <property name="directional" type="bool" value="false"/>
    <property name="falloff" type="float" value="2"/>
    <property name="radius" type="float" value="2"/>
    <property name="shadows" type="bool" value="false"/>
    <property name="startActive" type="bool" value="true"/>
   </properties>
   <point/>
  </object>
  <object id="159" class="light" x="1392" y="720">
   <properties>
    <property name="angle" type="float" value="270"/>
    <property name="brightness" type="float" value="2"/>
    <property name="color" type="color" value="#ffffa667"/>
    <property name="dirRadius" type="float" value="80"/>
    <property name="directional" type="bool" value="false"/>
    <property name="falloff" type="float" value="2"/>
    <property name="radius" type="float" value="3"/>
    <property name="shadows" type="bool" value="false"/>
    <property name="startActive" type="bool" value="true"/>
   </properties>
   <point/>
  </object>
  <object id="160" class="light" x="1408" y="928">
   <properties>
    <property name="angle" type="float" value="270"/>
    <property name="brightness" type="float" value="3"/>
    <property name="color" type="color" value="#ffff816b"/>
    <property name="dirRadius" type="float" value="80"/>
    <property name="directional" type="bool" value="false"/>
    <property name="falloff" type="float" value="2"/>
    <property name="radius" type="float" value="5"/>
    <property name="shadows" type="bool" value="false"/>
    <property name="startActive" type="bool" value="true"/>
   </properties>
   <point/>
  </object>
  <object id="161" class="light" x="1440" y="1184">
   <properties>
    <property name="angle" type="float" value="270"/>
    <property name="brightness" type="float" value="3"/>
    <property name="color" type="color" value="#ffff816b"/>
    <property name="dirRadius" type="float" value="80"/>
    <property name="directional" type="bool" value="false"/>
    <property name="falloff" type="float" value="2"/>
    <property name="radius" type="float" value="5"/>
    <property name="shadows" type="bool" value="false"/>
    <property name="startActive" type="bool" value="true"/>
   </properties>
   <point/>
  </object>
  <object id="162" class="light" x="1216" y="1232">
   <properties>
    <property name="angle" type="float" value="270"/>
    <property name="brightness" type="float" value="3"/>
    <property name="color" type="color" value="#ffffd69c"/>
    <property name="dirRadius" type="float" value="80"/>
    <property name="directional" type="bool" value="false"/>
    <property name="falloff" type="float" value="2"/>
    <property name="radius" type="float" value="1.25"/>
    <property name="shadows" type="bool" value="false"/>
    <property name="startActive" type="bool" value="true"/>
   </properties>
   <point/>
  </object>
  <object id="163" class="light" x="976" y="1216">
   <properties>
    <property name="angle" type="float" value="270"/>
    <property name="brightness" type="float" value="2"/>
    <property name="color" type="color" value="#ffffa667"/>
    <property name="dirRadius" type="float" value="80"/>
    <property name="directional" type="bool" value="false"/>
    <property name="falloff" type="float" value="2"/>
    <property name="radius" type="float" value="3"/>
    <property name="shadows" type="bool" value="false"/>
    <property name="startActive" type="bool" value="true"/>
   </properties>
   <point/>
  </object>
  <object id="164" class="light" x="1072" y="944">
   <properties>
    <property name="angle" type="float" value="270"/>
    <property name="brightness" type="float" value="2"/>
    <property name="color" type="color" value="#ffffa667"/>
    <property name="dirRadius" type="float" value="80"/>
    <property name="directional" type="bool" value="false"/>
    <property name="falloff" type="float" value="2"/>
    <property name="radius" type="float" value="3"/>
    <property name="shadows" type="bool" value="false"/>
    <property name="startActive" type="bool" value="true"/>
   </properties>
   <point/>
  </object>
  <object id="165" class="light" x="576" y="1184">
   <properties>
    <property name="angle" type="float" value="270"/>
    <property name="brightness" type="float" value="3"/>
    <property name="color" type="color" value="#ffffd69c"/>
    <property name="dirRadius" type="float" value="80"/>
    <property name="directional" type="bool" value="false"/>
    <property name="falloff" type="float" value="2"/>
    <property name="radius" type="float" value="1.25"/>
    <property name="shadows" type="bool" value="false"/>
    <property name="startActive" type="bool" value="true"/>
   </properties>
   <point/>
  </object>
  <object id="166" class="light" x="816" y="944">
   <properties>
    <property name="angle" type="float" value="270"/>
    <property name="brightness" type="float" value="2"/>
    <property name="color" type="color" value="#ffffa667"/>
    <property name="dirRadius" type="float" value="80"/>
    <property name="directional" type="bool" value="false"/>
    <property name="falloff" type="float" value="2"/>
    <property name="radius" type="float" value="3"/>
    <property name="shadows" type="bool" value="false"/>
    <property name="startActive" type="bool" value="true"/>
   </properties>
   <point/>
  </object>
  <object id="169" class="light" x="352" y="976">
   <properties>
    <property name="angle" type="float" value="270"/>
    <property name="brightness" type="float" value="2"/>
    <property name="color" type="color" value="#ffffd898"/>
    <property name="dirRadius" type="float" value="80"/>
    <property name="directional" type="bool" value="false"/>
    <property name="falloff" type="float" value="2"/>
    <property name="radius" type="float" value="2.25"/>
    <property name="shadows" type="bool" value="false"/>
    <property name="startActive" type="bool" value="true"/>
   </properties>
   <point/>
  </object>
  <object id="170" class="light" x="752" y="1376">
   <properties>
    <property name="angle" type="float" value="270"/>
    <property name="brightness" type="float" value="2"/>
    <property name="color" type="color" value="#ffffd898"/>
    <property name="dirRadius" type="float" value="80"/>
    <property name="directional" type="bool" value="false"/>
    <property name="falloff" type="float" value="2"/>
    <property name="radius" type="float" value="2.25"/>
    <property name="shadows" type="bool" value="false"/>
    <property name="startActive" type="bool" value="true"/>
   </properties>
   <point/>
  </object>
  <object id="171" class="light" x="416" y="1376">
   <properties>
    <property name="angle" type="float" value="270"/>
    <property name="brightness" type="float" value="2"/>
    <property name="color" type="color" value="#ffffd898"/>
    <property name="dirRadius" type="float" value="80"/>
    <property name="directional" type="bool" value="false"/>
    <property name="falloff" type="float" value="2"/>
    <property name="radius" type="float" value="2.25"/>
    <property name="shadows" type="bool" value="false"/>
    <property name="startActive" type="bool" value="true"/>
   </properties>
   <point/>
  </object>
 </objectgroup>
 <objectgroup color="#7de8b9" id="11" name="deco">
  <object id="224" class="prop" gid="256" x="956" y="396" width="10" height="31">
   <properties>
    <property name="foreground" type="bool" value="true"/>
    <property name="noDestroy" type="bool" value="true"/>
    <property name="rotationMult" type="float" value="1"/>
    <property name="squib" type="int" value="-1"/>
    <property name="squibSE" value=""/>
    <property name="static" type="bool" value="true"/>
   </properties>
  </object>
  <object id="230" class="prop" gid="230" x="1022" y="290" width="80" height="35">
   <properties>
    <property name="foreground" type="bool" value="true"/>
    <property name="noDestroy" type="bool" value="true"/>
    <property name="rotationMult" type="float" value="1"/>
    <property name="squib" type="int" value="-1"/>
    <property name="squibSE" value=""/>
    <property name="static" type="bool" value="true"/>
   </properties>
  </object>
  <object id="231" class="prop" gid="255" x="1038" y="260" width="14" height="25" rotation="223.882">
   <properties>
    <property name="foreground" type="bool" value="true"/>
    <property name="noDestroy" type="bool" value="true"/>
    <property name="rotationMult" type="float" value="1"/>
    <property name="squib" type="int" value="-1"/>
    <property name="squibSE" value=""/>
    <property name="static" type="bool" value="true"/>
   </properties>
  </object>
  <object id="232" class="prop" gid="255" x="1111.56" y="280.554" width="14" height="25" rotation="315.646">
   <properties>
    <property name="foreground" type="bool" value="true"/>
    <property name="noDestroy" type="bool" value="true"/>
    <property name="rotationMult" type="float" value="1"/>
    <property name="squib" type="int" value="-1"/>
    <property name="squibSE" value=""/>
    <property name="static" type="bool" value="true"/>
   </properties>
  </object>
  <object id="233" class="prop" gid="500" x="1212" y="452" width="24" height="24">
   <properties>
    <property name="foreground" type="bool" value="false"/>
    <property name="noDestroy" type="bool" value="true"/>
    <property name="rotationMult" type="float" value="1"/>
    <property name="squib" type="int" value="-1"/>
    <property name="squibSE" value=""/>
    <property name="static" type="bool" value="true"/>
   </properties>
  </object>
  <object id="234" class="prop" gid="493" x="955" y="480" width="17" height="9">
   <properties>
    <property name="foreground" type="bool" value="false"/>
    <property name="noDestroy" type="bool" value="true"/>
    <property name="rotationMult" type="float" value="1"/>
    <property name="squib" type="int" value="-1"/>
    <property name="squibSE" value=""/>
    <property name="static" type="bool" value="true"/>
   </properties>
  </object>
  <object id="235" class="prop" gid="197" x="1009" y="471" width="10" height="22">
   <properties>
    <property name="foreground" type="bool" value="false"/>
    <property name="noDestroy" type="bool" value="true"/>
    <property name="rotationMult" type="float" value="1"/>
    <property name="squib" type="int" value="-1"/>
    <property name="squibSE" value=""/>
    <property name="static" type="bool" value="true"/>
   </properties>
  </object>
  <object id="236" class="prop" gid="256" x="1079" y="500" width="10" height="31" rotation="270">
   <properties>
    <property name="foreground" type="bool" value="true"/>
    <property name="noDestroy" type="bool" value="true"/>
    <property name="rotationMult" type="float" value="1"/>
    <property name="squib" type="int" value="-1"/>
    <property name="squibSE" value=""/>
    <property name="static" type="bool" value="true"/>
   </properties>
  </object>
  <object id="237" class="prop" gid="256" x="1348" y="427" width="10" height="31" rotation="180">
   <properties>
    <property name="foreground" type="bool" value="true"/>
    <property name="noDestroy" type="bool" value="true"/>
    <property name="rotationMult" type="float" value="1"/>
    <property name="squib" type="int" value="-1"/>
    <property name="squibSE" value=""/>
    <property name="static" type="bool" value="true"/>
   </properties>
  </object>
  <object id="238" class="prop" gid="221" x="1294" y="414" width="44" height="15">
   <properties>
    <property name="foreground" type="bool" value="true"/>
    <property name="noDestroy" type="bool" value="true"/>
    <property name="rotationMult" type="float" value="1"/>
    <property name="squib" type="int" value="-1"/>
    <property name="squibSE" value=""/>
    <property name="static" type="bool" value="true"/>
   </properties>
  </object>
  <object id="239" class="prop" gid="218" x="1255" y="427" width="47" height="33">
   <properties>
    <property name="foreground" type="bool" value="true"/>
    <property name="noDestroy" type="bool" value="true"/>
    <property name="rotationMult" type="float" value="1"/>
    <property name="squib" type="int" value="-1"/>
    <property name="squibSE" value=""/>
    <property name="static" type="bool" value="true"/>
   </properties>
  </object>
  <object id="241" class="prop" gid="226" x="1148" y="416" width="7" height="48">
   <properties>
    <property name="foreground" type="bool" value="true"/>
    <property name="noDestroy" type="bool" value="true"/>
    <property name="rotationMult" type="float" value="1"/>
    <property name="squib" type="int" value="-1"/>
    <property name="squibSE" value=""/>
    <property name="static" type="bool" value="true"/>
   </properties>
  </object>
  <object id="242" class="prop" gid="224" x="991" y="313" width="18" height="45">
   <properties>
    <property name="foreground" type="bool" value="true"/>
    <property name="noDestroy" type="bool" value="true"/>
    <property name="rotationMult" type="float" value="1"/>
    <property name="squib" type="int" value="-1"/>
    <property name="squibSE" value=""/>
    <property name="static" type="bool" value="true"/>
   </properties>
  </object>
  <object id="245" class="prop" gid="183" x="1261" y="419" width="7" height="7">
   <properties>
    <property name="foreground" type="bool" value="false"/>
    <property name="noDestroy" type="bool" value="true"/>
    <property name="rotationMult" type="float" value="1"/>
    <property name="squib" type="int" value="-1"/>
    <property name="squibSE" value=""/>
    <property name="static" type="bool" value="true"/>
   </properties>
  </object>
  <object id="246" class="prop" gid="175" x="1054" y="370" width="21" height="7">
   <properties>
    <property name="foreground" type="bool" value="false"/>
    <property name="noDestroy" type="bool" value="true"/>
    <property name="rotationMult" type="float" value="1"/>
    <property name="squib" type="int" value="-1"/>
    <property name="squibSE" value=""/>
    <property name="static" type="bool" value="true"/>
   </properties>
  </object>
  <object id="250" class="prop" gid="227" x="1172" y="442" width="29" height="43">
   <properties>
    <property name="foreground" type="bool" value="true"/>
    <property name="noDestroy" type="bool" value="true"/>
    <property name="rotationMult" type="float" value="1"/>
    <property name="squib" type="int" value="-1"/>
    <property name="squibSE" value=""/>
    <property name="static" type="bool" value="true"/>
   </properties>
  </object>
  <object id="256" class="prop" gid="743" x="1008" y="438" width="116" height="22">
   <properties>
    <property name="foreground" type="bool" value="false"/>
    <property name="noDestroy" type="bool" value="true"/>
    <property name="rotationMult" type="float" value="1"/>
    <property name="squib" type="int" value="-1"/>
    <property name="squibSE" value=""/>
    <property name="static" type="bool" value="true"/>
   </properties>
  </object>
  <object id="257" class="prop" gid="737" x="1242" y="728" width="64" height="25" rotation="180">
   <properties>
    <property name="foreground" type="bool" value="false"/>
    <property name="noDestroy" type="bool" value="true"/>
    <property name="rotationMult" type="float" value="1"/>
    <property name="squib" type="int" value="-1"/>
    <property name="squibSE" value=""/>
    <property name="static" type="bool" value="true"/>
   </properties>
  </object>
  <object id="258" class="prop" gid="740" x="1152" y="725" width="112" height="8">
   <properties>
    <property name="foreground" type="bool" value="false"/>
    <property name="noDestroy" type="bool" value="true"/>
    <property name="rotationMult" type="float" value="1"/>
    <property name="squib" type="int" value="-1"/>
    <property name="squibSE" value=""/>
    <property name="static" type="bool" value="true"/>
   </properties>
  </object>
  <object id="259" class="prop" gid="758" x="535" y="426" width="20" height="16">
   <properties>
    <property name="foreground" type="bool" value="false"/>
    <property name="noDestroy" type="bool" value="true"/>
    <property name="rotationMult" type="float" value="1"/>
    <property name="squib" type="int" value="-1"/>
    <property name="squibSE" value=""/>
    <property name="static" type="bool" value="true"/>
   </properties>
  </object>
  <object id="260" class="prop" gid="756" x="557" y="426" width="18" height="16">
   <properties>
    <property name="foreground" type="bool" value="false"/>
    <property name="noDestroy" type="bool" value="true"/>
    <property name="rotationMult" type="float" value="1"/>
    <property name="squib" type="int" value="-1"/>
    <property name="squibSE" value=""/>
    <property name="static" type="bool" value="true"/>
   </properties>
  </object>
  <object id="261" class="prop" gid="758" x="463" y="426" width="20" height="16">
   <properties>
    <property name="foreground" type="bool" value="false"/>
    <property name="noDestroy" type="bool" value="true"/>
    <property name="rotationMult" type="float" value="1"/>
    <property name="squib" type="int" value="-1"/>
    <property name="squibSE" value=""/>
    <property name="static" type="bool" value="true"/>
   </properties>
  </object>
  <object id="262" class="prop" gid="754" x="485" y="427" width="19" height="17">
   <properties>
    <property name="foreground" type="bool" value="false"/>
    <property name="noDestroy" type="bool" value="true"/>
    <property name="rotationMult" type="float" value="1"/>
    <property name="squib" type="int" value="-1"/>
    <property name="squibSE" value=""/>
    <property name="static" type="bool" value="true"/>
   </properties>
  </object>
  <object id="263" class="prop" gid="677" x="1161" y="482" width="48" height="14">
   <properties>
    <property name="foreground" type="bool" value="true"/>
    <property name="noDestroy" type="bool" value="true"/>
    <property name="rotationMult" type="float" value="1"/>
    <property name="squib" type="int" value="-1"/>
    <property name="squibSE" value=""/>
    <property name="static" type="bool" value="true"/>
   </properties>
  </object>
  <object id="264" class="prop" gid="678" x="1121" y="482" width="45" height="13">
   <properties>
    <property name="foreground" type="bool" value="true"/>
    <property name="noDestroy" type="bool" value="true"/>
    <property name="rotationMult" type="float" value="1"/>
    <property name="squib" type="int" value="-1"/>
    <property name="squibSE" value=""/>
    <property name="static" type="bool" value="true"/>
   </properties>
  </object>
  <object id="265" class="prop" gid="675" x="883" y="484" width="67" height="15">
   <properties>
    <property name="foreground" type="bool" value="true"/>
    <property name="noDestroy" type="bool" value="true"/>
    <property name="rotationMult" type="float" value="1"/>
    <property name="squib" type="int" value="-1"/>
    <property name="squibSE" value=""/>
    <property name="static" type="bool" value="true"/>
   </properties>
  </object>
  <object id="266" class="prop" gid="684" x="976" y="321" width="14" height="48" rotation="90">
   <properties>
    <property name="foreground" type="bool" value="true"/>
    <property name="noDestroy" type="bool" value="true"/>
    <property name="rotationMult" type="float" value="1"/>
    <property name="squib" type="int" value="-1"/>
    <property name="squibSE" value=""/>
    <property name="static" type="bool" value="true"/>
   </properties>
  </object>
  <object id="269" class="prop" gid="684" x="1104" y="321" width="14" height="48" rotation="90">
   <properties>
    <property name="foreground" type="bool" value="true"/>
    <property name="noDestroy" type="bool" value="true"/>
    <property name="rotationMult" type="float" value="1"/>
    <property name="squib" type="int" value="-1"/>
    <property name="squibSE" value=""/>
    <property name="static" type="bool" value="true"/>
   </properties>
  </object>
  <object id="270" class="prop" gid="255" x="1142" y="335" width="14" height="25">
   <properties>
    <property name="foreground" type="bool" value="true"/>
    <property name="noDestroy" type="bool" value="true"/>
    <property name="rotationMult" type="float" value="1"/>
    <property name="squib" type="int" value="-1"/>
    <property name="squibSE" value=""/>
    <property name="static" type="bool" value="true"/>
   </properties>
  </object>
  <object id="271" class="prop" gid="225" x="1148" y="368" width="5" height="48">
   <properties>
    <property name="foreground" type="bool" value="true"/>
    <property name="noDestroy" type="bool" value="true"/>
    <property name="rotationMult" type="float" value="1"/>
    <property name="squib" type="int" value="-1"/>
    <property name="squibSE" value=""/>
    <property name="static" type="bool" value="true"/>
   </properties>
  </object>
  <object id="272" class="prop" gid="687" x="367" y="352" width="18" height="32">
   <properties>
    <property name="foreground" type="bool" value="false"/>
    <property name="noDestroy" type="bool" value="true"/>
    <property name="rotationMult" type="float" value="1"/>
    <property name="squib" type="int" value="-1"/>
    <property name="squibSE" value=""/>
    <property name="static" type="bool" value="true"/>
   </properties>
  </object>
  <object id="273" class="prop" gid="689" x="603" y="320" width="18" height="32">
   <properties>
    <property name="foreground" type="bool" value="false"/>
    <property name="noDestroy" type="bool" value="true"/>
    <property name="rotationMult" type="float" value="1"/>
    <property name="squib" type="int" value="-1"/>
    <property name="squibSE" value=""/>
    <property name="static" type="bool" value="true"/>
   </properties>
  </object>
  <object id="274" class="prop" gid="688" x="459" y="480" width="48" height="47">
   <properties>
    <property name="foreground" type="bool" value="false"/>
    <property name="noDestroy" type="bool" value="true"/>
    <property name="rotationMult" type="float" value="1"/>
    <property name="squib" type="int" value="-1"/>
    <property name="squibSE" value=""/>
    <property name="static" type="bool" value="true"/>
   </properties>
  </object>
  <object id="275" class="prop" gid="681" x="944" y="448" width="8" height="32">
   <properties>
    <property name="foreground" type="bool" value="false"/>
    <property name="noDestroy" type="bool" value="true"/>
    <property name="rotationMult" type="float" value="1"/>
    <property name="squib" type="int" value="-1"/>
    <property name="squibSE" value=""/>
    <property name="static" type="bool" value="true"/>
   </properties>
  </object>
  <object id="276" class="prop" gid="680" x="944" y="480" width="8" height="32">
   <properties>
    <property name="foreground" type="bool" value="false"/>
    <property name="noDestroy" type="bool" value="true"/>
    <property name="rotationMult" type="float" value="1"/>
    <property name="squib" type="int" value="-1"/>
    <property name="squibSE" value=""/>
    <property name="static" type="bool" value="true"/>
   </properties>
  </object>
  <object id="279" class="prop" gid="680" x="664" y="448" width="8" height="32">
   <properties>
    <property name="foreground" type="bool" value="false"/>
    <property name="noDestroy" type="bool" value="true"/>
    <property name="rotationMult" type="float" value="1"/>
    <property name="squib" type="int" value="-1"/>
    <property name="squibSE" value=""/>
    <property name="static" type="bool" value="true"/>
   </properties>
  </object>
  <object id="280" class="prop" gid="681" x="664" y="480" width="8" height="32">
   <properties>
    <property name="foreground" type="bool" value="false"/>
    <property name="noDestroy" type="bool" value="true"/>
    <property name="rotationMult" type="float" value="1"/>
    <property name="squib" type="int" value="-1"/>
    <property name="squibSE" value=""/>
    <property name="static" type="bool" value="true"/>
   </properties>
  </object>
  <object id="286" class="prop" gid="697" x="848" y="448" width="32" height="32">
   <properties>
    <property name="foreground" type="bool" value="false"/>
    <property name="noDestroy" type="bool" value="true"/>
    <property name="rotationMult" type="float" value="1"/>
    <property name="squib" type="int" value="-1"/>
    <property name="squibSE" value=""/>
    <property name="static" type="bool" value="true"/>
   </properties>
  </object>
  <object id="293" class="prop" gid="695" x="880" y="480" width="32" height="32">
   <properties>
    <property name="foreground" type="bool" value="false"/>
    <property name="noDestroy" type="bool" value="true"/>
    <property name="rotationMult" type="float" value="1"/>
    <property name="squib" type="int" value="-1"/>
    <property name="squibSE" value=""/>
    <property name="static" type="bool" value="true"/>
   </properties>
  </object>
  <object id="312" class="prop" gid="700" x="704" y="448" width="32" height="32">
   <properties>
    <property name="foreground" type="bool" value="false"/>
    <property name="noDestroy" type="bool" value="true"/>
    <property name="rotationMult" type="float" value="1"/>
    <property name="squib" type="int" value="-1"/>
    <property name="squibSE" value=""/>
    <property name="static" type="bool" value="true"/>
   </properties>
  </object>
  <object id="313" class="prop" gid="699" x="736" y="448" width="32" height="32">
   <properties>
    <property name="foreground" type="bool" value="false"/>
    <property name="noDestroy" type="bool" value="true"/>
    <property name="rotationMult" type="float" value="1"/>
    <property name="squib" type="int" value="-1"/>
    <property name="squibSE" value=""/>
    <property name="static" type="bool" value="true"/>
   </properties>
  </object>
  <object id="314" class="prop" gid="699" x="752" y="480" width="32" height="32">
   <properties>
    <property name="foreground" type="bool" value="false"/>
    <property name="noDestroy" type="bool" value="true"/>
    <property name="rotationMult" type="float" value="1"/>
    <property name="squib" type="int" value="-1"/>
    <property name="squibSE" value=""/>
    <property name="static" type="bool" value="true"/>
   </properties>
  </object>
  <object id="315" class="prop" gid="699" x="768" y="448" width="32" height="32">
   <properties>
    <property name="foreground" type="bool" value="false"/>
    <property name="noDestroy" type="bool" value="true"/>
    <property name="rotationMult" type="float" value="1"/>
    <property name="squib" type="int" value="-1"/>
    <property name="squibSE" value=""/>
    <property name="static" type="bool" value="true"/>
   </properties>
  </object>
  <object id="316" class="prop" gid="700" x="848" y="448" width="32" height="32">
   <properties>
    <property name="foreground" type="bool" value="false"/>
    <property name="noDestroy" type="bool" value="true"/>
    <property name="rotationMult" type="float" value="1"/>
    <property name="squib" type="int" value="-1"/>
    <property name="squibSE" value=""/>
    <property name="static" type="bool" value="true"/>
   </properties>
  </object>
  <object id="317" class="prop" gid="705" x="816" y="448" width="32" height="32">
   <properties>
    <property name="foreground" type="bool" value="false"/>
    <property name="noDestroy" type="bool" value="true"/>
    <property name="rotationMult" type="float" value="1"/>
    <property name="squib" type="int" value="-1"/>
    <property name="squibSE" value=""/>
    <property name="static" type="bool" value="true"/>
   </properties>
  </object>
  <object id="318" class="prop" gid="705" x="816" y="480" width="32" height="32">
   <properties>
    <property name="foreground" type="bool" value="false"/>
    <property name="noDestroy" type="bool" value="true"/>
    <property name="rotationMult" type="float" value="1"/>
    <property name="squib" type="int" value="-1"/>
    <property name="squibSE" value=""/>
    <property name="static" type="bool" value="true"/>
   </properties>
  </object>
  <object id="320" class="prop" gid="706" x="912" y="448" width="32" height="32">
   <properties>
    <property name="foreground" type="bool" value="false"/>
    <property name="noDestroy" type="bool" value="true"/>
    <property name="rotationMult" type="float" value="1"/>
    <property name="squib" type="int" value="-1"/>
    <property name="squibSE" value=""/>
    <property name="static" type="bool" value="true"/>
   </properties>
  </object>
  <object id="321" class="prop" gid="695" x="880" y="448" width="32" height="32">
   <properties>
    <property name="foreground" type="bool" value="false"/>
    <property name="noDestroy" type="bool" value="true"/>
    <property name="rotationMult" type="float" value="1"/>
    <property name="squib" type="int" value="-1"/>
    <property name="squibSE" value=""/>
    <property name="static" type="bool" value="true"/>
   </properties>
  </object>
  <object id="322" class="prop" gid="695" x="848" y="480" width="32" height="32">
   <properties>
    <property name="foreground" type="bool" value="false"/>
    <property name="noDestroy" type="bool" value="true"/>
    <property name="rotationMult" type="float" value="1"/>
    <property name="squib" type="int" value="-1"/>
    <property name="squibSE" value=""/>
    <property name="static" type="bool" value="true"/>
   </properties>
  </object>
  <object id="323" class="prop" gid="695" x="912" y="480" width="32" height="32">
   <properties>
    <property name="foreground" type="bool" value="false"/>
    <property name="noDestroy" type="bool" value="true"/>
    <property name="rotationMult" type="float" value="1"/>
    <property name="squib" type="int" value="-1"/>
    <property name="squibSE" value=""/>
    <property name="static" type="bool" value="true"/>
   </properties>
  </object>
  <object id="324" class="prop" gid="695" x="784" y="480" width="32" height="32">
   <properties>
    <property name="foreground" type="bool" value="false"/>
    <property name="noDestroy" type="bool" value="true"/>
    <property name="rotationMult" type="float" value="1"/>
    <property name="squib" type="int" value="-1"/>
    <property name="squibSE" value=""/>
    <property name="static" type="bool" value="true"/>
   </properties>
  </object>
  <object id="325" class="prop" gid="695" x="720" y="480" width="32" height="32">
   <properties>
    <property name="foreground" type="bool" value="false"/>
    <property name="noDestroy" type="bool" value="true"/>
    <property name="rotationMult" type="float" value="1"/>
    <property name="squib" type="int" value="-1"/>
    <property name="squibSE" value=""/>
    <property name="static" type="bool" value="true"/>
   </properties>
  </object>
  <object id="326" class="prop" gid="695" x="672" y="448" width="32" height="32">
   <properties>
    <property name="foreground" type="bool" value="false"/>
    <property name="noDestroy" type="bool" value="true"/>
    <property name="rotationMult" type="float" value="1"/>
    <property name="squib" type="int" value="-1"/>
    <property name="squibSE" value=""/>
    <property name="static" type="bool" value="true"/>
   </properties>
  </object>
  <object id="327" class="prop" gid="695" x="688" y="480" width="32" height="32">
   <properties>
    <property name="foreground" type="bool" value="false"/>
    <property name="noDestroy" type="bool" value="true"/>
    <property name="rotationMult" type="float" value="1"/>
    <property name="squib" type="int" value="-1"/>
    <property name="squibSE" value=""/>
    <property name="static" type="bool" value="true"/>
   </properties>
  </object>
  <object id="328" class="prop" gid="696" x="688" y="448" width="32" height="32">
   <properties>
    <property name="foreground" type="bool" value="false"/>
    <property name="noDestroy" type="bool" value="true"/>
    <property name="rotationMult" type="float" value="1"/>
    <property name="squib" type="int" value="-1"/>
    <property name="squibSE" value=""/>
    <property name="static" type="bool" value="true"/>
   </properties>
  </object>
  <object id="329" class="prop" gid="698" x="720" y="448" width="32" height="32">
   <properties>
    <property name="foreground" type="bool" value="false"/>
    <property name="noDestroy" type="bool" value="true"/>
    <property name="rotationMult" type="float" value="1"/>
    <property name="squib" type="int" value="-1"/>
    <property name="squibSE" value=""/>
    <property name="static" type="bool" value="true"/>
   </properties>
  </object>
  <object id="330" class="prop" gid="697" x="752" y="448" width="32" height="32">
   <properties>
    <property name="foreground" type="bool" value="false"/>
    <property name="noDestroy" type="bool" value="true"/>
    <property name="rotationMult" type="float" value="1"/>
    <property name="squib" type="int" value="-1"/>
    <property name="squibSE" value=""/>
    <property name="static" type="bool" value="true"/>
   </properties>
  </object>
  <object id="331" class="prop" gid="696" x="752" y="480" width="32" height="32">
   <properties>
    <property name="foreground" type="bool" value="false"/>
    <property name="noDestroy" type="bool" value="true"/>
    <property name="rotationMult" type="float" value="1"/>
    <property name="squib" type="int" value="-1"/>
    <property name="squibSE" value=""/>
    <property name="static" type="bool" value="true"/>
   </properties>
  </object>
  <object id="332" class="prop" gid="695" x="784" y="448" width="32" height="32">
   <properties>
    <property name="foreground" type="bool" value="false"/>
    <property name="noDestroy" type="bool" value="true"/>
    <property name="rotationMult" type="float" value="1"/>
    <property name="squib" type="int" value="-1"/>
    <property name="squibSE" value=""/>
    <property name="static" type="bool" value="true"/>
   </properties>
  </object>
  <object id="333" class="prop" gid="695" x="672" y="480" width="32" height="32">
   <properties>
    <property name="foreground" type="bool" value="false"/>
    <property name="noDestroy" type="bool" value="true"/>
    <property name="rotationMult" type="float" value="1"/>
    <property name="squib" type="int" value="-1"/>
    <property name="squibSE" value=""/>
    <property name="static" type="bool" value="true"/>
   </properties>
  </object>
  <object id="334" class="prop" gid="698" x="816" y="448" width="32" height="32">
   <properties>
    <property name="foreground" type="bool" value="false"/>
    <property name="noDestroy" type="bool" value="true"/>
    <property name="rotationMult" type="float" value="1"/>
    <property name="squib" type="int" value="-1"/>
    <property name="squibSE" value=""/>
    <property name="static" type="bool" value="true"/>
   </properties>
  </object>
  <object id="335" class="prop" gid="697" x="816" y="480" width="32" height="32">
   <properties>
    <property name="foreground" type="bool" value="false"/>
    <property name="noDestroy" type="bool" value="true"/>
    <property name="rotationMult" type="float" value="1"/>
    <property name="squib" type="int" value="-1"/>
    <property name="squibSE" value=""/>
    <property name="static" type="bool" value="true"/>
   </properties>
  </object>
  <object id="336" class="prop" gid="696" x="848" y="448" width="32" height="32">
   <properties>
    <property name="foreground" type="bool" value="false"/>
    <property name="noDestroy" type="bool" value="true"/>
    <property name="rotationMult" type="float" value="1"/>
    <property name="squib" type="int" value="-1"/>
    <property name="squibSE" value=""/>
    <property name="static" type="bool" value="true"/>
   </properties>
  </object>
  <object id="337" class="prop" gid="698" x="912" y="448" width="32" height="32">
   <properties>
    <property name="foreground" type="bool" value="false"/>
    <property name="noDestroy" type="bool" value="true"/>
    <property name="rotationMult" type="float" value="1"/>
    <property name="squib" type="int" value="-1"/>
    <property name="squibSE" value=""/>
    <property name="static" type="bool" value="true"/>
   </properties>
  </object>
  <object id="339" class="prop" gid="734" x="415" y="1440" width="59" height="98">
   <properties>
    <property name="foreground" type="bool" value="false"/>
    <property name="noDestroy" type="bool" value="true"/>
    <property name="rotationMult" type="float" value="1"/>
    <property name="squib" type="int" value="-1"/>
    <property name="squibSE" value=""/>
    <property name="static" type="bool" value="true"/>
   </properties>
  </object>
  <object id="340" class="prop" gid="735" x="607" y="1440" width="75" height="95">
   <properties>
    <property name="foreground" type="bool" value="false"/>
    <property name="noDestroy" type="bool" value="true"/>
    <property name="rotationMult" type="float" value="1"/>
    <property name="squib" type="int" value="-1"/>
    <property name="squibSE" value=""/>
    <property name="static" type="bool" value="true"/>
   </properties>
  </object>
  <object id="341" class="prop" gid="734" x="689" y="1440" width="59" height="98">
   <properties>
    <property name="foreground" type="bool" value="false"/>
    <property name="noDestroy" type="bool" value="true"/>
    <property name="rotationMult" type="float" value="1"/>
    <property name="squib" type="int" value="-1"/>
    <property name="squibSE" value=""/>
    <property name="static" type="bool" value="true"/>
   </properties>
  </object>
  <object id="342" class="prop" gid="744" x="711" y="1043" width="66" height="8">
   <properties>
    <property name="foreground" type="bool" value="false"/>
    <property name="noDestroy" type="bool" value="true"/>
    <property name="rotationMult" type="float" value="1"/>
    <property name="squib" type="int" value="-1"/>
    <property name="squibSE" value=""/>
    <property name="static" type="bool" value="true"/>
   </properties>
  </object>
  <object id="344" class="prop" gid="757" x="433" y="1397" width="24" height="16">
   <properties>
    <property name="foreground" type="bool" value="false"/>
    <property name="noDestroy" type="bool" value="true"/>
    <property name="rotationMult" type="float" value="1"/>
    <property name="squib" type="int" value="-1"/>
    <property name="squibSE" value=""/>
    <property name="static" type="bool" value="true"/>
   </properties>
  </object>
  <object id="346" class="prop" gid="759" x="639" y="1402" width="20" height="18" rotation="352.92">
   <properties>
    <property name="foreground" type="bool" value="false"/>
    <property name="noDestroy" type="bool" value="true"/>
    <property name="rotationMult" type="float" value="1"/>
    <property name="squib" type="int" value="-1"/>
    <property name="squibSE" value=""/>
    <property name="static" type="bool" value="true"/>
   </properties>
  </object>
  <object id="347" class="prop" gid="760" x="709" y="1400" width="21" height="16">
   <properties>
    <property name="foreground" type="bool" value="false"/>
    <property name="noDestroy" type="bool" value="true"/>
    <property name="rotationMult" type="float" value="1"/>
    <property name="squib" type="int" value="-1"/>
    <property name="squibSE" value=""/>
    <property name="static" type="bool" value="true"/>
   </properties>
  </object>
  <object id="356" class="prop" gid="737" x="860" y="979" width="64" height="25">
   <properties>
    <property name="foreground" type="bool" value="false"/>
    <property name="noDestroy" type="bool" value="true"/>
    <property name="rotationMult" type="float" value="1"/>
    <property name="squib" type="int" value="-1"/>
    <property name="squibSE" value=""/>
    <property name="static" type="bool" value="true"/>
   </properties>
  </object>
  <object id="357" class="prop" gid="740" x="835" y="951" width="112" height="8">
   <properties>
    <property name="foreground" type="bool" value="false"/>
    <property name="noDestroy" type="bool" value="true"/>
    <property name="rotationMult" type="float" value="1"/>
    <property name="squib" type="int" value="-1"/>
    <property name="squibSE" value=""/>
    <property name="static" type="bool" value="true"/>
   </properties>
  </object>
  <object id="384" class="prop" gid="725" x="454" y="1214" width="45" height="47" rotation="270">
   <properties>
    <property name="foreground" type="bool" value="false"/>
    <property name="noDestroy" type="bool" value="true"/>
    <property name="rotationMult" type="float" value="1"/>
    <property name="squib" type="int" value="-1"/>
    <property name="squibSE" value=""/>
    <property name="static" type="bool" value="true"/>
   </properties>
  </object>
  <object id="393" class="prop" gid="744" x="548" y="1347" width="66" height="8">
   <properties>
    <property name="foreground" type="bool" value="false"/>
    <property name="noDestroy" type="bool" value="true"/>
    <property name="rotationMult" type="float" value="1"/>
    <property name="squib" type="int" value="-1"/>
    <property name="squibSE" value=""/>
    <property name="static" type="bool" value="true"/>
   </properties>
  </object>
  <object id="394" class="prop" gid="736" x="750" y="1440" width="12" height="20">
   <properties>
    <property name="foreground" type="bool" value="false"/>
    <property name="noDestroy" type="bool" value="true"/>
    <property name="rotationMult" type="float" value="1"/>
    <property name="squib" type="int" value="-1"/>
    <property name="squibSE" value=""/>
    <property name="static" type="bool" value="true"/>
   </properties>
  </object>
  <object id="396" class="prop" gid="736" x="541" y="1440" width="12" height="20">
   <properties>
    <property name="foreground" type="bool" value="false"/>
    <property name="noDestroy" type="bool" value="true"/>
    <property name="rotationMult" type="float" value="1"/>
    <property name="squib" type="int" value="-1"/>
    <property name="squibSE" value=""/>
    <property name="static" type="bool" value="true"/>
   </properties>
  </object>
  <object id="398" class="prop" gid="684" x="482" y="1440" width="14" height="48">
   <properties>
    <property name="foreground" type="bool" value="true"/>
    <property name="noDestroy" type="bool" value="true"/>
    <property name="rotationMult" type="float" value="1"/>
    <property name="squib" type="int" value="-1"/>
    <property name="squibSE" value=""/>
    <property name="static" type="bool" value="true"/>
   </properties>
  </object>
  <object id="399" class="prop" gid="684" x="482" y="1392" width="14" height="48">
   <properties>
    <property name="foreground" type="bool" value="true"/>
    <property name="noDestroy" type="bool" value="true"/>
    <property name="rotationMult" type="float" value="1"/>
    <property name="squib" type="int" value="-1"/>
    <property name="squibSE" value=""/>
    <property name="static" type="bool" value="true"/>
   </properties>
  </object>
  <object id="401" class="prop" gid="684" x="482" y="1296" width="14" height="48">
   <properties>
    <property name="foreground" type="bool" value="true"/>
    <property name="noDestroy" type="bool" value="true"/>
    <property name="rotationMult" type="float" value="1"/>
    <property name="squib" type="int" value="-1"/>
    <property name="squibSE" value=""/>
    <property name="static" type="bool" value="true"/>
   </properties>
  </object>
  <object id="402" class="prop" gid="684" x="482" y="1264" width="14" height="48">
   <properties>
    <property name="foreground" type="bool" value="true"/>
    <property name="noDestroy" type="bool" value="true"/>
    <property name="rotationMult" type="float" value="1"/>
    <property name="squib" type="int" value="-1"/>
    <property name="squibSE" value=""/>
    <property name="static" type="bool" value="true"/>
   </properties>
  </object>
  <object id="403" class="prop" gid="684" x="482" y="1200" width="14" height="48">
   <properties>
    <property name="foreground" type="bool" value="true"/>
    <property name="noDestroy" type="bool" value="true"/>
    <property name="rotationMult" type="float" value="1"/>
    <property name="squib" type="int" value="-1"/>
    <property name="squibSE" value=""/>
    <property name="static" type="bool" value="true"/>
   </properties>
  </object>
  <object id="404" class="prop" gid="684" x="482" y="1168" width="14" height="48">
   <properties>
    <property name="foreground" type="bool" value="true"/>
    <property name="noDestroy" type="bool" value="true"/>
    <property name="rotationMult" type="float" value="1"/>
    <property name="squib" type="int" value="-1"/>
    <property name="squibSE" value=""/>
    <property name="static" type="bool" value="true"/>
   </properties>
  </object>
  <object id="405" class="prop" gid="684" x="482" y="1120" width="14" height="48">
   <properties>
    <property name="foreground" type="bool" value="true"/>
    <property name="noDestroy" type="bool" value="true"/>
    <property name="rotationMult" type="float" value="1"/>
    <property name="squib" type="int" value="-1"/>
    <property name="squibSE" value=""/>
    <property name="static" type="bool" value="true"/>
   </properties>
  </object>
  <object id="407" class="prop" gid="734" x="480" y="1440" width="59" height="98">
   <properties>
    <property name="foreground" type="bool" value="false"/>
    <property name="noDestroy" type="bool" value="true"/>
    <property name="rotationMult" type="float" value="1"/>
    <property name="squib" type="int" value="-1"/>
    <property name="squibSE" value=""/>
    <property name="static" type="bool" value="true"/>
   </properties>
  </object>
  <object id="408" class="prop" gid="758" x="500" y="1398" width="20" height="16">
   <properties>
    <property name="foreground" type="bool" value="false"/>
    <property name="noDestroy" type="bool" value="true"/>
    <property name="rotationMult" type="float" value="1"/>
    <property name="squib" type="int" value="-1"/>
    <property name="squibSE" value=""/>
    <property name="static" type="bool" value="true"/>
   </properties>
  </object>
  <object id="410" class="prop" gid="498" x="568" y="1395" width="24" height="24">
   <properties>
    <property name="foreground" type="bool" value="false"/>
    <property name="noDestroy" type="bool" value="true"/>
    <property name="rotationMult" type="float" value="1"/>
    <property name="squib" type="int" value="-1"/>
    <property name="squibSE" value=""/>
    <property name="static" type="bool" value="true"/>
   </properties>
  </object>
  <object id="411" class="prop" gid="498" x="568" y="1420" width="24" height="24">
   <properties>
    <property name="foreground" type="bool" value="false"/>
    <property name="noDestroy" type="bool" value="true"/>
    <property name="rotationMult" type="float" value="1"/>
    <property name="squib" type="int" value="-1"/>
    <property name="squibSE" value=""/>
    <property name="static" type="bool" value="true"/>
   </properties>
  </object>
  <object id="412" class="prop" gid="500" x="796" y="958" width="24" height="24">
   <properties>
    <property name="foreground" type="bool" value="false"/>
    <property name="noDestroy" type="bool" value="true"/>
    <property name="rotationMult" type="float" value="1"/>
    <property name="squib" type="int" value="-1"/>
    <property name="squibSE" value=""/>
    <property name="static" type="bool" value="true"/>
   </properties>
  </object>
  <object id="413" class="prop" gid="500" x="796" y="983" width="24" height="24">
   <properties>
    <property name="foreground" type="bool" value="false"/>
    <property name="noDestroy" type="bool" value="true"/>
    <property name="rotationMult" type="float" value="1"/>
    <property name="squib" type="int" value="-1"/>
    <property name="squibSE" value=""/>
    <property name="static" type="bool" value="true"/>
   </properties>
  </object>
  <object id="414" class="prop" gid="500" x="567" y="1152" width="24" height="24">
   <properties>
    <property name="foreground" type="bool" value="false"/>
    <property name="noDestroy" type="bool" value="true"/>
    <property name="rotationMult" type="float" value="1"/>
    <property name="squib" type="int" value="-1"/>
    <property name="squibSE" value=""/>
    <property name="static" type="bool" value="true"/>
   </properties>
  </object>
  <object id="415" class="prop" gid="500" x="567" y="1177" width="24" height="24">
   <properties>
    <property name="foreground" type="bool" value="false"/>
    <property name="noDestroy" type="bool" value="true"/>
    <property name="rotationMult" type="float" value="1"/>
    <property name="squib" type="int" value="-1"/>
    <property name="squibSE" value=""/>
    <property name="static" type="bool" value="true"/>
   </properties>
  </object>
  <object id="416" class="prop" gid="500" x="592" y="1152" width="24" height="24">
   <properties>
    <property name="foreground" type="bool" value="false"/>
    <property name="noDestroy" type="bool" value="true"/>
    <property name="rotationMult" type="float" value="1"/>
    <property name="squib" type="int" value="-1"/>
    <property name="squibSE" value=""/>
    <property name="static" type="bool" value="true"/>
   </properties>
  </object>
  <object id="417" class="prop" gid="500" x="592" y="1177" width="24" height="24">
   <properties>
    <property name="foreground" type="bool" value="false"/>
    <property name="noDestroy" type="bool" value="true"/>
    <property name="rotationMult" type="float" value="1"/>
    <property name="squib" type="int" value="-1"/>
    <property name="squibSE" value=""/>
    <property name="static" type="bool" value="true"/>
   </properties>
  </object>
  <object id="418" class="prop" gid="498" x="341" y="1120" width="24" height="24">
   <properties>
    <property name="foreground" type="bool" value="false"/>
    <property name="noDestroy" type="bool" value="true"/>
    <property name="rotationMult" type="float" value="1"/>
    <property name="squib" type="int" value="-1"/>
    <property name="squibSE" value=""/>
    <property name="static" type="bool" value="true"/>
   </properties>
  </object>
  <object id="419" class="prop" gid="498" x="443" y="974" width="24" height="24">
   <properties>
    <property name="foreground" type="bool" value="false"/>
    <property name="noDestroy" type="bool" value="true"/>
    <property name="rotationMult" type="float" value="1"/>
    <property name="squib" type="int" value="-1"/>
    <property name="squibSE" value=""/>
    <property name="static" type="bool" value="true"/>
   </properties>
  </object>
  <object id="434" class="prop" gid="703" x="844" y="992" width="36" height="32">
   <properties>
    <property name="foreground" type="bool" value="true"/>
    <property name="noDestroy" type="bool" value="true"/>
    <property name="rotationMult" type="float" value="1"/>
    <property name="squib" type="int" value="-1"/>
    <property name="squibSE" value=""/>
    <property name="static" type="bool" value="true"/>
   </properties>
  </object>
  <object id="435" class="prop" gid="701" x="848" y="960" width="32" height="32">
   <properties>
    <property name="foreground" type="bool" value="true"/>
    <property name="noDestroy" type="bool" value="true"/>
    <property name="rotationMult" type="float" value="1"/>
    <property name="squib" type="int" value="-1"/>
    <property name="squibSE" value=""/>
    <property name="static" type="bool" value="true"/>
   </properties>
  </object>
  <object id="436" class="prop" gid="701" x="880" y="992" width="32" height="32">
   <properties>
    <property name="foreground" type="bool" value="true"/>
    <property name="noDestroy" type="bool" value="true"/>
    <property name="rotationMult" type="float" value="1"/>
    <property name="squib" type="int" value="-1"/>
    <property name="squibSE" value=""/>
    <property name="static" type="bool" value="true"/>
   </properties>
  </object>
  <object id="438" class="prop" gid="704" x="912" y="992" width="32" height="32">
   <properties>
    <property name="foreground" type="bool" value="true"/>
    <property name="noDestroy" type="bool" value="true"/>
    <property name="rotationMult" type="float" value="1"/>
    <property name="squib" type="int" value="-1"/>
    <property name="squibSE" value=""/>
    <property name="static" type="bool" value="true"/>
   </properties>
  </object>
  <object id="439" class="prop" gid="702" x="912" y="960" width="32" height="32">
   <properties>
    <property name="foreground" type="bool" value="true"/>
    <property name="noDestroy" type="bool" value="true"/>
    <property name="rotationMult" type="float" value="1"/>
    <property name="squib" type="int" value="-1"/>
    <property name="squibSE" value=""/>
    <property name="static" type="bool" value="true"/>
   </properties>
  </object>
  <object id="441" class="prop" gid="704" x="944" y="960" width="32" height="32">
   <properties>
    <property name="foreground" type="bool" value="true"/>
    <property name="noDestroy" type="bool" value="true"/>
    <property name="rotationMult" type="float" value="1"/>
    <property name="squib" type="int" value="-1"/>
    <property name="squibSE" value=""/>
    <property name="static" type="bool" value="true"/>
   </properties>
  </object>
  <object id="443" class="prop" gid="688" x="531" y="480" width="48" height="47">
   <properties>
    <property name="foreground" type="bool" value="false"/>
    <property name="noDestroy" type="bool" value="true"/>
    <property name="rotationMult" type="float" value="1"/>
    <property name="squib" type="int" value="-1"/>
    <property name="squibSE" value=""/>
    <property name="static" type="bool" value="true"/>
   </properties>
  </object>
  <object id="444" class="prop" gid="687" x="1273" y="480" width="18" height="32">
   <properties>
    <property name="foreground" type="bool" value="false"/>
    <property name="noDestroy" type="bool" value="true"/>
    <property name="rotationMult" type="float" value="1"/>
    <property name="squib" type="int" value="-1"/>
    <property name="squibSE" value=""/>
    <property name="static" type="bool" value="true"/>
   </properties>
  </object>
  <object id="445" class="prop" gid="196" x="1261" y="466" width="8" height="13">
   <properties>
    <property name="foreground" type="bool" value="false"/>
    <property name="noDestroy" type="bool" value="true"/>
    <property name="rotationMult" type="float" value="1"/>
    <property name="squib" type="int" value="-1"/>
    <property name="squibSE" value=""/>
    <property name="static" type="bool" value="true"/>
   </properties>
  </object>
  <object id="446" class="prop" gid="196" x="1251" y="466" width="8" height="13">
   <properties>
    <property name="foreground" type="bool" value="false"/>
    <property name="noDestroy" type="bool" value="true"/>
    <property name="rotationMult" type="float" value="1"/>
    <property name="squib" type="int" value="-1"/>
    <property name="squibSE" value=""/>
    <property name="static" type="bool" value="true"/>
   </properties>
  </object>
  <object id="448" class="prop" gid="676" x="809" y="483" width="70" height="17">
   <properties>
    <property name="foreground" type="bool" value="true"/>
    <property name="noDestroy" type="bool" value="true"/>
    <property name="rotationMult" type="float" value="1"/>
    <property name="squib" type="int" value="-1"/>
    <property name="squibSE" value=""/>
    <property name="static" type="bool" value="true"/>
   </properties>
  </object>
  <object id="450" class="prop" gid="678" x="642" y="482" width="45" height="13">
   <properties>
    <property name="foreground" type="bool" value="true"/>
    <property name="noDestroy" type="bool" value="true"/>
    <property name="rotationMult" type="float" value="1"/>
    <property name="squib" type="int" value="-1"/>
    <property name="squibSE" value=""/>
    <property name="static" type="bool" value="true"/>
   </properties>
  </object>
  <object id="452" class="prop" gid="221" x="916" y="431" width="44" height="15">
   <properties>
    <property name="foreground" type="bool" value="true"/>
    <property name="noDestroy" type="bool" value="true"/>
    <property name="rotationMult" type="float" value="1"/>
    <property name="squib" type="int" value="-1"/>
    <property name="squibSE" value=""/>
    <property name="static" type="bool" value="true"/>
   </properties>
  </object>
  <object id="453" class="prop" gid="218" x="820" y="442" width="47" height="33">
   <properties>
    <property name="foreground" type="bool" value="true"/>
    <property name="noDestroy" type="bool" value="true"/>
    <property name="rotationMult" type="float" value="1"/>
    <property name="squib" type="int" value="-1"/>
    <property name="squibSE" value=""/>
    <property name="static" type="bool" value="true"/>
   </properties>
  </object>
  <object id="454" class="prop" gid="220" x="750" y="427" width="35" height="12">
   <properties>
    <property name="foreground" type="bool" value="true"/>
    <property name="noDestroy" type="bool" value="true"/>
    <property name="rotationMult" type="float" value="1"/>
    <property name="squib" type="int" value="-1"/>
    <property name="squibSE" value=""/>
    <property name="static" type="bool" value="true"/>
   </properties>
  </object>
  <object id="455" class="prop" gid="221" x="716" y="430" width="44" height="15">
   <properties>
    <property name="foreground" type="bool" value="true"/>
    <property name="noDestroy" type="bool" value="true"/>
    <property name="rotationMult" type="float" value="1"/>
    <property name="squib" type="int" value="-1"/>
    <property name="squibSE" value=""/>
    <property name="static" type="bool" value="true"/>
   </properties>
  </object>
  <object id="456" class="prop" gid="222" x="677" y="427" width="55" height="13">
   <properties>
    <property name="foreground" type="bool" value="true"/>
    <property name="noDestroy" type="bool" value="true"/>
    <property name="rotationMult" type="float" value="1"/>
    <property name="squib" type="int" value="-1"/>
    <property name="squibSE" value=""/>
    <property name="static" type="bool" value="true"/>
   </properties>
  </object>
  <object id="458" class="prop" gid="711" x="528" y="401" width="64" height="19">
   <properties>
    <property name="foreground" type="bool" value="true"/>
    <property name="noDestroy" type="bool" value="true"/>
    <property name="rotationMult" type="float" value="1"/>
    <property name="squib" type="int" value="-1"/>
    <property name="squibSE" value=""/>
    <property name="static" type="bool" value="true"/>
   </properties>
  </object>
  <object id="459" class="prop" gid="712" x="464" y="401" width="64" height="19">
   <properties>
    <property name="foreground" type="bool" value="true"/>
    <property name="noDestroy" type="bool" value="true"/>
    <property name="rotationMult" type="float" value="1"/>
    <property name="squib" type="int" value="-1"/>
    <property name="squibSE" value=""/>
    <property name="static" type="bool" value="true"/>
   </properties>
  </object>
  <object id="460" class="prop" gid="715" x="390" y="405" width="89" height="27">
   <properties>
    <property name="foreground" type="bool" value="true"/>
    <property name="noDestroy" type="bool" value="true"/>
    <property name="rotationMult" type="float" value="1"/>
    <property name="squib" type="int" value="-1"/>
    <property name="squibSE" value=""/>
    <property name="static" type="bool" value="true"/>
   </properties>
  </object>
  <object id="461" class="prop" gid="711" x="352" y="401" width="64" height="19">
   <properties>
    <property name="foreground" type="bool" value="true"/>
    <property name="noDestroy" type="bool" value="true"/>
    <property name="rotationMult" type="float" value="1"/>
    <property name="squib" type="int" value="-1"/>
    <property name="squibSE" value=""/>
    <property name="static" type="bool" value="true"/>
   </properties>
  </object>
  <object id="462" class="prop" gid="745" x="475" y="395" width="61" height="7">
   <properties>
    <property name="foreground" type="bool" value="true"/>
    <property name="noDestroy" type="bool" value="true"/>
    <property name="rotationMult" type="float" value="1"/>
    <property name="squib" type="int" value="-1"/>
    <property name="squibSE" value=""/>
    <property name="static" type="bool" value="true"/>
   </properties>
  </object>
  <object id="463" class="prop" gid="720" x="594" y="391" width="22" height="22">
   <properties>
    <property name="foreground" type="bool" value="true"/>
    <property name="noDestroy" type="bool" value="true"/>
    <property name="rotationMult" type="float" value="1"/>
    <property name="squib" type="int" value="-1"/>
    <property name="squibSE" value=""/>
    <property name="static" type="bool" value="true"/>
   </properties>
  </object>
  <object id="467" class="prop" gid="721" x="616" y="369" width="38" height="14" rotation="270">
   <properties>
    <property name="foreground" type="bool" value="true"/>
    <property name="noDestroy" type="bool" value="true"/>
    <property name="rotationMult" type="float" value="1"/>
    <property name="squib" type="int" value="-1"/>
    <property name="squibSE" value=""/>
    <property name="static" type="bool" value="true"/>
   </properties>
  </object>
  <object id="469" class="prop" gid="720" x="605" y="394" width="22" height="22" rotation="90">
   <properties>
    <property name="foreground" type="bool" value="true"/>
    <property name="noDestroy" type="bool" value="true"/>
    <property name="rotationMult" type="float" value="1"/>
    <property name="squib" type="int" value="-1"/>
    <property name="squibSE" value=""/>
    <property name="static" type="bool" value="true"/>
   </properties>
  </object>
  <object id="470" class="prop" gid="716" x="627" y="416" width="16" height="9">
   <properties>
    <property name="foreground" type="bool" value="true"/>
    <property name="noDestroy" type="bool" value="true"/>
    <property name="rotationMult" type="float" value="1"/>
    <property name="squib" type="int" value="-1"/>
    <property name="squibSE" value=""/>
    <property name="static" type="bool" value="true"/>
   </properties>
  </object>
  <object id="471" class="prop" gid="710" x="592" y="401" width="64" height="19">
   <properties>
    <property name="foreground" type="bool" value="true"/>
    <property name="noDestroy" type="bool" value="true"/>
    <property name="rotationMult" type="float" value="1"/>
    <property name="squib" type="int" value="-1"/>
    <property name="squibSE" value=""/>
    <property name="static" type="bool" value="true"/>
   </properties>
  </object>
  <object id="472" class="prop" gid="716" x="640" y="416" width="16" height="9">
   <properties>
    <property name="foreground" type="bool" value="true"/>
    <property name="noDestroy" type="bool" value="true"/>
    <property name="rotationMult" type="float" value="1"/>
    <property name="squib" type="int" value="-1"/>
    <property name="squibSE" value=""/>
    <property name="static" type="bool" value="true"/>
   </properties>
  </object>
  <object id="473" class="prop" gid="720" x="379" y="423" width="22" height="22">
   <properties>
    <property name="foreground" type="bool" value="true"/>
    <property name="noDestroy" type="bool" value="true"/>
    <property name="rotationMult" type="float" value="1"/>
    <property name="squib" type="int" value="-1"/>
    <property name="squibSE" value=""/>
    <property name="static" type="bool" value="true"/>
   </properties>
  </object>
  <object id="474" class="prop" gid="716" x="363" y="423" width="16" height="9">
   <properties>
    <property name="foreground" type="bool" value="true"/>
    <property name="noDestroy" type="bool" value="true"/>
    <property name="rotationMult" type="float" value="1"/>
    <property name="squib" type="int" value="-1"/>
    <property name="squibSE" value=""/>
    <property name="static" type="bool" value="true"/>
   </properties>
  </object>
  <object id="475" class="prop" gid="717" x="352" y="423" width="16" height="9">
   <properties>
    <property name="foreground" type="bool" value="true"/>
    <property name="noDestroy" type="bool" value="true"/>
    <property name="rotationMult" type="float" value="1"/>
    <property name="squib" type="int" value="-1"/>
    <property name="squibSE" value=""/>
    <property name="static" type="bool" value="true"/>
   </properties>
  </object>
  <object id="476" class="prop" gid="676" x="471" y="483" width="70" height="17">
   <properties>
    <property name="foreground" type="bool" value="true"/>
    <property name="noDestroy" type="bool" value="true"/>
    <property name="rotationMult" type="float" value="1"/>
    <property name="squib" type="int" value="-1"/>
    <property name="squibSE" value=""/>
    <property name="static" type="bool" value="true"/>
   </properties>
  </object>
  <object id="477" class="prop" gid="675" x="410" y="484" width="67" height="15">
   <properties>
    <property name="foreground" type="bool" value="true"/>
    <property name="noDestroy" type="bool" value="true"/>
    <property name="rotationMult" type="float" value="1"/>
    <property name="squib" type="int" value="-1"/>
    <property name="squibSE" value=""/>
    <property name="static" type="bool" value="true"/>
   </properties>
  </object>
  <object id="478" class="prop" gid="708" x="572" y="398" width="14" height="14">
   <properties>
    <property name="foreground" type="bool" value="true"/>
    <property name="noDestroy" type="bool" value="true"/>
    <property name="rotationMult" type="float" value="1"/>
    <property name="squib" type="int" value="-1"/>
    <property name="squibSE" value=""/>
    <property name="static" type="bool" value="true"/>
   </properties>
  </object>
  <object id="479" class="prop" gid="692" x="1053" y="332" width="22" height="32">
   <properties>
    <property name="foreground" type="bool" value="false"/>
    <property name="noDestroy" type="bool" value="true"/>
    <property name="rotationMult" type="float" value="1"/>
    <property name="squib" type="int" value="-1"/>
    <property name="squibSE" value=""/>
    <property name="static" type="bool" value="true"/>
   </properties>
  </object>
  <object id="480" class="prop" gid="499" x="1052" y="309" width="24" height="24">
   <properties>
    <property name="foreground" type="bool" value="false"/>
    <property name="noDestroy" type="bool" value="true"/>
    <property name="rotationMult" type="float" value="1"/>
    <property name="squib" type="int" value="-1"/>
    <property name="squibSE" value=""/>
    <property name="static" type="bool" value="true"/>
   </properties>
  </object>
  <object id="481" class="prop" gid="684" x="1024" y="321" width="14" height="48" rotation="90">
   <properties>
    <property name="foreground" type="bool" value="true"/>
    <property name="noDestroy" type="bool" value="true"/>
    <property name="rotationMult" type="float" value="1"/>
    <property name="squib" type="int" value="-1"/>
    <property name="squibSE" value=""/>
    <property name="static" type="bool" value="true"/>
   </properties>
  </object>
  <object id="482" class="prop" gid="684" x="1072" y="321" width="14" height="48" rotation="90">
   <properties>
    <property name="foreground" type="bool" value="true"/>
    <property name="noDestroy" type="bool" value="true"/>
    <property name="rotationMult" type="float" value="1"/>
    <property name="squib" type="int" value="-1"/>
    <property name="squibSE" value=""/>
    <property name="static" type="bool" value="true"/>
   </properties>
  </object>
  <object id="483" class="prop" gid="692" x="423" y="432" width="22" height="32">
   <properties>
    <property name="foreground" type="bool" value="false"/>
    <property name="noDestroy" type="bool" value="true"/>
    <property name="rotationMult" type="float" value="1"/>
    <property name="squib" type="int" value="-1"/>
    <property name="squibSE" value=""/>
    <property name="static" type="bool" value="true"/>
   </properties>
  </object>
  <object id="484" class="prop" gid="693" x="561" y="479" width="13" height="44">
   <properties>
    <property name="foreground" type="bool" value="false"/>
    <property name="noDestroy" type="bool" value="true"/>
    <property name="rotationMult" type="float" value="1"/>
    <property name="squib" type="int" value="-1"/>
    <property name="squibSE" value=""/>
    <property name="static" type="bool" value="true"/>
   </properties>
  </object>
  <object id="485" class="prop" gid="736" x="550" y="320" width="12" height="20">
   <properties>
    <property name="foreground" type="bool" value="true"/>
    <property name="noDestroy" type="bool" value="true"/>
    <property name="rotationMult" type="float" value="1"/>
    <property name="squib" type="int" value="-1"/>
    <property name="squibSE" value=""/>
    <property name="static" type="bool" value="true"/>
   </properties>
  </object>
  <object id="486" class="prop" gid="256" x="348" y="342" width="10" height="31">
   <properties>
    <property name="foreground" type="bool" value="false"/>
    <property name="noDestroy" type="bool" value="true"/>
    <property name="rotationMult" type="float" value="1"/>
    <property name="squib" type="int" value="-1"/>
    <property name="squibSE" value=""/>
    <property name="static" type="bool" value="true"/>
   </properties>
  </object>
  <object id="488" class="prop" gid="255" x="646" y="376" width="14" height="25">
   <properties>
    <property name="foreground" type="bool" value="true"/>
    <property name="noDestroy" type="bool" value="true"/>
    <property name="rotationMult" type="float" value="1"/>
    <property name="squib" type="int" value="-1"/>
    <property name="squibSE" value=""/>
    <property name="static" type="bool" value="true"/>
   </properties>
  </object>
  <object id="489" class="prop" gid="255" x="471" y="218" width="14" height="25" rotation="270">
   <properties>
    <property name="foreground" type="bool" value="true"/>
    <property name="noDestroy" type="bool" value="true"/>
    <property name="rotationMult" type="float" value="1"/>
    <property name="squib" type="int" value="-1"/>
    <property name="squibSE" value=""/>
    <property name="static" type="bool" value="true"/>
   </properties>
  </object>
  <object id="490" class="prop" gid="256" x="415" y="204" width="10" height="31" rotation="90">
   <properties>
    <property name="foreground" type="bool" value="false"/>
    <property name="noDestroy" type="bool" value="true"/>
    <property name="rotationMult" type="float" value="1"/>
    <property name="squib" type="int" value="-1"/>
    <property name="squibSE" value=""/>
    <property name="static" type="bool" value="true"/>
   </properties>
  </object>
  <object id="491" class="prop" gid="500" x="460" y="307" width="24" height="24">
   <properties>
    <property name="foreground" type="bool" value="false"/>
    <property name="noDestroy" type="bool" value="true"/>
    <property name="rotationMult" type="float" value="1"/>
    <property name="squib" type="int" value="-1"/>
    <property name="squibSE" value=""/>
    <property name="static" type="bool" value="true"/>
   </properties>
  </object>
  <object id="494" class="prop" gid="763" x="454" y="241" width="117" height="33">
   <properties>
    <property name="foreground" type="bool" value="true"/>
    <property name="noDestroy" type="bool" value="true"/>
    <property name="rotationMult" type="float" value="1"/>
    <property name="squib" type="int" value="-1"/>
    <property name="squibSE" value=""/>
    <property name="static" type="bool" value="true"/>
   </properties>
  </object>
  <object id="495" class="prop" gid="762" x="353" y="240" width="104" height="32">
   <properties>
    <property name="foreground" type="bool" value="true"/>
    <property name="noDestroy" type="bool" value="true"/>
    <property name="rotationMult" type="float" value="1"/>
    <property name="squib" type="int" value="-1"/>
    <property name="squibSE" value=""/>
    <property name="static" type="bool" value="true"/>
   </properties>
  </object>
  <object id="496" class="prop" gid="221" x="546" y="336" width="44" height="15">
   <properties>
    <property name="foreground" type="bool" value="true"/>
    <property name="noDestroy" type="bool" value="true"/>
    <property name="rotationMult" type="float" value="1"/>
    <property name="squib" type="int" value="-1"/>
    <property name="squibSE" value=""/>
    <property name="static" type="bool" value="true"/>
   </properties>
  </object>
  <object id="497" class="prop" gid="227" x="356" y="396" width="29" height="43">
   <properties>
    <property name="foreground" type="bool" value="true"/>
    <property name="noDestroy" type="bool" value="true"/>
    <property name="rotationMult" type="float" value="1"/>
    <property name="squib" type="int" value="-1"/>
    <property name="squibSE" value=""/>
    <property name="static" type="bool" value="true"/>
   </properties>
  </object>
  <object id="498" class="prop" gid="684" x="425" y="720" width="14" height="48">
   <properties>
    <property name="foreground" type="bool" value="true"/>
    <property name="noDestroy" type="bool" value="true"/>
    <property name="rotationMult" type="float" value="1"/>
    <property name="squib" type="int" value="-1"/>
    <property name="squibSE" value=""/>
    <property name="static" type="bool" value="true"/>
   </properties>
  </object>
  <object id="499" class="prop" gid="684" x="425" y="688" width="14" height="48">
   <properties>
    <property name="foreground" type="bool" value="true"/>
    <property name="noDestroy" type="bool" value="true"/>
    <property name="rotationMult" type="float" value="1"/>
    <property name="squib" type="int" value="-1"/>
    <property name="squibSE" value=""/>
    <property name="static" type="bool" value="true"/>
   </properties>
  </object>
  <object id="502" class="prop" gid="690" x="425" y="680" width="14" height="32">
   <properties>
    <property name="foreground" type="bool" value="false"/>
    <property name="noDestroy" type="bool" value="true"/>
    <property name="rotationMult" type="float" value="1"/>
    <property name="squib" type="int" value="-1"/>
    <property name="squibSE" value=""/>
    <property name="static" type="bool" value="true"/>
   </properties>
  </object>
  <object id="503" class="prop" gid="690" x="425" y="712" width="14" height="32">
   <properties>
    <property name="foreground" type="bool" value="false"/>
    <property name="noDestroy" type="bool" value="true"/>
    <property name="rotationMult" type="float" value="1"/>
    <property name="squib" type="int" value="-1"/>
    <property name="squibSE" value=""/>
    <property name="static" type="bool" value="true"/>
   </properties>
  </object>
  <object id="504" class="prop" gid="744" x="451" y="686" width="66" height="8">
   <properties>
    <property name="foreground" type="bool" value="false"/>
    <property name="noDestroy" type="bool" value="true"/>
    <property name="rotationMult" type="float" value="1"/>
    <property name="squib" type="int" value="-1"/>
    <property name="squibSE" value=""/>
    <property name="static" type="bool" value="true"/>
   </properties>
  </object>
  <object id="505" class="prop" gid="738" x="513" y="697" width="31" height="12" rotation="201.379">
   <properties>
    <property name="foreground" type="bool" value="false"/>
    <property name="noDestroy" type="bool" value="true"/>
    <property name="rotationMult" type="float" value="1"/>
    <property name="squib" type="int" value="-1"/>
    <property name="squibSE" value=""/>
    <property name="static" type="bool" value="true"/>
   </properties>
  </object>
  <object id="506" class="prop" gid="675" x="397" y="723" width="67" height="15">
   <properties>
    <property name="foreground" type="bool" value="true"/>
    <property name="noDestroy" type="bool" value="true"/>
    <property name="rotationMult" type="float" value="1"/>
    <property name="squib" type="int" value="-1"/>
    <property name="squibSE" value=""/>
    <property name="static" type="bool" value="true"/>
   </properties>
  </object>
  <object id="507" class="prop" gid="676" x="351" y="723" width="70" height="17">
   <properties>
    <property name="foreground" type="bool" value="true"/>
    <property name="noDestroy" type="bool" value="true"/>
    <property name="rotationMult" type="float" value="1"/>
    <property name="squib" type="int" value="-1"/>
    <property name="squibSE" value=""/>
    <property name="static" type="bool" value="true"/>
   </properties>
  </object>
  <object id="511" class="prop" gid="695" x="352" y="560" width="32" height="32">
   <properties>
    <property name="foreground" type="bool" value="false"/>
    <property name="noDestroy" type="bool" value="true"/>
    <property name="rotationMult" type="float" value="1"/>
    <property name="squib" type="int" value="-1"/>
    <property name="squibSE" value=""/>
    <property name="static" type="bool" value="true"/>
   </properties>
  </object>
  <object id="512" class="prop" gid="695" x="368" y="560" width="32" height="32">
   <properties>
    <property name="foreground" type="bool" value="false"/>
    <property name="noDestroy" type="bool" value="true"/>
    <property name="rotationMult" type="float" value="1"/>
    <property name="squib" type="int" value="-1"/>
    <property name="squibSE" value=""/>
    <property name="static" type="bool" value="true"/>
   </properties>
  </object>
  <object id="515" class="prop" gid="699" x="368" y="624" width="32" height="32">
   <properties>
    <property name="foreground" type="bool" value="false"/>
    <property name="noDestroy" type="bool" value="true"/>
    <property name="rotationMult" type="float" value="1"/>
    <property name="squib" type="int" value="-1"/>
    <property name="squibSE" value=""/>
    <property name="static" type="bool" value="true"/>
   </properties>
  </object>
  <object id="519" class="prop" gid="700" x="352" y="624" width="32" height="32">
   <properties>
    <property name="foreground" type="bool" value="false"/>
    <property name="noDestroy" type="bool" value="true"/>
    <property name="rotationMult" type="float" value="1"/>
    <property name="squib" type="int" value="-1"/>
    <property name="squibSE" value=""/>
    <property name="static" type="bool" value="true"/>
   </properties>
  </object>
  <object id="520" class="prop" gid="698" x="352" y="624" width="32" height="32">
   <properties>
    <property name="foreground" type="bool" value="false"/>
    <property name="noDestroy" type="bool" value="true"/>
    <property name="rotationMult" type="float" value="1"/>
    <property name="squib" type="int" value="-1"/>
    <property name="squibSE" value=""/>
    <property name="static" type="bool" value="true"/>
   </properties>
  </object>
  <object id="522" class="prop" gid="705" x="368" y="592" width="32" height="32">
   <properties>
    <property name="foreground" type="bool" value="false"/>
    <property name="noDestroy" type="bool" value="true"/>
    <property name="rotationMult" type="float" value="1"/>
    <property name="squib" type="int" value="-1"/>
    <property name="squibSE" value=""/>
    <property name="static" type="bool" value="true"/>
   </properties>
  </object>
  <object id="523" class="prop" gid="696" x="352" y="592" width="32" height="32">
   <properties>
    <property name="foreground" type="bool" value="false"/>
    <property name="noDestroy" type="bool" value="true"/>
    <property name="rotationMult" type="float" value="1"/>
    <property name="squib" type="int" value="-1"/>
    <property name="squibSE" value=""/>
    <property name="static" type="bool" value="true"/>
   </properties>
  </object>
  <object id="524" class="prop" gid="680" x="352" y="520" width="8" height="32" rotation="90">
   <properties>
    <property name="foreground" type="bool" value="false"/>
    <property name="noDestroy" type="bool" value="true"/>
    <property name="rotationMult" type="float" value="1"/>
    <property name="squib" type="int" value="-1"/>
    <property name="squibSE" value=""/>
    <property name="static" type="bool" value="true"/>
   </properties>
  </object>
  <object id="525" class="prop" gid="680" x="368" y="520" width="8" height="32" rotation="90">
   <properties>
    <property name="foreground" type="bool" value="false"/>
    <property name="noDestroy" type="bool" value="true"/>
    <property name="rotationMult" type="float" value="1"/>
    <property name="squib" type="int" value="-1"/>
    <property name="squibSE" value=""/>
    <property name="static" type="bool" value="true"/>
   </properties>
  </object>
  <object id="526" class="prop" gid="680" x="352" y="624" width="8" height="32" rotation="90">
   <properties>
    <property name="foreground" type="bool" value="false"/>
    <property name="noDestroy" type="bool" value="true"/>
    <property name="rotationMult" type="float" value="1"/>
    <property name="squib" type="int" value="-1"/>
    <property name="squibSE" value=""/>
    <property name="static" type="bool" value="true"/>
   </properties>
  </object>
  <object id="527" class="prop" gid="680" x="368" y="624" width="8" height="32" rotation="90">
   <properties>
    <property name="foreground" type="bool" value="false"/>
    <property name="noDestroy" type="bool" value="true"/>
    <property name="rotationMult" type="float" value="1"/>
    <property name="squib" type="int" value="-1"/>
    <property name="squibSE" value=""/>
    <property name="static" type="bool" value="true"/>
   </properties>
  </object>
  <object id="528" class="prop" gid="255" x="362" y="656" width="14" height="25" rotation="180">
   <properties>
    <property name="foreground" type="bool" value="true"/>
    <property name="noDestroy" type="bool" value="true"/>
    <property name="rotationMult" type="float" value="1"/>
    <property name="squib" type="int" value="-1"/>
    <property name="squibSE" value=""/>
    <property name="static" type="bool" value="true"/>
   </properties>
  </object>
  <object id="529" class="prop" gid="222" x="351" y="651" width="55" height="13">
   <properties>
    <property name="foreground" type="bool" value="true"/>
    <property name="noDestroy" type="bool" value="true"/>
    <property name="rotationMult" type="float" value="1"/>
    <property name="squib" type="int" value="-1"/>
    <property name="squibSE" value=""/>
    <property name="static" type="bool" value="true"/>
   </properties>
  </object>
  <object id="530" class="prop" gid="498" x="383" y="693" width="24" height="24">
   <properties>
    <property name="foreground" type="bool" value="false"/>
    <property name="noDestroy" type="bool" value="true"/>
    <property name="rotationMult" type="float" value="1"/>
    <property name="squib" type="int" value="-1"/>
    <property name="squibSE" value=""/>
    <property name="static" type="bool" value="true"/>
   </properties>
  </object>
  <object id="532" class="prop" gid="197" x="369" y="710" width="10" height="22">
   <properties>
    <property name="foreground" type="bool" value="false"/>
    <property name="noDestroy" type="bool" value="true"/>
    <property name="rotationMult" type="float" value="1"/>
    <property name="squib" type="int" value="-1"/>
    <property name="squibSE" value=""/>
    <property name="static" type="bool" value="true"/>
   </properties>
  </object>
  <object id="533" class="prop" gid="220" x="401" y="652" width="35" height="12">
   <properties>
    <property name="foreground" type="bool" value="true"/>
    <property name="noDestroy" type="bool" value="true"/>
    <property name="rotationMult" type="float" value="1"/>
    <property name="squib" type="int" value="-1"/>
    <property name="squibSE" value=""/>
    <property name="static" type="bool" value="true"/>
   </properties>
  </object>
  <object id="534" class="prop" gid="221" x="419" y="655" width="44" height="15">
   <properties>
    <property name="foreground" type="bool" value="true"/>
    <property name="noDestroy" type="bool" value="true"/>
    <property name="rotationMult" type="float" value="1"/>
    <property name="squib" type="int" value="-1"/>
    <property name="squibSE" value=""/>
    <property name="static" type="bool" value="true"/>
   </properties>
  </object>
  <object id="541" class="prop" gid="763" x="464" y="609" width="117" height="33">
   <properties>
    <property name="foreground" type="bool" value="true"/>
    <property name="noDestroy" type="bool" value="true"/>
    <property name="rotationMult" type="float" value="1"/>
    <property name="squib" type="int" value="-1"/>
    <property name="squibSE" value=""/>
    <property name="static" type="bool" value="true"/>
   </properties>
  </object>
  <object id="542" class="prop" gid="761" x="558" y="596" width="91" height="20">
   <properties>
    <property name="foreground" type="bool" value="true"/>
    <property name="noDestroy" type="bool" value="true"/>
    <property name="rotationMult" type="float" value="1"/>
    <property name="squib" type="int" value="-1"/>
    <property name="squibSE" value=""/>
    <property name="static" type="bool" value="true"/>
   </properties>
  </object>
  <object id="543" class="prop" gid="762" x="656" y="608" width="104" height="32">
   <properties>
    <property name="foreground" type="bool" value="true"/>
    <property name="noDestroy" type="bool" value="true"/>
    <property name="rotationMult" type="float" value="1"/>
    <property name="squib" type="int" value="-1"/>
    <property name="squibSE" value=""/>
    <property name="static" type="bool" value="true"/>
   </properties>
  </object>
  <object id="544" class="prop" gid="684" x="721" y="864" width="14" height="48">
   <properties>
    <property name="foreground" type="bool" value="true"/>
    <property name="noDestroy" type="bool" value="true"/>
    <property name="rotationMult" type="float" value="1"/>
    <property name="squib" type="int" value="-1"/>
    <property name="squibSE" value=""/>
    <property name="static" type="bool" value="true"/>
   </properties>
  </object>
  <object id="545" class="prop" gid="684" x="721" y="816" width="14" height="48">
   <properties>
    <property name="foreground" type="bool" value="true"/>
    <property name="noDestroy" type="bool" value="true"/>
    <property name="rotationMult" type="float" value="1"/>
    <property name="squib" type="int" value="-1"/>
    <property name="squibSE" value=""/>
    <property name="static" type="bool" value="true"/>
   </properties>
  </object>
  <object id="546" class="prop" gid="684" x="721" y="768" width="14" height="48">
   <properties>
    <property name="foreground" type="bool" value="true"/>
    <property name="noDestroy" type="bool" value="true"/>
    <property name="rotationMult" type="float" value="1"/>
    <property name="squib" type="int" value="-1"/>
    <property name="squibSE" value=""/>
    <property name="static" type="bool" value="true"/>
   </properties>
  </object>
  <object id="547" class="prop" gid="684" x="721" y="720" width="14" height="48">
   <properties>
    <property name="foreground" type="bool" value="true"/>
    <property name="noDestroy" type="bool" value="true"/>
    <property name="rotationMult" type="float" value="1"/>
    <property name="squib" type="int" value="-1"/>
    <property name="squibSE" value=""/>
    <property name="static" type="bool" value="true"/>
   </properties>
  </object>
  <object id="548" class="prop" gid="684" x="721" y="672" width="14" height="48">
   <properties>
    <property name="foreground" type="bool" value="true"/>
    <property name="noDestroy" type="bool" value="true"/>
    <property name="rotationMult" type="float" value="1"/>
    <property name="squib" type="int" value="-1"/>
    <property name="squibSE" value=""/>
    <property name="static" type="bool" value="true"/>
   </properties>
  </object>
  <object id="549" class="prop" gid="684" x="721" y="624" width="14" height="48">
   <properties>
    <property name="foreground" type="bool" value="true"/>
    <property name="noDestroy" type="bool" value="true"/>
    <property name="rotationMult" type="float" value="1"/>
    <property name="squib" type="int" value="-1"/>
    <property name="squibSE" value=""/>
    <property name="static" type="bool" value="true"/>
   </properties>
  </object>
  <object id="550" class="prop" gid="684" x="481" y="753" width="14" height="48" rotation="90">
   <properties>
    <property name="foreground" type="bool" value="true"/>
    <property name="noDestroy" type="bool" value="true"/>
    <property name="rotationMult" type="float" value="1"/>
    <property name="squib" type="int" value="-1"/>
    <property name="squibSE" value=""/>
    <property name="static" type="bool" value="true"/>
   </properties>
  </object>
  <object id="551" class="prop" gid="684" x="529" y="753" width="14" height="48" rotation="90">
   <properties>
    <property name="foreground" type="bool" value="true"/>
    <property name="noDestroy" type="bool" value="true"/>
    <property name="rotationMult" type="float" value="1"/>
    <property name="squib" type="int" value="-1"/>
    <property name="squibSE" value=""/>
    <property name="static" type="bool" value="true"/>
   </properties>
  </object>
  <object id="552" class="prop" gid="684" x="577" y="753" width="14" height="48" rotation="90">
   <properties>
    <property name="foreground" type="bool" value="true"/>
    <property name="noDestroy" type="bool" value="true"/>
    <property name="rotationMult" type="float" value="1"/>
    <property name="squib" type="int" value="-1"/>
    <property name="squibSE" value=""/>
    <property name="static" type="bool" value="true"/>
   </properties>
  </object>
  <object id="553" class="prop" gid="684" x="625" y="753" width="14" height="48" rotation="90">
   <properties>
    <property name="foreground" type="bool" value="true"/>
    <property name="noDestroy" type="bool" value="true"/>
    <property name="rotationMult" type="float" value="1"/>
    <property name="squib" type="int" value="-1"/>
    <property name="squibSE" value=""/>
    <property name="static" type="bool" value="true"/>
   </properties>
  </object>
  <object id="554" class="prop" gid="684" x="673" y="753" width="14" height="48" rotation="90">
   <properties>
    <property name="foreground" type="bool" value="true"/>
    <property name="noDestroy" type="bool" value="true"/>
    <property name="rotationMult" type="float" value="1"/>
    <property name="squib" type="int" value="-1"/>
    <property name="squibSE" value=""/>
    <property name="static" type="bool" value="true"/>
   </properties>
  </object>
  <object id="555" class="prop" gid="684" x="464" y="753" width="14" height="48" rotation="90">
   <properties>
    <property name="foreground" type="bool" value="true"/>
    <property name="noDestroy" type="bool" value="true"/>
    <property name="rotationMult" type="float" value="1"/>
    <property name="squib" type="int" value="-1"/>
    <property name="squibSE" value=""/>
    <property name="static" type="bool" value="true"/>
   </properties>
  </object>
  <object id="556" class="prop" gid="683" x="720" y="768" width="16" height="16">
   <properties>
    <property name="foreground" type="bool" value="true"/>
    <property name="noDestroy" type="bool" value="true"/>
    <property name="rotationMult" type="float" value="1"/>
    <property name="squib" type="int" value="-1"/>
    <property name="squibSE" value=""/>
    <property name="static" type="bool" value="true"/>
   </properties>
  </object>
  <object id="557" class="prop" gid="688" x="656" y="864" width="48" height="47">
   <properties>
    <property name="foreground" type="bool" value="false"/>
    <property name="noDestroy" type="bool" value="true"/>
    <property name="rotationMult" type="float" value="1"/>
    <property name="squib" type="int" value="-1"/>
    <property name="squibSE" value=""/>
    <property name="static" type="bool" value="true"/>
   </properties>
  </object>
  <object id="558" class="prop" gid="688" x="528" y="864" width="48" height="47">
   <properties>
    <property name="foreground" type="bool" value="false"/>
    <property name="noDestroy" type="bool" value="true"/>
    <property name="rotationMult" type="float" value="1"/>
    <property name="squib" type="int" value="-1"/>
    <property name="squibSE" value=""/>
    <property name="static" type="bool" value="true"/>
   </properties>
  </object>
  <object id="559" class="prop" gid="692" x="552" y="851" width="22" height="32">
   <properties>
    <property name="foreground" type="bool" value="false"/>
    <property name="noDestroy" type="bool" value="true"/>
    <property name="rotationMult" type="float" value="1"/>
    <property name="squib" type="int" value="-1"/>
    <property name="squibSE" value=""/>
    <property name="static" type="bool" value="true"/>
   </properties>
  </object>
  <object id="561" class="prop" gid="759" x="551" y="705" width="20" height="18">
   <properties>
    <property name="foreground" type="bool" value="false"/>
    <property name="noDestroy" type="bool" value="true"/>
    <property name="rotationMult" type="float" value="1"/>
    <property name="squib" type="int" value="-1"/>
    <property name="squibSE" value=""/>
    <property name="static" type="bool" value="true"/>
   </properties>
  </object>
  <object id="562" class="prop" gid="753" x="573" y="704" width="21" height="16">
   <properties>
    <property name="foreground" type="bool" value="false"/>
    <property name="noDestroy" type="bool" value="true"/>
    <property name="rotationMult" type="float" value="1"/>
    <property name="squib" type="int" value="-1"/>
    <property name="squibSE" value=""/>
    <property name="static" type="bool" value="true"/>
   </properties>
  </object>
  <object id="563" class="prop" gid="750" x="596" y="704" width="13" height="16">
   <properties>
    <property name="foreground" type="bool" value="false"/>
    <property name="noDestroy" type="bool" value="true"/>
    <property name="rotationMult" type="float" value="1"/>
    <property name="squib" type="int" value="-1"/>
    <property name="squibSE" value=""/>
    <property name="static" type="bool" value="true"/>
   </properties>
  </object>
  <object id="564" class="prop" gid="758" x="621" y="704" width="20" height="16">
   <properties>
    <property name="foreground" type="bool" value="false"/>
    <property name="noDestroy" type="bool" value="true"/>
    <property name="rotationMult" type="float" value="1"/>
    <property name="squib" type="int" value="-1"/>
    <property name="squibSE" value=""/>
    <property name="static" type="bool" value="true"/>
   </properties>
  </object>
  <object id="565" class="prop" gid="752" x="643" y="705" width="19" height="18">
   <properties>
    <property name="foreground" type="bool" value="false"/>
    <property name="noDestroy" type="bool" value="true"/>
    <property name="rotationMult" type="float" value="1"/>
    <property name="squib" type="int" value="-1"/>
    <property name="squibSE" value=""/>
    <property name="static" type="bool" value="true"/>
   </properties>
  </object>
  <object id="566" class="prop" gid="702" x="735" y="672" width="32" height="32">
   <properties>
    <property name="foreground" type="bool" value="true"/>
    <property name="noDestroy" type="bool" value="true"/>
    <property name="rotationMult" type="float" value="1"/>
    <property name="squib" type="int" value="-1"/>
    <property name="squibSE" value=""/>
    <property name="static" type="bool" value="true"/>
   </properties>
  </object>
  <object id="567" class="prop" gid="701" x="735" y="608" width="32" height="32">
   <properties>
    <property name="foreground" type="bool" value="true"/>
    <property name="noDestroy" type="bool" value="true"/>
    <property name="rotationMult" type="float" value="1"/>
    <property name="squib" type="int" value="-1"/>
    <property name="squibSE" value=""/>
    <property name="static" type="bool" value="true"/>
   </properties>
  </object>
  <object id="568" class="prop" gid="701" x="735" y="704" width="32" height="32">
   <properties>
    <property name="foreground" type="bool" value="true"/>
    <property name="noDestroy" type="bool" value="true"/>
    <property name="rotationMult" type="float" value="1"/>
    <property name="squib" type="int" value="-1"/>
    <property name="squibSE" value=""/>
    <property name="static" type="bool" value="true"/>
   </properties>
  </object>
  <object id="569" class="prop" gid="704" x="735" y="640" width="32" height="32">
   <properties>
    <property name="foreground" type="bool" value="true"/>
    <property name="noDestroy" type="bool" value="true"/>
    <property name="rotationMult" type="float" value="1"/>
    <property name="squib" type="int" value="-1"/>
    <property name="squibSE" value=""/>
    <property name="static" type="bool" value="true"/>
   </properties>
  </object>
  <object id="570" class="prop" gid="704" x="735" y="736" width="32" height="32">
   <properties>
    <property name="foreground" type="bool" value="true"/>
    <property name="noDestroy" type="bool" value="true"/>
    <property name="rotationMult" type="float" value="1"/>
    <property name="squib" type="int" value="-1"/>
    <property name="squibSE" value=""/>
    <property name="static" type="bool" value="true"/>
   </properties>
  </object>
  <object id="571" class="prop" gid="701" x="735" y="768" width="32" height="32">
   <properties>
    <property name="foreground" type="bool" value="true"/>
    <property name="noDestroy" type="bool" value="true"/>
    <property name="rotationMult" type="float" value="1"/>
    <property name="squib" type="int" value="-1"/>
    <property name="squibSE" value=""/>
    <property name="static" type="bool" value="true"/>
   </properties>
  </object>
  <object id="572" class="prop" gid="701" x="735" y="800" width="32" height="32">
   <properties>
    <property name="foreground" type="bool" value="true"/>
    <property name="noDestroy" type="bool" value="true"/>
    <property name="rotationMult" type="float" value="1"/>
    <property name="squib" type="int" value="-1"/>
    <property name="squibSE" value=""/>
    <property name="static" type="bool" value="true"/>
   </properties>
  </object>
  <object id="573" class="prop" gid="702" x="735" y="832" width="32" height="32">
   <properties>
    <property name="foreground" type="bool" value="true"/>
    <property name="noDestroy" type="bool" value="true"/>
    <property name="rotationMult" type="float" value="1"/>
    <property name="squib" type="int" value="-1"/>
    <property name="squibSE" value=""/>
    <property name="static" type="bool" value="true"/>
   </properties>
  </object>
  <object id="574" class="prop" gid="704" x="735" y="864" width="32" height="32">
   <properties>
    <property name="foreground" type="bool" value="true"/>
    <property name="noDestroy" type="bool" value="true"/>
    <property name="rotationMult" type="float" value="1"/>
    <property name="squib" type="int" value="-1"/>
    <property name="squibSE" value=""/>
    <property name="static" type="bool" value="true"/>
   </properties>
  </object>
  <object id="575" class="prop" gid="678" x="576" y="866" width="45" height="13">
   <properties>
    <property name="foreground" type="bool" value="true"/>
    <property name="noDestroy" type="bool" value="true"/>
    <property name="rotationMult" type="float" value="1"/>
    <property name="squib" type="int" value="-1"/>
    <property name="squibSE" value=""/>
    <property name="static" type="bool" value="true"/>
   </properties>
  </object>
  <object id="576" class="prop" gid="675" x="614" y="868" width="67" height="15">
   <properties>
    <property name="foreground" type="bool" value="true"/>
    <property name="noDestroy" type="bool" value="true"/>
    <property name="rotationMult" type="float" value="1"/>
    <property name="squib" type="int" value="-1"/>
    <property name="squibSE" value=""/>
    <property name="static" type="bool" value="true"/>
   </properties>
  </object>
  <object id="577" class="prop" gid="676" x="464" y="868" width="70" height="17">
   <properties>
    <property name="foreground" type="bool" value="true"/>
    <property name="noDestroy" type="bool" value="true"/>
    <property name="rotationMult" type="float" value="1"/>
    <property name="squib" type="int" value="-1"/>
    <property name="squibSE" value=""/>
    <property name="static" type="bool" value="true"/>
   </properties>
  </object>
  <object id="578" class="prop" gid="687" x="774" y="864" width="18" height="32">
   <properties>
    <property name="foreground" type="bool" value="false"/>
    <property name="noDestroy" type="bool" value="true"/>
    <property name="rotationMult" type="float" value="1"/>
    <property name="squib" type="int" value="-1"/>
    <property name="squibSE" value=""/>
    <property name="static" type="bool" value="true"/>
   </properties>
  </object>
  <object id="579" class="prop" gid="687" x="543" y="656" width="18" height="32">
   <properties>
    <property name="foreground" type="bool" value="false"/>
    <property name="noDestroy" type="bool" value="true"/>
    <property name="rotationMult" type="float" value="1"/>
    <property name="squib" type="int" value="-1"/>
    <property name="squibSE" value=""/>
    <property name="static" type="bool" value="true"/>
   </properties>
  </object>
  <object id="581" class="prop" gid="725" x="757" y="751" width="45" height="47">
   <properties>
    <property name="foreground" type="bool" value="true"/>
    <property name="noDestroy" type="bool" value="true"/>
    <property name="rotationMult" type="float" value="1"/>
    <property name="squib" type="int" value="-1"/>
    <property name="squibSE" value=""/>
    <property name="static" type="bool" value="true"/>
   </properties>
  </object>
  <object id="582" class="prop" gid="722" x="464" y="751" width="64" height="19">
   <properties>
    <property name="foreground" type="bool" value="true"/>
    <property name="noDestroy" type="bool" value="true"/>
    <property name="rotationMult" type="float" value="1"/>
    <property name="squib" type="int" value="-1"/>
    <property name="squibSE" value=""/>
    <property name="static" type="bool" value="true"/>
   </properties>
  </object>
  <object id="584" class="prop" gid="723" x="528" y="751" width="64" height="19">
   <properties>
    <property name="foreground" type="bool" value="true"/>
    <property name="noDestroy" type="bool" value="true"/>
    <property name="rotationMult" type="float" value="1"/>
    <property name="squib" type="int" value="-1"/>
    <property name="squibSE" value=""/>
    <property name="static" type="bool" value="true"/>
   </properties>
  </object>
  <object id="585" class="prop" gid="727" x="592" y="751" width="63" height="19">
   <properties>
    <property name="foreground" type="bool" value="true"/>
    <property name="noDestroy" type="bool" value="true"/>
    <property name="rotationMult" type="float" value="1"/>
    <property name="squib" type="int" value="-1"/>
    <property name="squibSE" value=""/>
    <property name="static" type="bool" value="true"/>
   </properties>
  </object>
  <object id="586" class="prop" gid="722" x="655" y="751" width="64" height="19">
   <properties>
    <property name="foreground" type="bool" value="true"/>
    <property name="noDestroy" type="bool" value="true"/>
    <property name="rotationMult" type="float" value="1"/>
    <property name="squib" type="int" value="-1"/>
    <property name="squibSE" value=""/>
    <property name="static" type="bool" value="true"/>
   </properties>
  </object>
  <object id="587" class="prop" gid="722" x="693" y="751" width="64" height="19">
   <properties>
    <property name="foreground" type="bool" value="true"/>
    <property name="noDestroy" type="bool" value="true"/>
    <property name="rotationMult" type="float" value="1"/>
    <property name="squib" type="int" value="-1"/>
    <property name="squibSE" value=""/>
    <property name="static" type="bool" value="true"/>
   </properties>
  </object>
  <object id="588" class="prop" gid="723" x="802" y="704" width="64" height="19" rotation="270">
   <properties>
    <property name="foreground" type="bool" value="true"/>
    <property name="noDestroy" type="bool" value="true"/>
    <property name="rotationMult" type="float" value="1"/>
    <property name="squib" type="int" value="-1"/>
    <property name="squibSE" value=""/>
    <property name="static" type="bool" value="true"/>
   </properties>
  </object>
  <object id="590" class="prop" gid="746" x="559" y="745" width="43" height="7">
   <properties>
    <property name="foreground" type="bool" value="true"/>
    <property name="noDestroy" type="bool" value="true"/>
    <property name="rotationMult" type="float" value="1"/>
    <property name="squib" type="int" value="-1"/>
    <property name="squibSE" value=""/>
    <property name="static" type="bool" value="true"/>
   </properties>
  </object>
  <object id="592" class="prop" gid="708" x="786" y="700" width="14" height="14">
   <properties>
    <property name="foreground" type="bool" value="true"/>
    <property name="noDestroy" type="bool" value="true"/>
    <property name="rotationMult" type="float" value="1"/>
    <property name="squib" type="int" value="-1"/>
    <property name="squibSE" value=""/>
    <property name="static" type="bool" value="true"/>
   </properties>
  </object>
  <object id="593" class="prop" gid="222" x="564" y="779" width="55" height="13">
   <properties>
    <property name="foreground" type="bool" value="true"/>
    <property name="noDestroy" type="bool" value="true"/>
    <property name="rotationMult" type="float" value="1"/>
    <property name="squib" type="int" value="-1"/>
    <property name="squibSE" value=""/>
    <property name="static" type="bool" value="true"/>
   </properties>
  </object>
  <object id="594" class="prop" gid="220" x="617" y="778" width="35" height="12">
   <properties>
    <property name="foreground" type="bool" value="true"/>
    <property name="noDestroy" type="bool" value="true"/>
    <property name="rotationMult" type="float" value="1"/>
    <property name="squib" type="int" value="-1"/>
    <property name="squibSE" value=""/>
    <property name="static" type="bool" value="true"/>
   </properties>
  </object>
  <object id="595" class="prop" gid="221" x="636" y="782" width="44" height="15">
   <properties>
    <property name="foreground" type="bool" value="true"/>
    <property name="noDestroy" type="bool" value="true"/>
    <property name="rotationMult" type="float" value="1"/>
    <property name="squib" type="int" value="-1"/>
    <property name="squibSE" value=""/>
    <property name="static" type="bool" value="true"/>
   </properties>
  </object>
  <object id="596" class="prop" gid="500" x="613" y="636" width="24" height="24">
   <properties>
    <property name="foreground" type="bool" value="false"/>
    <property name="noDestroy" type="bool" value="true"/>
    <property name="rotationMult" type="float" value="1"/>
    <property name="squib" type="int" value="-1"/>
    <property name="squibSE" value=""/>
    <property name="static" type="bool" value="true"/>
   </properties>
  </object>
  <object id="597" class="prop" gid="693" x="484" y="620" width="13" height="44">
   <properties>
    <property name="foreground" type="bool" value="false"/>
    <property name="noDestroy" type="bool" value="true"/>
    <property name="rotationMult" type="float" value="1"/>
    <property name="squib" type="int" value="-1"/>
    <property name="squibSE" value=""/>
    <property name="static" type="bool" value="true"/>
   </properties>
  </object>
  <object id="598" class="prop" gid="694" x="495" y="602" width="11" height="26">
   <properties>
    <property name="foreground" type="bool" value="false"/>
    <property name="noDestroy" type="bool" value="true"/>
    <property name="rotationMult" type="float" value="1"/>
    <property name="squib" type="int" value="-1"/>
    <property name="squibSE" value=""/>
    <property name="static" type="bool" value="true"/>
   </properties>
  </object>
  <object id="599" class="prop" gid="736" x="793" y="864" width="12" height="20">
   <properties>
    <property name="foreground" type="bool" value="false"/>
    <property name="noDestroy" type="bool" value="true"/>
    <property name="rotationMult" type="float" value="1"/>
    <property name="squib" type="int" value="-1"/>
    <property name="squibSE" value=""/>
    <property name="static" type="bool" value="true"/>
   </properties>
  </object>
  <object id="600" class="prop" gid="218" x="478" y="795" width="47" height="33">
   <properties>
    <property name="foreground" type="bool" value="true"/>
    <property name="noDestroy" type="bool" value="true"/>
    <property name="rotationMult" type="float" value="1"/>
    <property name="squib" type="int" value="-1"/>
    <property name="squibSE" value=""/>
    <property name="static" type="bool" value="true"/>
   </properties>
  </object>
  <object id="601" class="prop" gid="220" x="527" y="778" width="35" height="12">
   <properties>
    <property name="foreground" type="bool" value="true"/>
    <property name="noDestroy" type="bool" value="true"/>
    <property name="rotationMult" type="float" value="1"/>
    <property name="squib" type="int" value="-1"/>
    <property name="squibSE" value=""/>
    <property name="static" type="bool" value="true"/>
   </properties>
  </object>
  <object id="602" class="prop" gid="221" x="546" y="782" width="44" height="15">
   <properties>
    <property name="foreground" type="bool" value="true"/>
    <property name="noDestroy" type="bool" value="true"/>
    <property name="rotationMult" type="float" value="1"/>
    <property name="squib" type="int" value="-1"/>
    <property name="squibSE" value=""/>
    <property name="static" type="bool" value="true"/>
   </properties>
  </object>
  <object id="603" class="prop" gid="227" x="667" y="809" width="29" height="43">
   <properties>
    <property name="foreground" type="bool" value="true"/>
    <property name="noDestroy" type="bool" value="true"/>
    <property name="rotationMult" type="float" value="1"/>
    <property name="squib" type="int" value="-1"/>
    <property name="squibSE" value=""/>
    <property name="static" type="bool" value="true"/>
   </properties>
  </object>
  <object id="604" class="prop" gid="228" x="601" y="805" width="20" height="38">
   <properties>
    <property name="foreground" type="bool" value="true"/>
    <property name="noDestroy" type="bool" value="true"/>
    <property name="rotationMult" type="float" value="1"/>
    <property name="squib" type="int" value="-1"/>
    <property name="squibSE" value=""/>
    <property name="static" type="bool" value="true"/>
   </properties>
  </object>
  <object id="607" class="prop" gid="677" x="710" y="866" width="48" height="14">
   <properties>
    <property name="foreground" type="bool" value="true"/>
    <property name="noDestroy" type="bool" value="true"/>
    <property name="rotationMult" type="float" value="1"/>
    <property name="squib" type="int" value="-1"/>
    <property name="squibSE" value=""/>
    <property name="static" type="bool" value="true"/>
   </properties>
  </object>
  <object id="608" class="prop" gid="678" x="621" y="658" width="45" height="13">
   <properties>
    <property name="foreground" type="bool" value="true"/>
    <property name="noDestroy" type="bool" value="true"/>
    <property name="rotationMult" type="float" value="1"/>
    <property name="squib" type="int" value="-1"/>
    <property name="squibSE" value=""/>
    <property name="static" type="bool" value="true"/>
   </properties>
  </object>
  <object id="610" class="prop" gid="256" x="634" y="572" width="10" height="31" rotation="90">
   <properties>
    <property name="foreground" type="bool" value="false"/>
    <property name="noDestroy" type="bool" value="true"/>
    <property name="rotationMult" type="float" value="1"/>
    <property name="squib" type="int" value="-1"/>
    <property name="squibSE" value=""/>
    <property name="static" type="bool" value="true"/>
   </properties>
  </object>
  <object id="611" class="prop" gid="256" x="460" y="822" width="10" height="31">
   <properties>
    <property name="foreground" type="bool" value="false"/>
    <property name="noDestroy" type="bool" value="true"/>
    <property name="rotationMult" type="float" value="1"/>
    <property name="squib" type="int" value="-1"/>
    <property name="squibSE" value=""/>
    <property name="static" type="bool" value="true"/>
   </properties>
  </object>
  <object id="612" class="prop" gid="255" x="474" y="610" width="14" height="25" rotation="180">
   <properties>
    <property name="foreground" type="bool" value="true"/>
    <property name="noDestroy" type="bool" value="true"/>
    <property name="rotationMult" type="float" value="1"/>
    <property name="squib" type="int" value="-1"/>
    <property name="squibSE" value=""/>
    <property name="static" type="bool" value="true"/>
   </properties>
  </object>
  <object id="613" class="prop" gid="677" x="526" y="867" width="48" height="14">
   <properties>
    <property name="foreground" type="bool" value="true"/>
    <property name="noDestroy" type="bool" value="true"/>
    <property name="rotationMult" type="float" value="1"/>
    <property name="squib" type="int" value="-1"/>
    <property name="squibSE" value=""/>
    <property name="static" type="bool" value="true"/>
   </properties>
  </object>
  <object id="614" class="prop" gid="677" x="463" y="862" width="48" height="14">
   <properties>
    <property name="foreground" type="bool" value="true"/>
    <property name="noDestroy" type="bool" value="true"/>
    <property name="rotationMult" type="float" value="1"/>
    <property name="squib" type="int" value="-1"/>
    <property name="squibSE" value=""/>
    <property name="static" type="bool" value="true"/>
   </properties>
  </object>
  <object id="615" class="prop" gid="675" x="462" y="860" width="67" height="15">
   <properties>
    <property name="foreground" type="bool" value="true"/>
    <property name="noDestroy" type="bool" value="true"/>
    <property name="rotationMult" type="float" value="1"/>
    <property name="squib" type="int" value="-1"/>
    <property name="squibSE" value=""/>
    <property name="static" type="bool" value="true"/>
   </properties>
  </object>
  <object id="616" class="prop" gid="225" x="476" y="815" width="5" height="48">
   <properties>
    <property name="foreground" type="bool" value="true"/>
    <property name="noDestroy" type="bool" value="true"/>
    <property name="rotationMult" type="float" value="1"/>
    <property name="squib" type="int" value="-1"/>
    <property name="squibSE" value=""/>
    <property name="static" type="bool" value="true"/>
   </properties>
  </object>
  <object id="617" class="prop" gid="225" x="477" y="863" width="5" height="48">
   <properties>
    <property name="foreground" type="bool" value="true"/>
    <property name="noDestroy" type="bool" value="true"/>
    <property name="rotationMult" type="float" value="1"/>
    <property name="squib" type="int" value="-1"/>
    <property name="squibSE" value=""/>
    <property name="static" type="bool" value="true"/>
   </properties>
  </object>
  <object id="619" class="prop" gid="728" x="800" y="633" width="16" height="9">
   <properties>
    <property name="foreground" type="bool" value="true"/>
    <property name="noDestroy" type="bool" value="true"/>
    <property name="rotationMult" type="float" value="1"/>
    <property name="squib" type="int" value="-1"/>
    <property name="squibSE" value=""/>
    <property name="static" type="bool" value="true"/>
   </properties>
  </object>
  <object id="620" class="prop" gid="722" x="802" y="640" width="64" height="19" rotation="270">
   <properties>
    <property name="foreground" type="bool" value="true"/>
    <property name="noDestroy" type="bool" value="true"/>
    <property name="rotationMult" type="float" value="1"/>
    <property name="squib" type="int" value="-1"/>
    <property name="squibSE" value=""/>
    <property name="static" type="bool" value="true"/>
   </properties>
  </object>
  <object id="622" class="prop" gid="728" x="802" y="662" width="16" height="9">
   <properties>
    <property name="foreground" type="bool" value="true"/>
    <property name="noDestroy" type="bool" value="true"/>
    <property name="rotationMult" type="float" value="1"/>
    <property name="squib" type="int" value="-1"/>
    <property name="squibSE" value=""/>
    <property name="static" type="bool" value="true"/>
   </properties>
  </object>
  <object id="623" class="prop" gid="729" x="818" y="662" width="16" height="9">
   <properties>
    <property name="foreground" type="bool" value="true"/>
    <property name="noDestroy" type="bool" value="true"/>
    <property name="rotationMult" type="float" value="1"/>
    <property name="squib" type="int" value="-1"/>
    <property name="squibSE" value=""/>
    <property name="static" type="bool" value="true"/>
   </properties>
  </object>
  <object id="624" class="prop" gid="225" x="817" y="734" width="5" height="48">
   <properties>
    <property name="foreground" type="bool" value="true"/>
    <property name="noDestroy" type="bool" value="true"/>
    <property name="rotationMult" type="float" value="1"/>
    <property name="squib" type="int" value="-1"/>
    <property name="squibSE" value=""/>
    <property name="static" type="bool" value="true"/>
   </properties>
  </object>
  <object id="625" class="prop" gid="730" x="834" y="662" width="16" height="9">
   <properties>
    <property name="foreground" type="bool" value="true"/>
    <property name="noDestroy" type="bool" value="true"/>
    <property name="rotationMult" type="float" value="1"/>
    <property name="squib" type="int" value="-1"/>
    <property name="squibSE" value=""/>
    <property name="static" type="bool" value="true"/>
   </properties>
  </object>
  <object id="626" class="prop" gid="728" x="850" y="662" width="16" height="9">
   <properties>
    <property name="foreground" type="bool" value="true"/>
    <property name="noDestroy" type="bool" value="true"/>
    <property name="rotationMult" type="float" value="1"/>
    <property name="squib" type="int" value="-1"/>
    <property name="squibSE" value=""/>
    <property name="static" type="bool" value="true"/>
   </properties>
  </object>
  <object id="627" class="prop" gid="729" x="866" y="662" width="16" height="9">
   <properties>
    <property name="foreground" type="bool" value="true"/>
    <property name="noDestroy" type="bool" value="true"/>
    <property name="rotationMult" type="float" value="1"/>
    <property name="squib" type="int" value="-1"/>
    <property name="squibSE" value=""/>
    <property name="static" type="bool" value="true"/>
   </properties>
  </object>
  <object id="628" class="prop" gid="730" x="882" y="662" width="16" height="9">
   <properties>
    <property name="foreground" type="bool" value="true"/>
    <property name="noDestroy" type="bool" value="true"/>
    <property name="rotationMult" type="float" value="1"/>
    <property name="squib" type="int" value="-1"/>
    <property name="squibSE" value=""/>
    <property name="static" type="bool" value="true"/>
   </properties>
  </object>
  <object id="631" class="prop" gid="226" x="817" y="687" width="7" height="48">
   <properties>
    <property name="foreground" type="bool" value="true"/>
    <property name="noDestroy" type="bool" value="true"/>
    <property name="rotationMult" type="float" value="1"/>
    <property name="squib" type="int" value="-1"/>
    <property name="squibSE" value=""/>
    <property name="static" type="bool" value="true"/>
   </properties>
  </object>
  <object id="632" class="prop" gid="255" x="841" y="650" width="14" height="25" rotation="270">
   <properties>
    <property name="foreground" type="bool" value="true"/>
    <property name="noDestroy" type="bool" value="true"/>
    <property name="rotationMult" type="float" value="1"/>
    <property name="squib" type="int" value="-1"/>
    <property name="squibSE" value=""/>
    <property name="static" type="bool" value="true"/>
   </properties>
  </object>
  <object id="633" class="prop" gid="732" x="898" y="662" width="22" height="22">
   <properties>
    <property name="foreground" type="bool" value="true"/>
    <property name="noDestroy" type="bool" value="true"/>
    <property name="rotationMult" type="float" value="1"/>
    <property name="squib" type="int" value="-1"/>
    <property name="squibSE" value=""/>
    <property name="static" type="bool" value="true"/>
   </properties>
  </object>
  <object id="634" class="prop" gid="733" x="802" y="677" width="38" height="14">
   <properties>
    <property name="foreground" type="bool" value="true"/>
    <property name="noDestroy" type="bool" value="true"/>
    <property name="rotationMult" type="float" value="1"/>
    <property name="squib" type="int" value="-1"/>
    <property name="squibSE" value=""/>
    <property name="static" type="bool" value="true"/>
   </properties>
  </object>
  <object id="635" class="prop" gid="709" x="861" y="666" width="6" height="4">
   <properties>
    <property name="foreground" type="bool" value="true"/>
    <property name="noDestroy" type="bool" value="true"/>
    <property name="rotationMult" type="float" value="1"/>
    <property name="squib" type="int" value="-1"/>
    <property name="squibSE" value=""/>
    <property name="static" type="bool" value="true"/>
   </properties>
  </object>
  <object id="636" class="prop" gid="709" x="872" y="666" width="6" height="4">
   <properties>
    <property name="foreground" type="bool" value="true"/>
    <property name="noDestroy" type="bool" value="true"/>
    <property name="rotationMult" type="float" value="1"/>
    <property name="squib" type="int" value="-1"/>
    <property name="squibSE" value=""/>
    <property name="static" type="bool" value="true"/>
   </properties>
  </object>
  <object id="637" class="prop" gid="709" x="883" y="666" width="6" height="4">
   <properties>
    <property name="foreground" type="bool" value="true"/>
    <property name="noDestroy" type="bool" value="true"/>
    <property name="rotationMult" type="float" value="1"/>
    <property name="squib" type="int" value="-1"/>
    <property name="squibSE" value=""/>
    <property name="static" type="bool" value="true"/>
   </properties>
  </object>
  <object id="638" class="prop" gid="709" x="894" y="666" width="6" height="4">
   <properties>
    <property name="foreground" type="bool" value="true"/>
    <property name="noDestroy" type="bool" value="true"/>
    <property name="rotationMult" type="float" value="1"/>
    <property name="squib" type="int" value="-1"/>
    <property name="squibSE" value=""/>
    <property name="static" type="bool" value="true"/>
   </properties>
  </object>
  <object id="640" class="prop" gid="747" x="946" y="652" width="33" height="12">
   <properties>
    <property name="foreground" type="bool" value="true"/>
    <property name="noDestroy" type="bool" value="true"/>
    <property name="rotationMult" type="float" value="1"/>
    <property name="squib" type="int" value="-1"/>
    <property name="squibSE" value=""/>
    <property name="static" type="bool" value="true"/>
   </properties>
  </object>
  <object id="641" class="prop" gid="748" x="932" y="643" width="14" height="14" rotation="90">
   <properties>
    <property name="foreground" type="bool" value="true"/>
    <property name="noDestroy" type="bool" value="true"/>
    <property name="rotationMult" type="float" value="1"/>
    <property name="squib" type="int" value="-1"/>
    <property name="squibSE" value=""/>
    <property name="static" type="bool" value="true"/>
   </properties>
  </object>
  <object id="643" class="prop" gid="749" x="928" y="657" width="7" height="17" rotation="90">
   <properties>
    <property name="foreground" type="bool" value="true"/>
    <property name="noDestroy" type="bool" value="true"/>
    <property name="rotationMult" type="float" value="1"/>
    <property name="squib" type="int" value="-1"/>
    <property name="squibSE" value=""/>
    <property name="static" type="bool" value="true"/>
   </properties>
  </object>
  <object id="646" class="prop" gid="748" x="1059" y="652" width="14" height="14" rotation="270">
   <properties>
    <property name="foreground" type="bool" value="true"/>
    <property name="noDestroy" type="bool" value="true"/>
    <property name="rotationMult" type="float" value="1"/>
    <property name="squib" type="int" value="-1"/>
    <property name="squibSE" value=""/>
    <property name="static" type="bool" value="true"/>
   </properties>
  </object>
  <object id="647" class="prop" gid="255" x="1067" y="650" width="14" height="25" rotation="270">
   <properties>
    <property name="foreground" type="bool" value="true"/>
    <property name="noDestroy" type="bool" value="true"/>
    <property name="rotationMult" type="float" value="1"/>
    <property name="squib" type="int" value="-1"/>
    <property name="squibSE" value=""/>
    <property name="static" type="bool" value="true"/>
   </properties>
  </object>
  <object id="648" class="prop" gid="678" x="851" y="834" width="45" height="13" rotation="313.885">
   <properties>
    <property name="foreground" type="bool" value="true"/>
    <property name="noDestroy" type="bool" value="true"/>
    <property name="rotationMult" type="float" value="1"/>
    <property name="squib" type="int" value="-1"/>
    <property name="squibSE" value=""/>
    <property name="static" type="bool" value="true"/>
   </properties>
  </object>
  <object id="649" class="prop" gid="675" x="886" y="800" width="67" height="15" rotation="313.885">
   <properties>
    <property name="foreground" type="bool" value="true"/>
    <property name="noDestroy" type="bool" value="true"/>
    <property name="rotationMult" type="float" value="1"/>
    <property name="squib" type="int" value="-1"/>
    <property name="squibSE" value=""/>
    <property name="static" type="bool" value="true"/>
   </properties>
  </object>
  <object id="650" class="prop" gid="677" x="944" y="740" width="48" height="14" rotation="315">
   <properties>
    <property name="foreground" type="bool" value="true"/>
    <property name="noDestroy" type="bool" value="true"/>
    <property name="rotationMult" type="float" value="1"/>
    <property name="squib" type="int" value="-1"/>
    <property name="squibSE" value=""/>
    <property name="static" type="bool" value="true"/>
   </properties>
  </object>
  <object id="651" class="prop" gid="705" x="1024" y="704" width="32" height="32" rotation="270">
   <properties>
    <property name="foreground" type="bool" value="false"/>
    <property name="noDestroy" type="bool" value="true"/>
    <property name="rotationMult" type="float" value="1"/>
    <property name="squib" type="int" value="-1"/>
    <property name="squibSE" value=""/>
    <property name="static" type="bool" value="true"/>
   </properties>
  </object>
  <object id="652" class="prop" gid="705" x="1024" y="672" width="32" height="32" rotation="270">
   <properties>
    <property name="foreground" type="bool" value="false"/>
    <property name="noDestroy" type="bool" value="true"/>
    <property name="rotationMult" type="float" value="1"/>
    <property name="squib" type="int" value="-1"/>
    <property name="squibSE" value=""/>
    <property name="static" type="bool" value="true"/>
   </properties>
  </object>
  <object id="655" class="prop" gid="747" x="979" y="652" width="33" height="12">
   <properties>
    <property name="foreground" type="bool" value="true"/>
    <property name="noDestroy" type="bool" value="true"/>
    <property name="rotationMult" type="float" value="1"/>
    <property name="squib" type="int" value="-1"/>
    <property name="squibSE" value=""/>
    <property name="static" type="bool" value="true"/>
   </properties>
  </object>
  <object id="656" class="prop" gid="747" x="1012" y="652" width="33" height="12">
   <properties>
    <property name="foreground" type="bool" value="true"/>
    <property name="noDestroy" type="bool" value="true"/>
    <property name="rotationMult" type="float" value="1"/>
    <property name="squib" type="int" value="-1"/>
    <property name="squibSE" value=""/>
    <property name="static" type="bool" value="true"/>
   </properties>
  </object>
  <object id="657" class="prop" gid="221" x="900" y="654" width="44" height="15">
   <properties>
    <property name="foreground" type="bool" value="true"/>
    <property name="noDestroy" type="bool" value="true"/>
    <property name="rotationMult" type="float" value="1"/>
    <property name="squib" type="int" value="-1"/>
    <property name="squibSE" value=""/>
    <property name="static" type="bool" value="true"/>
   </properties>
  </object>
  <object id="658" class="prop" gid="218" x="861" y="667" width="47" height="33">
   <properties>
    <property name="foreground" type="bool" value="true"/>
    <property name="noDestroy" type="bool" value="true"/>
    <property name="rotationMult" type="float" value="1"/>
    <property name="squib" type="int" value="-1"/>
    <property name="squibSE" value=""/>
    <property name="static" type="bool" value="true"/>
   </properties>
  </object>
  <object id="659" class="prop" gid="221" x="1043" y="654" width="44" height="15">
   <properties>
    <property name="foreground" type="bool" value="true"/>
    <property name="noDestroy" type="bool" value="true"/>
    <property name="rotationMult" type="float" value="1"/>
    <property name="squib" type="int" value="-1"/>
    <property name="squibSE" value=""/>
    <property name="static" type="bool" value="true"/>
   </properties>
  </object>
  <object id="660" class="prop" gid="693" x="858" y="763" width="13" height="44">
   <properties>
    <property name="foreground" type="bool" value="false"/>
    <property name="noDestroy" type="bool" value="true"/>
    <property name="rotationMult" type="float" value="1"/>
    <property name="squib" type="int" value="-1"/>
    <property name="squibSE" value=""/>
    <property name="static" type="bool" value="true"/>
   </properties>
  </object>
  <object id="661" class="prop" gid="499" x="852" y="722" width="24" height="24">
   <properties>
    <property name="foreground" type="bool" value="false"/>
    <property name="noDestroy" type="bool" value="true"/>
    <property name="rotationMult" type="float" value="1"/>
    <property name="squib" type="int" value="-1"/>
    <property name="squibSE" value=""/>
    <property name="static" type="bool" value="true"/>
   </properties>
  </object>
  <object id="662" class="prop" gid="689" x="1046" y="704" width="18" height="32">
   <properties>
    <property name="foreground" type="bool" value="false"/>
    <property name="noDestroy" type="bool" value="true"/>
    <property name="rotationMult" type="float" value="1"/>
    <property name="squib" type="int" value="-1"/>
    <property name="squibSE" value=""/>
    <property name="static" type="bool" value="true"/>
   </properties>
  </object>
  <object id="663" class="prop" gid="687" x="1110" y="784" width="18" height="32">
   <properties>
    <property name="foreground" type="bool" value="false"/>
    <property name="noDestroy" type="bool" value="true"/>
    <property name="rotationMult" type="float" value="1"/>
    <property name="squib" type="int" value="-1"/>
    <property name="squibSE" value=""/>
    <property name="static" type="bool" value="true"/>
   </properties>
  </object>
  <object id="664" class="prop" gid="255" x="1223" y="570" width="14" height="25" rotation="270">
   <properties>
    <property name="foreground" type="bool" value="true"/>
    <property name="noDestroy" type="bool" value="true"/>
    <property name="rotationMult" type="float" value="1"/>
    <property name="squib" type="int" value="-1"/>
    <property name="squibSE" value=""/>
    <property name="static" type="bool" value="true"/>
   </properties>
  </object>
  <object id="665" class="prop" gid="256" x="1167" y="556" width="10" height="31" rotation="90">
   <properties>
    <property name="foreground" type="bool" value="false"/>
    <property name="noDestroy" type="bool" value="true"/>
    <property name="rotationMult" type="float" value="1"/>
    <property name="squib" type="int" value="-1"/>
    <property name="squibSE" value=""/>
    <property name="static" type="bool" value="true"/>
   </properties>
  </object>
  <object id="667" class="prop" gid="762" x="1105" y="592" width="104" height="32">
   <properties>
    <property name="foreground" type="bool" value="true"/>
    <property name="noDestroy" type="bool" value="true"/>
    <property name="rotationMult" type="float" value="1"/>
    <property name="squib" type="int" value="-1"/>
    <property name="squibSE" value=""/>
    <property name="static" type="bool" value="true"/>
   </properties>
  </object>
  <object id="668" class="prop" gid="681" x="1136" y="604" width="8" height="32" rotation="90">
   <properties>
    <property name="foreground" type="bool" value="false"/>
    <property name="noDestroy" type="bool" value="true"/>
    <property name="rotationMult" type="float" value="1"/>
    <property name="squib" type="int" value="-1"/>
    <property name="squibSE" value=""/>
    <property name="static" type="bool" value="true"/>
   </properties>
  </object>
  <object id="669" class="prop" gid="680" x="1104" y="604" width="8" height="32" rotation="90">
   <properties>
    <property name="foreground" type="bool" value="false"/>
    <property name="noDestroy" type="bool" value="true"/>
    <property name="rotationMult" type="float" value="1"/>
    <property name="squib" type="int" value="-1"/>
    <property name="squibSE" value=""/>
    <property name="static" type="bool" value="true"/>
   </properties>
  </object>
  <object id="670" class="prop" gid="681" x="1200" y="604" width="8" height="32" rotation="90">
   <properties>
    <property name="foreground" type="bool" value="false"/>
    <property name="noDestroy" type="bool" value="true"/>
    <property name="rotationMult" type="float" value="1"/>
    <property name="squib" type="int" value="-1"/>
    <property name="squibSE" value=""/>
    <property name="static" type="bool" value="true"/>
   </properties>
  </object>
  <object id="671" class="prop" gid="680" x="1168" y="604" width="8" height="32" rotation="90">
   <properties>
    <property name="foreground" type="bool" value="false"/>
    <property name="noDestroy" type="bool" value="true"/>
    <property name="rotationMult" type="float" value="1"/>
    <property name="squib" type="int" value="-1"/>
    <property name="squibSE" value=""/>
    <property name="static" type="bool" value="true"/>
   </properties>
  </object>
  <object id="673" class="prop" gid="680" x="1232" y="604" width="8" height="32" rotation="90">
   <properties>
    <property name="foreground" type="bool" value="false"/>
    <property name="noDestroy" type="bool" value="true"/>
    <property name="rotationMult" type="float" value="1"/>
    <property name="squib" type="int" value="-1"/>
    <property name="squibSE" value=""/>
    <property name="static" type="bool" value="true"/>
   </properties>
  </object>
  <object id="676" class="prop" gid="681" x="1272" y="742" width="8" height="32">
   <properties>
    <property name="foreground" type="bool" value="false"/>
    <property name="noDestroy" type="bool" value="true"/>
    <property name="rotationMult" type="float" value="1"/>
    <property name="squib" type="int" value="-1"/>
    <property name="squibSE" value=""/>
    <property name="static" type="bool" value="true"/>
   </properties>
  </object>
  <object id="677" class="prop" gid="680" x="1272" y="774" width="8" height="32">
   <properties>
    <property name="foreground" type="bool" value="false"/>
    <property name="noDestroy" type="bool" value="true"/>
    <property name="rotationMult" type="float" value="1"/>
    <property name="squib" type="int" value="-1"/>
    <property name="squibSE" value=""/>
    <property name="static" type="bool" value="true"/>
   </properties>
  </object>
  <object id="678" class="prop" gid="681" x="1272" y="678" width="8" height="32">
   <properties>
    <property name="foreground" type="bool" value="false"/>
    <property name="noDestroy" type="bool" value="true"/>
    <property name="rotationMult" type="float" value="1"/>
    <property name="squib" type="int" value="-1"/>
    <property name="squibSE" value=""/>
    <property name="static" type="bool" value="true"/>
   </properties>
  </object>
  <object id="679" class="prop" gid="680" x="1272" y="710" width="8" height="32">
   <properties>
    <property name="foreground" type="bool" value="false"/>
    <property name="noDestroy" type="bool" value="true"/>
    <property name="rotationMult" type="float" value="1"/>
    <property name="squib" type="int" value="-1"/>
    <property name="squibSE" value=""/>
    <property name="static" type="bool" value="true"/>
   </properties>
  </object>
  <object id="680" class="prop" gid="680" x="1272" y="646" width="8" height="32">
   <properties>
    <property name="foreground" type="bool" value="false"/>
    <property name="noDestroy" type="bool" value="true"/>
    <property name="rotationMult" type="float" value="1"/>
    <property name="squib" type="int" value="-1"/>
    <property name="squibSE" value=""/>
    <property name="static" type="bool" value="true"/>
   </properties>
  </object>
  <object id="681" class="prop" gid="680" x="1272" y="784" width="8" height="32">
   <properties>
    <property name="foreground" type="bool" value="false"/>
    <property name="noDestroy" type="bool" value="true"/>
    <property name="rotationMult" type="float" value="1"/>
    <property name="squib" type="int" value="-1"/>
    <property name="squibSE" value=""/>
    <property name="static" type="bool" value="true"/>
   </properties>
  </object>
  <object id="682" class="prop" gid="680" x="1272" y="602" width="8" height="32">
   <properties>
    <property name="foreground" type="bool" value="false"/>
    <property name="noDestroy" type="bool" value="true"/>
    <property name="rotationMult" type="float" value="1"/>
    <property name="squib" type="int" value="-1"/>
    <property name="squibSE" value=""/>
    <property name="static" type="bool" value="true"/>
   </properties>
  </object>
  <object id="683" class="prop" gid="680" x="1272" y="592" width="8" height="32">
   <properties>
    <property name="foreground" type="bool" value="false"/>
    <property name="noDestroy" type="bool" value="true"/>
    <property name="rotationMult" type="float" value="1"/>
    <property name="squib" type="int" value="-1"/>
    <property name="squibSE" value=""/>
    <property name="static" type="bool" value="true"/>
   </properties>
  </object>
  <object id="695" class="prop" gid="500" x="1195" y="687" width="24" height="24">
   <properties>
    <property name="foreground" type="bool" value="false"/>
    <property name="noDestroy" type="bool" value="true"/>
    <property name="rotationMult" type="float" value="1"/>
    <property name="squib" type="int" value="-1"/>
    <property name="squibSE" value=""/>
    <property name="static" type="bool" value="true"/>
   </properties>
  </object>
  <object id="696" class="prop" gid="692" x="1143" y="644" width="22" height="32">
   <properties>
    <property name="foreground" type="bool" value="false"/>
    <property name="noDestroy" type="bool" value="true"/>
    <property name="rotationMult" type="float" value="1"/>
    <property name="squib" type="int" value="-1"/>
    <property name="squibSE" value=""/>
    <property name="static" type="bool" value="true"/>
   </properties>
  </object>
  <object id="697" class="prop" gid="678" x="1166" y="787" width="45" height="13">
   <properties>
    <property name="foreground" type="bool" value="true"/>
    <property name="noDestroy" type="bool" value="true"/>
    <property name="rotationMult" type="float" value="1"/>
    <property name="squib" type="int" value="-1"/>
    <property name="squibSE" value=""/>
    <property name="static" type="bool" value="true"/>
   </properties>
  </object>
  <object id="698" class="prop" gid="675" x="1204" y="789" width="67" height="15">
   <properties>
    <property name="foreground" type="bool" value="true"/>
    <property name="noDestroy" type="bool" value="true"/>
    <property name="rotationMult" type="float" value="1"/>
    <property name="squib" type="int" value="-1"/>
    <property name="squibSE" value=""/>
    <property name="static" type="bool" value="true"/>
   </properties>
  </object>
  <object id="699" class="prop" gid="706" x="1280" y="784" width="32" height="32">
   <properties>
    <property name="foreground" type="bool" value="false"/>
    <property name="noDestroy" type="bool" value="true"/>
    <property name="rotationMult" type="float" value="1"/>
    <property name="squib" type="int" value="-1"/>
    <property name="squibSE" value=""/>
    <property name="static" type="bool" value="true"/>
   </properties>
  </object>
  <object id="700" class="prop" gid="706" x="1344" y="752" width="32" height="32" rotation="180">
   <properties>
    <property name="foreground" type="bool" value="false"/>
    <property name="noDestroy" type="bool" value="true"/>
    <property name="rotationMult" type="float" value="1"/>
    <property name="squib" type="int" value="-1"/>
    <property name="squibSE" value=""/>
    <property name="static" type="bool" value="true"/>
   </properties>
  </object>
  <object id="701" class="prop" gid="705" x="1280" y="720" width="32" height="32" rotation="90">
   <properties>
    <property name="foreground" type="bool" value="false"/>
    <property name="noDestroy" type="bool" value="true"/>
    <property name="rotationMult" type="float" value="1"/>
    <property name="squib" type="int" value="-1"/>
    <property name="squibSE" value=""/>
    <property name="static" type="bool" value="true"/>
   </properties>
  </object>
  <object id="702" class="prop" gid="705" x="1280" y="688" width="32" height="32" rotation="90">
   <properties>
    <property name="foreground" type="bool" value="false"/>
    <property name="noDestroy" type="bool" value="true"/>
    <property name="rotationMult" type="float" value="1"/>
    <property name="squib" type="int" value="-1"/>
    <property name="squibSE" value=""/>
    <property name="static" type="bool" value="true"/>
   </properties>
  </object>
  <object id="705" class="prop" gid="706" x="1280" y="656" width="32" height="32" rotation="90">
   <properties>
    <property name="foreground" type="bool" value="false"/>
    <property name="noDestroy" type="bool" value="true"/>
    <property name="rotationMult" type="float" value="1"/>
    <property name="squib" type="int" value="-1"/>
    <property name="squibSE" value=""/>
    <property name="static" type="bool" value="true"/>
   </properties>
  </object>
  <object id="706" class="prop" gid="695" x="1280" y="656" width="32" height="32">
   <properties>
    <property name="foreground" type="bool" value="false"/>
    <property name="noDestroy" type="bool" value="true"/>
    <property name="rotationMult" type="float" value="1"/>
    <property name="squib" type="int" value="-1"/>
    <property name="squibSE" value=""/>
    <property name="static" type="bool" value="true"/>
   </properties>
  </object>
  <object id="708" class="prop" gid="695" x="1280" y="592" width="32" height="32">
   <properties>
    <property name="foreground" type="bool" value="false"/>
    <property name="noDestroy" type="bool" value="true"/>
    <property name="rotationMult" type="float" value="1"/>
    <property name="squib" type="int" value="-1"/>
    <property name="squibSE" value=""/>
    <property name="static" type="bool" value="true"/>
   </properties>
  </object>
  <object id="713" class="prop" gid="763" x="1194" y="593" width="117" height="33">
   <properties>
    <property name="foreground" type="bool" value="true"/>
    <property name="noDestroy" type="bool" value="true"/>
    <property name="rotationMult" type="float" value="1"/>
    <property name="squib" type="int" value="-1"/>
    <property name="squibSE" value=""/>
    <property name="static" type="bool" value="true"/>
   </properties>
  </object>
  <object id="717" class="prop" gid="698" x="1280" y="688" width="32" height="32">
   <properties>
    <property name="foreground" type="bool" value="false"/>
    <property name="noDestroy" type="bool" value="true"/>
    <property name="rotationMult" type="float" value="1"/>
    <property name="squib" type="int" value="-1"/>
    <property name="squibSE" value=""/>
    <property name="static" type="bool" value="true"/>
   </properties>
  </object>
  <object id="718" class="prop" gid="697" x="1280" y="720" width="32" height="32">
   <properties>
    <property name="foreground" type="bool" value="false"/>
    <property name="noDestroy" type="bool" value="true"/>
    <property name="rotationMult" type="float" value="1"/>
    <property name="squib" type="int" value="-1"/>
    <property name="squibSE" value=""/>
    <property name="static" type="bool" value="true"/>
   </properties>
  </object>
  <object id="719" class="prop" gid="699" x="1280" y="624" width="32" height="32">
   <properties>
    <property name="foreground" type="bool" value="false"/>
    <property name="noDestroy" type="bool" value="true"/>
    <property name="rotationMult" type="float" value="1"/>
    <property name="squib" type="int" value="-1"/>
    <property name="squibSE" value=""/>
    <property name="static" type="bool" value="true"/>
   </properties>
  </object>
  <object id="720" class="prop" gid="696" x="1280" y="624" width="32" height="32">
   <properties>
    <property name="foreground" type="bool" value="false"/>
    <property name="noDestroy" type="bool" value="true"/>
    <property name="rotationMult" type="float" value="1"/>
    <property name="squib" type="int" value="-1"/>
    <property name="squibSE" value=""/>
    <property name="static" type="bool" value="true"/>
   </properties>
  </object>
  <object id="721" class="prop" gid="681" x="1264" y="604" width="8" height="32" rotation="90">
   <properties>
    <property name="foreground" type="bool" value="false"/>
    <property name="noDestroy" type="bool" value="true"/>
    <property name="rotationMult" type="float" value="1"/>
    <property name="squib" type="int" value="-1"/>
    <property name="squibSE" value=""/>
    <property name="static" type="bool" value="true"/>
   </properties>
  </object>
  <object id="722" class="prop" gid="681" x="1280" y="604" width="8" height="32" rotation="90">
   <properties>
    <property name="foreground" type="bool" value="false"/>
    <property name="noDestroy" type="bool" value="true"/>
    <property name="rotationMult" type="float" value="1"/>
    <property name="squib" type="int" value="-1"/>
    <property name="squibSE" value=""/>
    <property name="static" type="bool" value="true"/>
   </properties>
  </object>
  <object id="723" class="prop" gid="682" x="1270" y="614" width="12" height="12">
   <properties>
    <property name="foreground" type="bool" value="false"/>
    <property name="noDestroy" type="bool" value="true"/>
    <property name="rotationMult" type="float" value="1"/>
    <property name="squib" type="int" value="-1"/>
    <property name="squibSE" value=""/>
    <property name="static" type="bool" value="true"/>
   </properties>
  </object>
  <object id="724" class="prop" gid="498" x="1377" y="764" width="24" height="24">
   <properties>
    <property name="foreground" type="bool" value="false"/>
    <property name="noDestroy" type="bool" value="true"/>
    <property name="rotationMult" type="float" value="1"/>
    <property name="squib" type="int" value="-1"/>
    <property name="squibSE" value=""/>
    <property name="static" type="bool" value="true"/>
   </properties>
  </object>
  <object id="725" class="prop" gid="197" x="1030" y="700" width="10" height="22">
   <properties>
    <property name="foreground" type="bool" value="false"/>
    <property name="noDestroy" type="bool" value="true"/>
    <property name="rotationMult" type="float" value="1"/>
    <property name="squib" type="int" value="-1"/>
    <property name="squibSE" value=""/>
    <property name="static" type="bool" value="true"/>
   </properties>
  </object>
  <object id="726" class="prop" gid="196" x="980" y="691" width="8" height="13">
   <properties>
    <property name="foreground" type="bool" value="false"/>
    <property name="noDestroy" type="bool" value="true"/>
    <property name="rotationMult" type="float" value="1"/>
    <property name="squib" type="int" value="-1"/>
    <property name="squibSE" value=""/>
    <property name="static" type="bool" value="true"/>
   </properties>
  </object>
  <object id="728" class="prop" gid="675" x="1348" y="980" width="67" height="15">
   <properties>
    <property name="foreground" type="bool" value="true"/>
    <property name="noDestroy" type="bool" value="true"/>
    <property name="rotationMult" type="float" value="1"/>
    <property name="squib" type="int" value="-1"/>
    <property name="squibSE" value=""/>
    <property name="static" type="bool" value="true"/>
   </properties>
  </object>
  <object id="730" class="prop" gid="197" x="1411" y="973" width="10" height="22">
   <properties>
    <property name="foreground" type="bool" value="false"/>
    <property name="noDestroy" type="bool" value="true"/>
    <property name="rotationMult" type="float" value="1"/>
    <property name="squib" type="int" value="-1"/>
    <property name="squibSE" value=""/>
    <property name="static" type="bool" value="true"/>
   </properties>
  </object>
  <object id="731" class="prop" gid="227" x="1366" y="938" width="29" height="43">
   <properties>
    <property name="foreground" type="bool" value="true"/>
    <property name="noDestroy" type="bool" value="true"/>
    <property name="rotationMult" type="float" value="1"/>
    <property name="squib" type="int" value="-1"/>
    <property name="squibSE" value=""/>
    <property name="static" type="bool" value="true"/>
   </properties>
  </object>
  <object id="732" class="prop" gid="256" x="1340" y="951" width="10" height="31">
   <properties>
    <property name="foreground" type="bool" value="false"/>
    <property name="noDestroy" type="bool" value="true"/>
    <property name="rotationMult" type="float" value="1"/>
    <property name="squib" type="int" value="-1"/>
    <property name="squibSE" value=""/>
    <property name="static" type="bool" value="true"/>
   </properties>
  </object>
  <object id="733" class="prop" gid="705" x="1424" y="1056" width="32" height="32" rotation="90">
   <properties>
    <property name="foreground" type="bool" value="false"/>
    <property name="noDestroy" type="bool" value="true"/>
    <property name="rotationMult" type="float" value="1"/>
    <property name="squib" type="int" value="-1"/>
    <property name="squibSE" value=""/>
    <property name="static" type="bool" value="true"/>
   </properties>
  </object>
  <object id="734" class="prop" gid="706" x="1456" y="1024" width="32" height="32" rotation="180">
   <properties>
    <property name="foreground" type="bool" value="false"/>
    <property name="noDestroy" type="bool" value="true"/>
    <property name="rotationMult" type="float" value="1"/>
    <property name="squib" type="int" value="-1"/>
    <property name="squibSE" value=""/>
    <property name="static" type="bool" value="true"/>
   </properties>
  </object>
  <object id="735" class="prop" gid="705" x="1424" y="1120" width="32" height="32" rotation="90">
   <properties>
    <property name="foreground" type="bool" value="false"/>
    <property name="noDestroy" type="bool" value="true"/>
    <property name="rotationMult" type="float" value="1"/>
    <property name="squib" type="int" value="-1"/>
    <property name="squibSE" value=""/>
    <property name="static" type="bool" value="true"/>
   </properties>
  </object>
  <object id="736" class="prop" gid="705" x="1424" y="1088" width="32" height="32" rotation="90">
   <properties>
    <property name="foreground" type="bool" value="false"/>
    <property name="noDestroy" type="bool" value="true"/>
    <property name="rotationMult" type="float" value="1"/>
    <property name="squib" type="int" value="-1"/>
    <property name="squibSE" value=""/>
    <property name="static" type="bool" value="true"/>
   </properties>
  </object>
  <object id="738" class="prop" gid="700" x="1424" y="1216" width="32" height="32">
   <properties>
    <property name="foreground" type="bool" value="false"/>
    <property name="noDestroy" type="bool" value="true"/>
    <property name="rotationMult" type="float" value="1"/>
    <property name="squib" type="int" value="-1"/>
    <property name="squibSE" value=""/>
    <property name="static" type="bool" value="true"/>
   </properties>
  </object>
  <object id="739" class="prop" gid="695" x="1424" y="1184" width="32" height="32">
   <properties>
    <property name="foreground" type="bool" value="false"/>
    <property name="noDestroy" type="bool" value="true"/>
    <property name="rotationMult" type="float" value="1"/>
    <property name="squib" type="int" value="-1"/>
    <property name="squibSE" value=""/>
    <property name="static" type="bool" value="true"/>
   </properties>
  </object>
  <object id="740" class="prop" gid="697" x="1424" y="1216" width="32" height="32">
   <properties>
    <property name="foreground" type="bool" value="false"/>
    <property name="noDestroy" type="bool" value="true"/>
    <property name="rotationMult" type="float" value="1"/>
    <property name="squib" type="int" value="-1"/>
    <property name="squibSE" value=""/>
    <property name="static" type="bool" value="true"/>
   </properties>
  </object>
  <object id="741" class="prop" gid="696" x="1424" y="1248" width="32" height="32">
   <properties>
    <property name="foreground" type="bool" value="false"/>
    <property name="noDestroy" type="bool" value="true"/>
    <property name="rotationMult" type="float" value="1"/>
    <property name="squib" type="int" value="-1"/>
    <property name="squibSE" value=""/>
    <property name="static" type="bool" value="true"/>
   </properties>
  </object>
  <object id="742" class="prop" gid="688" x="1405" y="1360" width="48" height="47">
   <properties>
    <property name="foreground" type="bool" value="false"/>
    <property name="noDestroy" type="bool" value="true"/>
    <property name="rotationMult" type="float" value="1"/>
    <property name="squib" type="int" value="-1"/>
    <property name="squibSE" value=""/>
    <property name="static" type="bool" value="true"/>
   </properties>
  </object>
  <object id="743" class="prop" gid="728" x="1424" y="889" width="16" height="9">
   <properties>
    <property name="foreground" type="bool" value="false"/>
    <property name="noDestroy" type="bool" value="true"/>
    <property name="rotationMult" type="float" value="1"/>
    <property name="squib" type="int" value="-1"/>
    <property name="squibSE" value=""/>
    <property name="static" type="bool" value="true"/>
   </properties>
  </object>
  <object id="745" class="prop" gid="732" x="1434" y="889" width="22" height="22">
   <properties>
    <property name="foreground" type="bool" value="false"/>
    <property name="noDestroy" type="bool" value="true"/>
    <property name="rotationMult" type="float" value="1"/>
    <property name="squib" type="int" value="-1"/>
    <property name="squibSE" value=""/>
    <property name="static" type="bool" value="true"/>
   </properties>
  </object>
  <object id="746" class="prop" gid="729" x="1456" y="867" width="16" height="9" rotation="270">
   <properties>
    <property name="foreground" type="bool" value="false"/>
    <property name="noDestroy" type="bool" value="true"/>
    <property name="rotationMult" type="float" value="1"/>
    <property name="squib" type="int" value="-1"/>
    <property name="squibSE" value=""/>
    <property name="static" type="bool" value="true"/>
   </properties>
  </object>
  <object id="747" class="prop" gid="728" x="1456" y="851" width="16" height="9" rotation="270">
   <properties>
    <property name="foreground" type="bool" value="false"/>
    <property name="noDestroy" type="bool" value="true"/>
    <property name="rotationMult" type="float" value="1"/>
    <property name="squib" type="int" value="-1"/>
    <property name="squibSE" value=""/>
    <property name="static" type="bool" value="true"/>
   </properties>
  </object>
  <object id="748" class="prop" gid="730" x="1456" y="835" width="16" height="9" rotation="270">
   <properties>
    <property name="foreground" type="bool" value="false"/>
    <property name="noDestroy" type="bool" value="true"/>
    <property name="rotationMult" type="float" value="1"/>
    <property name="squib" type="int" value="-1"/>
    <property name="squibSE" value=""/>
    <property name="static" type="bool" value="true"/>
   </properties>
  </object>
  <object id="749" class="prop" gid="729" x="1456" y="819" width="16" height="9" rotation="270">
   <properties>
    <property name="foreground" type="bool" value="false"/>
    <property name="noDestroy" type="bool" value="true"/>
    <property name="rotationMult" type="float" value="1"/>
    <property name="squib" type="int" value="-1"/>
    <property name="squibSE" value=""/>
    <property name="static" type="bool" value="true"/>
   </properties>
  </object>
  <object id="750" class="prop" gid="728" x="1456" y="803" width="16" height="9" rotation="270">
   <properties>
    <property name="foreground" type="bool" value="false"/>
    <property name="noDestroy" type="bool" value="true"/>
    <property name="rotationMult" type="float" value="1"/>
    <property name="squib" type="int" value="-1"/>
    <property name="squibSE" value=""/>
    <property name="static" type="bool" value="true"/>
   </properties>
  </object>
  <object id="751" class="prop" gid="730" x="1456" y="787" width="16" height="9" rotation="270">
   <properties>
    <property name="foreground" type="bool" value="false"/>
    <property name="noDestroy" type="bool" value="true"/>
    <property name="rotationMult" type="float" value="1"/>
    <property name="squib" type="int" value="-1"/>
    <property name="squibSE" value=""/>
    <property name="static" type="bool" value="true"/>
   </properties>
  </object>
  <object id="752" class="prop" gid="729" x="1456" y="771" width="16" height="9" rotation="270">
   <properties>
    <property name="foreground" type="bool" value="false"/>
    <property name="noDestroy" type="bool" value="true"/>
    <property name="rotationMult" type="float" value="1"/>
    <property name="squib" type="int" value="-1"/>
    <property name="squibSE" value=""/>
    <property name="static" type="bool" value="true"/>
   </properties>
  </object>
  <object id="753" class="prop" gid="728" x="1456" y="755" width="16" height="9" rotation="270">
   <properties>
    <property name="foreground" type="bool" value="false"/>
    <property name="noDestroy" type="bool" value="true"/>
    <property name="rotationMult" type="float" value="1"/>
    <property name="squib" type="int" value="-1"/>
    <property name="squibSE" value=""/>
    <property name="static" type="bool" value="true"/>
   </properties>
  </object>
  <object id="754" class="prop" gid="730" x="1456" y="739" width="16" height="9" rotation="270">
   <properties>
    <property name="foreground" type="bool" value="false"/>
    <property name="noDestroy" type="bool" value="true"/>
    <property name="rotationMult" type="float" value="1"/>
    <property name="squib" type="int" value="-1"/>
    <property name="squibSE" value=""/>
    <property name="static" type="bool" value="true"/>
   </properties>
  </object>
  <object id="755" class="prop" gid="728" x="1456" y="720" width="16" height="9" rotation="270">
   <properties>
    <property name="foreground" type="bool" value="false"/>
    <property name="noDestroy" type="bool" value="true"/>
    <property name="rotationMult" type="float" value="1"/>
    <property name="squib" type="int" value="-1"/>
    <property name="squibSE" value=""/>
    <property name="static" type="bool" value="true"/>
   </properties>
  </object>
  <object id="756" class="prop" gid="730" x="1456" y="723" width="16" height="9" rotation="270">
   <properties>
    <property name="foreground" type="bool" value="false"/>
    <property name="noDestroy" type="bool" value="true"/>
    <property name="rotationMult" type="float" value="1"/>
    <property name="squib" type="int" value="-1"/>
    <property name="squibSE" value=""/>
    <property name="static" type="bool" value="true"/>
   </properties>
  </object>
  <object id="757" class="prop" gid="702" x="1424" y="888" width="32" height="32">
   <properties>
    <property name="foreground" type="bool" value="true"/>
    <property name="noDestroy" type="bool" value="true"/>
    <property name="rotationMult" type="float" value="1"/>
    <property name="squib" type="int" value="-1"/>
    <property name="squibSE" value=""/>
    <property name="static" type="bool" value="true"/>
   </properties>
  </object>
  <object id="758" class="prop" gid="701" x="1424" y="856" width="32" height="32">
   <properties>
    <property name="foreground" type="bool" value="true"/>
    <property name="noDestroy" type="bool" value="true"/>
    <property name="rotationMult" type="float" value="1"/>
    <property name="squib" type="int" value="-1"/>
    <property name="squibSE" value=""/>
    <property name="static" type="bool" value="true"/>
   </properties>
  </object>
  <object id="759" class="prop" gid="701" x="1424" y="824" width="32" height="32">
   <properties>
    <property name="foreground" type="bool" value="true"/>
    <property name="noDestroy" type="bool" value="true"/>
    <property name="rotationMult" type="float" value="1"/>
    <property name="squib" type="int" value="-1"/>
    <property name="squibSE" value=""/>
    <property name="static" type="bool" value="true"/>
   </properties>
  </object>
  <object id="760" class="prop" gid="709" x="1443" y="753" width="6" height="4" rotation="90">
   <properties>
    <property name="foreground" type="bool" value="false"/>
    <property name="noDestroy" type="bool" value="true"/>
    <property name="rotationMult" type="float" value="1"/>
    <property name="squib" type="int" value="-1"/>
    <property name="squibSE" value=""/>
    <property name="static" type="bool" value="true"/>
   </properties>
  </object>
  <object id="761" class="prop" gid="709" x="1443" y="744" width="6" height="4" rotation="90">
   <properties>
    <property name="foreground" type="bool" value="false"/>
    <property name="noDestroy" type="bool" value="true"/>
    <property name="rotationMult" type="float" value="1"/>
    <property name="squib" type="int" value="-1"/>
    <property name="squibSE" value=""/>
    <property name="static" type="bool" value="true"/>
   </properties>
  </object>
  <object id="762" class="prop" gid="709" x="1443" y="735" width="6" height="4" rotation="90">
   <properties>
    <property name="foreground" type="bool" value="false"/>
    <property name="noDestroy" type="bool" value="true"/>
    <property name="rotationMult" type="float" value="1"/>
    <property name="squib" type="int" value="-1"/>
    <property name="squibSE" value=""/>
    <property name="static" type="bool" value="true"/>
   </properties>
  </object>
  <object id="763" class="prop" gid="709" x="1443" y="726" width="6" height="4" rotation="90">
   <properties>
    <property name="foreground" type="bool" value="false"/>
    <property name="noDestroy" type="bool" value="true"/>
    <property name="rotationMult" type="float" value="1"/>
    <property name="squib" type="int" value="-1"/>
    <property name="squibSE" value=""/>
    <property name="static" type="bool" value="true"/>
   </properties>
  </object>
  <object id="764" class="prop" gid="680" x="1416" y="752" width="8" height="32">
   <properties>
    <property name="foreground" type="bool" value="false"/>
    <property name="noDestroy" type="bool" value="true"/>
    <property name="rotationMult" type="float" value="1"/>
    <property name="squib" type="int" value="-1"/>
    <property name="squibSE" value=""/>
    <property name="static" type="bool" value="true"/>
   </properties>
  </object>
  <object id="765" class="prop" gid="681" x="1416" y="784" width="8" height="32">
   <properties>
    <property name="foreground" type="bool" value="false"/>
    <property name="noDestroy" type="bool" value="true"/>
    <property name="rotationMult" type="float" value="1"/>
    <property name="squib" type="int" value="-1"/>
    <property name="squibSE" value=""/>
    <property name="static" type="bool" value="true"/>
   </properties>
  </object>
  <object id="766" class="prop" gid="680" x="1416" y="736" width="8" height="32">
   <properties>
    <property name="foreground" type="bool" value="false"/>
    <property name="noDestroy" type="bool" value="true"/>
    <property name="rotationMult" type="float" value="1"/>
    <property name="squib" type="int" value="-1"/>
    <property name="squibSE" value=""/>
    <property name="static" type="bool" value="true"/>
   </properties>
  </object>
  <object id="767" class="prop" gid="221" x="1412" y="1263" width="44" height="15">
   <properties>
    <property name="foreground" type="bool" value="true"/>
    <property name="noDestroy" type="bool" value="true"/>
    <property name="rotationMult" type="float" value="1"/>
    <property name="squib" type="int" value="-1"/>
    <property name="squibSE" value=""/>
    <property name="static" type="bool" value="true"/>
   </properties>
  </object>
  <object id="768" class="prop" gid="218" x="1398" y="1275" width="47" height="33">
   <properties>
    <property name="foreground" type="bool" value="true"/>
    <property name="noDestroy" type="bool" value="true"/>
    <property name="rotationMult" type="float" value="1"/>
    <property name="squib" type="int" value="-1"/>
    <property name="squibSE" value=""/>
    <property name="static" type="bool" value="true"/>
   </properties>
  </object>
  <object id="769" class="prop" gid="676" x="1350" y="1364" width="70" height="17">
   <properties>
    <property name="foreground" type="bool" value="true"/>
    <property name="noDestroy" type="bool" value="true"/>
    <property name="rotationMult" type="float" value="1"/>
    <property name="squib" type="int" value="-1"/>
    <property name="squibSE" value=""/>
    <property name="static" type="bool" value="true"/>
   </properties>
  </object>
  <object id="770" class="prop" gid="677" x="1409" y="1363" width="48" height="14">
   <properties>
    <property name="foreground" type="bool" value="true"/>
    <property name="noDestroy" type="bool" value="true"/>
    <property name="rotationMult" type="float" value="1"/>
    <property name="squib" type="int" value="-1"/>
    <property name="squibSE" value=""/>
    <property name="static" type="bool" value="true"/>
   </properties>
  </object>
  <object id="771" class="prop" gid="678" x="1196" y="1398" width="45" height="13">
   <properties>
    <property name="foreground" type="bool" value="true"/>
    <property name="noDestroy" type="bool" value="true"/>
    <property name="rotationMult" type="float" value="1"/>
    <property name="squib" type="int" value="-1"/>
    <property name="squibSE" value=""/>
    <property name="static" type="bool" value="true"/>
   </properties>
  </object>
  <object id="773" class="prop" gid="675" x="1127" y="1397" width="67" height="15">
   <properties>
    <property name="foreground" type="bool" value="true"/>
    <property name="noDestroy" type="bool" value="true"/>
    <property name="rotationMult" type="float" value="1"/>
    <property name="squib" type="int" value="-1"/>
    <property name="squibSE" value=""/>
    <property name="static" type="bool" value="true"/>
   </properties>
  </object>
  <object id="774" class="prop" gid="677" x="1080" y="1397" width="48" height="14">
   <properties>
    <property name="foreground" type="bool" value="true"/>
    <property name="noDestroy" type="bool" value="true"/>
    <property name="rotationMult" type="float" value="1"/>
    <property name="squib" type="int" value="-1"/>
    <property name="squibSE" value=""/>
    <property name="static" type="bool" value="true"/>
   </properties>
  </object>
  <object id="775" class="prop" gid="676" x="1011" y="1398" width="70" height="17">
   <properties>
    <property name="foreground" type="bool" value="true"/>
    <property name="noDestroy" type="bool" value="true"/>
    <property name="rotationMult" type="float" value="1"/>
    <property name="squib" type="int" value="-1"/>
    <property name="squibSE" value=""/>
    <property name="static" type="bool" value="true"/>
   </properties>
  </object>
  <object id="776" class="prop" gid="689" x="975" y="1296" width="18" height="32">
   <properties>
    <property name="foreground" type="bool" value="false"/>
    <property name="noDestroy" type="bool" value="true"/>
    <property name="rotationMult" type="float" value="1"/>
    <property name="squib" type="int" value="-1"/>
    <property name="squibSE" value=""/>
    <property name="static" type="bool" value="true"/>
   </properties>
  </object>
  <object id="777" class="prop" gid="500" x="1268" y="1292" width="24" height="24">
   <properties>
    <property name="foreground" type="bool" value="false"/>
    <property name="noDestroy" type="bool" value="true"/>
    <property name="rotationMult" type="float" value="1"/>
    <property name="squib" type="int" value="-1"/>
    <property name="squibSE" value=""/>
    <property name="static" type="bool" value="true"/>
   </properties>
  </object>
  <object id="778" class="prop" gid="500" x="980" y="1196" width="24" height="24">
   <properties>
    <property name="foreground" type="bool" value="false"/>
    <property name="noDestroy" type="bool" value="true"/>
    <property name="rotationMult" type="float" value="1"/>
    <property name="squib" type="int" value="-1"/>
    <property name="squibSE" value=""/>
    <property name="static" type="bool" value="true"/>
   </properties>
  </object>
  <object id="779" class="prop" gid="757" x="1340" y="1312" width="24" height="16">
   <properties>
    <property name="foreground" type="bool" value="false"/>
    <property name="noDestroy" type="bool" value="true"/>
    <property name="rotationMult" type="float" value="1"/>
    <property name="squib" type="int" value="-1"/>
    <property name="squibSE" value=""/>
    <property name="static" type="bool" value="true"/>
   </properties>
  </object>
  <object id="780" class="prop" gid="756" x="1364" y="1312" width="18" height="16">
   <properties>
    <property name="foreground" type="bool" value="false"/>
    <property name="noDestroy" type="bool" value="true"/>
    <property name="rotationMult" type="float" value="1"/>
    <property name="squib" type="int" value="-1"/>
    <property name="squibSE" value=""/>
    <property name="static" type="bool" value="true"/>
   </properties>
  </object>
  <object id="781" class="prop" gid="684" x="1168" y="1201" width="14" height="48" rotation="90">
   <properties>
    <property name="foreground" type="bool" value="true"/>
    <property name="noDestroy" type="bool" value="true"/>
    <property name="rotationMult" type="float" value="1"/>
    <property name="squib" type="int" value="-1"/>
    <property name="squibSE" value=""/>
    <property name="static" type="bool" value="true"/>
   </properties>
  </object>
  <object id="782" class="prop" gid="684" x="1216" y="1201" width="14" height="48" rotation="90">
   <properties>
    <property name="foreground" type="bool" value="true"/>
    <property name="noDestroy" type="bool" value="true"/>
    <property name="rotationMult" type="float" value="1"/>
    <property name="squib" type="int" value="-1"/>
    <property name="squibSE" value=""/>
    <property name="static" type="bool" value="true"/>
   </properties>
  </object>
  <object id="783" class="prop" gid="684" x="1264" y="1201" width="14" height="48" rotation="90">
   <properties>
    <property name="foreground" type="bool" value="true"/>
    <property name="noDestroy" type="bool" value="true"/>
    <property name="rotationMult" type="float" value="1"/>
    <property name="squib" type="int" value="-1"/>
    <property name="squibSE" value=""/>
    <property name="static" type="bool" value="true"/>
   </properties>
  </object>
  <object id="784" class="prop" gid="684" x="1312" y="1201" width="14" height="48" rotation="90">
   <properties>
    <property name="foreground" type="bool" value="true"/>
    <property name="noDestroy" type="bool" value="true"/>
    <property name="rotationMult" type="float" value="1"/>
    <property name="squib" type="int" value="-1"/>
    <property name="squibSE" value=""/>
    <property name="static" type="bool" value="true"/>
   </properties>
  </object>
  <object id="785" class="prop" gid="684" x="976" y="1201" width="14" height="48" rotation="90">
   <properties>
    <property name="foreground" type="bool" value="true"/>
    <property name="noDestroy" type="bool" value="true"/>
    <property name="rotationMult" type="float" value="1"/>
    <property name="squib" type="int" value="-1"/>
    <property name="squibSE" value=""/>
    <property name="static" type="bool" value="true"/>
   </properties>
  </object>
  <object id="786" class="prop" gid="684" x="1024" y="1201" width="14" height="48" rotation="90">
   <properties>
    <property name="foreground" type="bool" value="true"/>
    <property name="noDestroy" type="bool" value="true"/>
    <property name="rotationMult" type="float" value="1"/>
    <property name="squib" type="int" value="-1"/>
    <property name="squibSE" value=""/>
    <property name="static" type="bool" value="true"/>
   </properties>
  </object>
  <object id="787" class="prop" gid="684" x="1072" y="1201" width="14" height="48" rotation="90">
   <properties>
    <property name="foreground" type="bool" value="true"/>
    <property name="noDestroy" type="bool" value="true"/>
    <property name="rotationMult" type="float" value="1"/>
    <property name="squib" type="int" value="-1"/>
    <property name="squibSE" value=""/>
    <property name="static" type="bool" value="true"/>
   </properties>
  </object>
  <object id="788" class="prop" gid="684" x="1120" y="1201" width="14" height="48" rotation="90">
   <properties>
    <property name="foreground" type="bool" value="true"/>
    <property name="noDestroy" type="bool" value="true"/>
    <property name="rotationMult" type="float" value="1"/>
    <property name="squib" type="int" value="-1"/>
    <property name="squibSE" value=""/>
    <property name="static" type="bool" value="true"/>
   </properties>
  </object>
  <object id="789" class="prop" gid="684" x="944" y="1201" width="14" height="48" rotation="90">
   <properties>
    <property name="foreground" type="bool" value="true"/>
    <property name="noDestroy" type="bool" value="true"/>
    <property name="rotationMult" type="float" value="1"/>
    <property name="squib" type="int" value="-1"/>
    <property name="squibSE" value=""/>
    <property name="static" type="bool" value="true"/>
   </properties>
  </object>
  <object id="790" class="prop" gid="684" x="1169" y="1264" width="14" height="48">
   <properties>
    <property name="foreground" type="bool" value="true"/>
    <property name="noDestroy" type="bool" value="true"/>
    <property name="rotationMult" type="float" value="1"/>
    <property name="squib" type="int" value="-1"/>
    <property name="squibSE" value=""/>
    <property name="static" type="bool" value="true"/>
   </properties>
  </object>
  <object id="791" class="prop" gid="684" x="1169" y="1216" width="14" height="48">
   <properties>
    <property name="foreground" type="bool" value="true"/>
    <property name="noDestroy" type="bool" value="true"/>
    <property name="rotationMult" type="float" value="1"/>
    <property name="squib" type="int" value="-1"/>
    <property name="squibSE" value=""/>
    <property name="static" type="bool" value="true"/>
   </properties>
  </object>
  <object id="792" class="prop" gid="683" x="1168" y="1216" width="16" height="16">
   <properties>
    <property name="foreground" type="bool" value="true"/>
    <property name="noDestroy" type="bool" value="true"/>
    <property name="rotationMult" type="float" value="1"/>
    <property name="squib" type="int" value="-1"/>
    <property name="squibSE" value=""/>
    <property name="static" type="bool" value="true"/>
   </properties>
  </object>
  <object id="793" class="prop" gid="684" x="1169" y="1168" width="14" height="48">
   <properties>
    <property name="foreground" type="bool" value="true"/>
    <property name="noDestroy" type="bool" value="true"/>
    <property name="rotationMult" type="float" value="1"/>
    <property name="squib" type="int" value="-1"/>
    <property name="squibSE" value=""/>
    <property name="static" type="bool" value="true"/>
   </properties>
  </object>
  <object id="794" class="prop" gid="684" x="1169" y="1360" width="14" height="48">
   <properties>
    <property name="foreground" type="bool" value="true"/>
    <property name="noDestroy" type="bool" value="true"/>
    <property name="rotationMult" type="float" value="1"/>
    <property name="squib" type="int" value="-1"/>
    <property name="squibSE" value=""/>
    <property name="static" type="bool" value="true"/>
   </properties>
  </object>
  <object id="795" class="prop" gid="684" x="1169" y="1312" width="14" height="48">
   <properties>
    <property name="foreground" type="bool" value="true"/>
    <property name="noDestroy" type="bool" value="true"/>
    <property name="rotationMult" type="float" value="1"/>
    <property name="squib" type="int" value="-1"/>
    <property name="squibSE" value=""/>
    <property name="static" type="bool" value="true"/>
   </properties>
  </object>
  <object id="796" class="prop" gid="684" x="1169" y="1392" width="14" height="48">
   <properties>
    <property name="foreground" type="bool" value="true"/>
    <property name="noDestroy" type="bool" value="true"/>
    <property name="rotationMult" type="float" value="1"/>
    <property name="squib" type="int" value="-1"/>
    <property name="squibSE" value=""/>
    <property name="static" type="bool" value="true"/>
   </properties>
  </object>
  <object id="805" class="prop" gid="222" x="1036" y="1227" width="55" height="13">
   <properties>
    <property name="foreground" type="bool" value="true"/>
    <property name="noDestroy" type="bool" value="true"/>
    <property name="rotationMult" type="float" value="1"/>
    <property name="squib" type="int" value="-1"/>
    <property name="squibSE" value=""/>
    <property name="static" type="bool" value="true"/>
   </properties>
  </object>
  <object id="806" class="prop" gid="220" x="1089" y="1226" width="35" height="12">
   <properties>
    <property name="foreground" type="bool" value="true"/>
    <property name="noDestroy" type="bool" value="true"/>
    <property name="rotationMult" type="float" value="1"/>
    <property name="squib" type="int" value="-1"/>
    <property name="squibSE" value=""/>
    <property name="static" type="bool" value="true"/>
   </properties>
  </object>
  <object id="807" class="prop" gid="221" x="1108" y="1230" width="44" height="15">
   <properties>
    <property name="foreground" type="bool" value="true"/>
    <property name="noDestroy" type="bool" value="true"/>
    <property name="rotationMult" type="float" value="1"/>
    <property name="squib" type="int" value="-1"/>
    <property name="squibSE" value=""/>
    <property name="static" type="bool" value="true"/>
   </properties>
  </object>
  <object id="808" class="prop" gid="218" x="950" y="1243" width="47" height="33">
   <properties>
    <property name="foreground" type="bool" value="true"/>
    <property name="noDestroy" type="bool" value="true"/>
    <property name="rotationMult" type="float" value="1"/>
    <property name="squib" type="int" value="-1"/>
    <property name="squibSE" value=""/>
    <property name="static" type="bool" value="true"/>
   </properties>
  </object>
  <object id="809" class="prop" gid="220" x="999" y="1226" width="35" height="12">
   <properties>
    <property name="foreground" type="bool" value="true"/>
    <property name="noDestroy" type="bool" value="true"/>
    <property name="rotationMult" type="float" value="1"/>
    <property name="squib" type="int" value="-1"/>
    <property name="squibSE" value=""/>
    <property name="static" type="bool" value="true"/>
   </properties>
  </object>
  <object id="810" class="prop" gid="221" x="1018" y="1230" width="44" height="15">
   <properties>
    <property name="foreground" type="bool" value="true"/>
    <property name="noDestroy" type="bool" value="true"/>
    <property name="rotationMult" type="float" value="1"/>
    <property name="squib" type="int" value="-1"/>
    <property name="squibSE" value=""/>
    <property name="static" type="bool" value="true"/>
   </properties>
  </object>
  <object id="811" class="prop" gid="227" x="1139" y="1257" width="29" height="43">
   <properties>
    <property name="foreground" type="bool" value="true"/>
    <property name="noDestroy" type="bool" value="true"/>
    <property name="rotationMult" type="float" value="1"/>
    <property name="squib" type="int" value="-1"/>
    <property name="squibSE" value=""/>
    <property name="static" type="bool" value="true"/>
   </properties>
  </object>
  <object id="812" class="prop" gid="228" x="1073" y="1253" width="20" height="38">
   <properties>
    <property name="foreground" type="bool" value="true"/>
    <property name="noDestroy" type="bool" value="true"/>
    <property name="rotationMult" type="float" value="1"/>
    <property name="squib" type="int" value="-1"/>
    <property name="squibSE" value=""/>
    <property name="static" type="bool" value="true"/>
   </properties>
  </object>
  <object id="813" class="prop" gid="222" x="1264" y="1226" width="55" height="13">
   <properties>
    <property name="foreground" type="bool" value="true"/>
    <property name="noDestroy" type="bool" value="true"/>
    <property name="rotationMult" type="float" value="1"/>
    <property name="squib" type="int" value="-1"/>
    <property name="squibSE" value=""/>
    <property name="static" type="bool" value="true"/>
   </properties>
  </object>
  <object id="814" class="prop" gid="228" x="1301" y="1252" width="20" height="38">
   <properties>
    <property name="foreground" type="bool" value="true"/>
    <property name="noDestroy" type="bool" value="true"/>
    <property name="rotationMult" type="float" value="1"/>
    <property name="squib" type="int" value="-1"/>
    <property name="squibSE" value=""/>
    <property name="static" type="bool" value="true"/>
   </properties>
  </object>
  <object id="815" class="prop" gid="763" x="1183" y="1153" width="117" height="33">
   <properties>
    <property name="foreground" type="bool" value="true"/>
    <property name="noDestroy" type="bool" value="true"/>
    <property name="rotationMult" type="float" value="1"/>
    <property name="squib" type="int" value="-1"/>
    <property name="squibSE" value=""/>
    <property name="static" type="bool" value="true"/>
   </properties>
  </object>
  <object id="816" class="prop" gid="761" x="1268" y="1140" width="91" height="20">
   <properties>
    <property name="foreground" type="bool" value="true"/>
    <property name="noDestroy" type="bool" value="true"/>
    <property name="rotationMult" type="float" value="1"/>
    <property name="squib" type="int" value="-1"/>
    <property name="squibSE" value=""/>
    <property name="static" type="bool" value="true"/>
   </properties>
  </object>
  <object id="817" class="prop" gid="761" x="1104" y="1140" width="91" height="20">
   <properties>
    <property name="foreground" type="bool" value="true"/>
    <property name="noDestroy" type="bool" value="true"/>
    <property name="rotationMult" type="float" value="1"/>
    <property name="squib" type="int" value="-1"/>
    <property name="squibSE" value=""/>
    <property name="static" type="bool" value="true"/>
   </properties>
  </object>
  <object id="818" class="prop" gid="711" x="1296" y="1185" width="64" height="19">
   <properties>
    <property name="foreground" type="bool" value="true"/>
    <property name="noDestroy" type="bool" value="true"/>
    <property name="rotationMult" type="float" value="1"/>
    <property name="squib" type="int" value="-1"/>
    <property name="squibSE" value=""/>
    <property name="static" type="bool" value="true"/>
   </properties>
  </object>
  <object id="819" class="prop" gid="712" x="1251" y="1185" width="64" height="19">
   <properties>
    <property name="foreground" type="bool" value="true"/>
    <property name="noDestroy" type="bool" value="true"/>
    <property name="rotationMult" type="float" value="1"/>
    <property name="squib" type="int" value="-1"/>
    <property name="squibSE" value=""/>
    <property name="static" type="bool" value="true"/>
   </properties>
  </object>
  <object id="820" class="prop" gid="714" x="1191" y="1200" width="60" height="34">
   <properties>
    <property name="foreground" type="bool" value="true"/>
    <property name="noDestroy" type="bool" value="true"/>
    <property name="rotationMult" type="float" value="1"/>
    <property name="squib" type="int" value="-1"/>
    <property name="squibSE" value=""/>
    <property name="static" type="bool" value="true"/>
   </properties>
  </object>
  <object id="821" class="prop" gid="745" x="1275" y="1178" width="61" height="7">
   <properties>
    <property name="foreground" type="bool" value="true"/>
    <property name="noDestroy" type="bool" value="true"/>
    <property name="rotationMult" type="float" value="1"/>
    <property name="squib" type="int" value="-1"/>
    <property name="squibSE" value=""/>
    <property name="static" type="bool" value="true"/>
   </properties>
  </object>
  <object id="822" class="prop" gid="690" x="482" y="1212" width="14" height="32">
   <properties>
    <property name="foreground" type="bool" value="true"/>
    <property name="noDestroy" type="bool" value="true"/>
    <property name="rotationMult" type="float" value="1"/>
    <property name="squib" type="int" value="-1"/>
    <property name="squibSE" value=""/>
    <property name="static" type="bool" value="true"/>
   </properties>
  </object>
  <object id="823" class="prop" gid="690" x="482" y="1180" width="14" height="32">
   <properties>
    <property name="foreground" type="bool" value="true"/>
    <property name="noDestroy" type="bool" value="true"/>
    <property name="rotationMult" type="float" value="1"/>
    <property name="squib" type="int" value="-1"/>
    <property name="squibSE" value=""/>
    <property name="static" type="bool" value="true"/>
   </properties>
  </object>
  <object id="824" class="prop" gid="690" x="482" y="1148" width="14" height="32">
   <properties>
    <property name="foreground" type="bool" value="true"/>
    <property name="noDestroy" type="bool" value="true"/>
    <property name="rotationMult" type="float" value="1"/>
    <property name="squib" type="int" value="-1"/>
    <property name="squibSE" value=""/>
    <property name="static" type="bool" value="true"/>
   </properties>
  </object>
  <object id="825" class="prop" gid="690" x="482" y="1116" width="14" height="32">
   <properties>
    <property name="foreground" type="bool" value="true"/>
    <property name="noDestroy" type="bool" value="true"/>
    <property name="rotationMult" type="float" value="1"/>
    <property name="squib" type="int" value="-1"/>
    <property name="squibSE" value=""/>
    <property name="static" type="bool" value="true"/>
   </properties>
  </object>
  <object id="827" class="prop" gid="256" x="1004" y="1334" width="10" height="31">
   <properties>
    <property name="foreground" type="bool" value="false"/>
    <property name="noDestroy" type="bool" value="true"/>
    <property name="rotationMult" type="float" value="1"/>
    <property name="squib" type="int" value="-1"/>
    <property name="squibSE" value=""/>
    <property name="static" type="bool" value="true"/>
   </properties>
  </object>
  <object id="828" class="prop" gid="256" x="1362" y="1244" width="10" height="31" rotation="90">
   <properties>
    <property name="foreground" type="bool" value="false"/>
    <property name="noDestroy" type="bool" value="true"/>
    <property name="rotationMult" type="float" value="1"/>
    <property name="squib" type="int" value="-1"/>
    <property name="squibSE" value=""/>
    <property name="static" type="bool" value="true"/>
   </properties>
  </object>
  <object id="829" class="prop" gid="707" x="1008" y="1375" width="12" height="33">
   <properties>
    <property name="foreground" type="bool" value="false"/>
    <property name="noDestroy" type="bool" value="true"/>
    <property name="rotationMult" type="float" value="1"/>
    <property name="squib" type="int" value="-1"/>
    <property name="squibSE" value=""/>
    <property name="static" type="bool" value="true"/>
   </properties>
  </object>
  <object id="830" class="prop" gid="693" x="1370" y="1292" width="13" height="44">
   <properties>
    <property name="foreground" type="bool" value="false"/>
    <property name="noDestroy" type="bool" value="true"/>
    <property name="rotationMult" type="float" value="1"/>
    <property name="squib" type="int" value="-1"/>
    <property name="squibSE" value=""/>
    <property name="static" type="bool" value="true"/>
   </properties>
  </object>
  <object id="831" class="prop" gid="736" x="944" y="1296" width="12" height="20">
   <properties>
    <property name="foreground" type="bool" value="false"/>
    <property name="noDestroy" type="bool" value="true"/>
    <property name="rotationMult" type="float" value="1"/>
    <property name="squib" type="int" value="-1"/>
    <property name="squibSE" value=""/>
    <property name="static" type="bool" value="true"/>
   </properties>
  </object>
  <object id="832" class="prop" gid="705" x="944" y="1056" width="32" height="32" rotation="90">
   <properties>
    <property name="foreground" type="bool" value="false"/>
    <property name="noDestroy" type="bool" value="true"/>
    <property name="rotationMult" type="float" value="1"/>
    <property name="squib" type="int" value="-1"/>
    <property name="squibSE" value=""/>
    <property name="static" type="bool" value="true"/>
   </properties>
  </object>
  <object id="833" class="prop" gid="706" x="944" y="1024" width="32" height="32" rotation="90">
   <properties>
    <property name="foreground" type="bool" value="false"/>
    <property name="noDestroy" type="bool" value="true"/>
    <property name="rotationMult" type="float" value="1"/>
    <property name="squib" type="int" value="-1"/>
    <property name="squibSE" value=""/>
    <property name="static" type="bool" value="true"/>
   </properties>
  </object>
  <object id="835" class="prop" gid="705" x="944" y="1088" width="32" height="32" rotation="90">
   <properties>
    <property name="foreground" type="bool" value="false"/>
    <property name="noDestroy" type="bool" value="true"/>
    <property name="rotationMult" type="float" value="1"/>
    <property name="squib" type="int" value="-1"/>
    <property name="squibSE" value=""/>
    <property name="static" type="bool" value="true"/>
   </properties>
  </object>
  <object id="836" class="prop" gid="706" x="976" y="1152" width="32" height="32" rotation="270">
   <properties>
    <property name="foreground" type="bool" value="false"/>
    <property name="noDestroy" type="bool" value="true"/>
    <property name="rotationMult" type="float" value="1"/>
    <property name="squib" type="int" value="-1"/>
    <property name="squibSE" value=""/>
    <property name="static" type="bool" value="true"/>
   </properties>
  </object>
  <object id="840" class="prop" gid="675" x="1103" y="995" width="67" height="15">
   <properties>
    <property name="foreground" type="bool" value="true"/>
    <property name="noDestroy" type="bool" value="true"/>
    <property name="rotationMult" type="float" value="1"/>
    <property name="squib" type="int" value="-1"/>
    <property name="squibSE" value=""/>
    <property name="static" type="bool" value="true"/>
   </properties>
  </object>
  <object id="841" class="prop" gid="677" x="1054" y="995" width="48" height="14">
   <properties>
    <property name="foreground" type="bool" value="true"/>
    <property name="noDestroy" type="bool" value="true"/>
    <property name="rotationMult" type="float" value="1"/>
    <property name="squib" type="int" value="-1"/>
    <property name="squibSE" value=""/>
    <property name="static" type="bool" value="true"/>
   </properties>
  </object>
  <object id="842" class="prop" gid="676" x="985" y="996" width="70" height="17">
   <properties>
    <property name="foreground" type="bool" value="true"/>
    <property name="noDestroy" type="bool" value="true"/>
    <property name="rotationMult" type="float" value="1"/>
    <property name="squib" type="int" value="-1"/>
    <property name="squibSE" value=""/>
    <property name="static" type="bool" value="true"/>
   </properties>
  </object>
  <object id="843" class="prop" gid="701" x="976" y="992" width="32" height="32">
   <properties>
    <property name="foreground" type="bool" value="true"/>
    <property name="noDestroy" type="bool" value="true"/>
    <property name="rotationMult" type="float" value="1"/>
    <property name="squib" type="int" value="-1"/>
    <property name="squibSE" value=""/>
    <property name="static" type="bool" value="true"/>
   </properties>
  </object>
  <object id="844" class="prop" gid="701" x="976" y="960" width="32" height="32">
   <properties>
    <property name="foreground" type="bool" value="true"/>
    <property name="noDestroy" type="bool" value="true"/>
    <property name="rotationMult" type="float" value="1"/>
    <property name="squib" type="int" value="-1"/>
    <property name="squibSE" value=""/>
    <property name="static" type="bool" value="true"/>
   </properties>
  </object>
  <object id="845" class="prop" gid="702" x="1008" y="992" width="32" height="32">
   <properties>
    <property name="foreground" type="bool" value="true"/>
    <property name="noDestroy" type="bool" value="true"/>
    <property name="rotationMult" type="float" value="1"/>
    <property name="squib" type="int" value="-1"/>
    <property name="squibSE" value=""/>
    <property name="static" type="bool" value="true"/>
   </properties>
  </object>
  <object id="846" class="prop" gid="701" x="1008" y="960" width="32" height="32">
   <properties>
    <property name="foreground" type="bool" value="true"/>
    <property name="noDestroy" type="bool" value="true"/>
    <property name="rotationMult" type="float" value="1"/>
    <property name="squib" type="int" value="-1"/>
    <property name="squibSE" value=""/>
    <property name="static" type="bool" value="true"/>
   </properties>
  </object>
  <object id="847" class="prop" gid="701" x="1040" y="992" width="32" height="32">
   <properties>
    <property name="foreground" type="bool" value="true"/>
    <property name="noDestroy" type="bool" value="true"/>
    <property name="rotationMult" type="float" value="1"/>
    <property name="squib" type="int" value="-1"/>
    <property name="squibSE" value=""/>
    <property name="static" type="bool" value="true"/>
   </properties>
  </object>
  <object id="848" class="prop" gid="704" x="1040" y="960" width="32" height="32">
   <properties>
    <property name="foreground" type="bool" value="true"/>
    <property name="noDestroy" type="bool" value="true"/>
    <property name="rotationMult" type="float" value="1"/>
    <property name="squib" type="int" value="-1"/>
    <property name="squibSE" value=""/>
    <property name="static" type="bool" value="true"/>
   </properties>
  </object>
  <object id="849" class="prop" gid="701" x="1072" y="992" width="32" height="32">
   <properties>
    <property name="foreground" type="bool" value="true"/>
    <property name="noDestroy" type="bool" value="true"/>
    <property name="rotationMult" type="float" value="1"/>
    <property name="squib" type="int" value="-1"/>
    <property name="squibSE" value=""/>
    <property name="static" type="bool" value="true"/>
   </properties>
  </object>
  <object id="850" class="prop" gid="701" x="1104" y="992" width="32" height="32">
   <properties>
    <property name="foreground" type="bool" value="true"/>
    <property name="noDestroy" type="bool" value="true"/>
    <property name="rotationMult" type="float" value="1"/>
    <property name="squib" type="int" value="-1"/>
    <property name="squibSE" value=""/>
    <property name="static" type="bool" value="true"/>
   </properties>
  </object>
  <object id="851" class="prop" gid="701" x="1136" y="992" width="32" height="32">
   <properties>
    <property name="foreground" type="bool" value="true"/>
    <property name="noDestroy" type="bool" value="true"/>
    <property name="rotationMult" type="float" value="1"/>
    <property name="squib" type="int" value="-1"/>
    <property name="squibSE" value=""/>
    <property name="static" type="bool" value="true"/>
   </properties>
  </object>
  <object id="852" class="prop" gid="703" x="1132" y="960" width="36" height="32">
   <properties>
    <property name="foreground" type="bool" value="true"/>
    <property name="noDestroy" type="bool" value="true"/>
    <property name="rotationMult" type="float" value="1"/>
    <property name="squib" type="int" value="-1"/>
    <property name="squibSE" value=""/>
    <property name="static" type="bool" value="true"/>
   </properties>
  </object>
  <object id="853" class="prop" gid="763" x="982" y="961" width="117" height="33">
   <properties>
    <property name="foreground" type="bool" value="true"/>
    <property name="noDestroy" type="bool" value="true"/>
    <property name="rotationMult" type="float" value="1"/>
    <property name="squib" type="int" value="-1"/>
    <property name="squibSE" value=""/>
    <property name="static" type="bool" value="true"/>
   </properties>
  </object>
  <object id="854" class="prop" gid="761" x="1076" y="948" width="91" height="20">
   <properties>
    <property name="foreground" type="bool" value="true"/>
    <property name="noDestroy" type="bool" value="true"/>
    <property name="rotationMult" type="float" value="1"/>
    <property name="squib" type="int" value="-1"/>
    <property name="squibSE" value=""/>
    <property name="static" type="bool" value="true"/>
   </properties>
  </object>
  <object id="855" class="prop" gid="693" x="1113" y="972" width="13" height="44">
   <properties>
    <property name="foreground" type="bool" value="false"/>
    <property name="noDestroy" type="bool" value="true"/>
    <property name="rotationMult" type="float" value="1"/>
    <property name="squib" type="int" value="-1"/>
    <property name="squibSE" value=""/>
    <property name="static" type="bool" value="true"/>
   </properties>
  </object>
  <object id="856" class="prop" gid="692" x="1092" y="960" width="22" height="32">
   <properties>
    <property name="foreground" type="bool" value="false"/>
    <property name="noDestroy" type="bool" value="true"/>
    <property name="rotationMult" type="float" value="1"/>
    <property name="squib" type="int" value="-1"/>
    <property name="squibSE" value=""/>
    <property name="static" type="bool" value="true"/>
   </properties>
  </object>
  <object id="857" class="prop" gid="694" x="1082" y="954" width="11" height="26">
   <properties>
    <property name="foreground" type="bool" value="false"/>
    <property name="noDestroy" type="bool" value="true"/>
    <property name="rotationMult" type="float" value="1"/>
    <property name="squib" type="int" value="-1"/>
    <property name="squibSE" value=""/>
    <property name="static" type="bool" value="true"/>
   </properties>
  </object>
  <object id="858" class="prop" gid="693" x="965" y="972" width="13" height="44">
   <properties>
    <property name="foreground" type="bool" value="false"/>
    <property name="noDestroy" type="bool" value="true"/>
    <property name="rotationMult" type="float" value="1"/>
    <property name="squib" type="int" value="-1"/>
    <property name="squibSE" value=""/>
    <property name="static" type="bool" value="true"/>
   </properties>
  </object>
  <object id="859" class="prop" gid="692" x="944" y="960" width="22" height="32">
   <properties>
    <property name="foreground" type="bool" value="false"/>
    <property name="noDestroy" type="bool" value="true"/>
    <property name="rotationMult" type="float" value="1"/>
    <property name="squib" type="int" value="-1"/>
    <property name="squibSE" value=""/>
    <property name="static" type="bool" value="true"/>
   </properties>
  </object>
  <object id="860" class="prop" gid="707" x="512" y="1049" width="12" height="33">
   <properties>
    <property name="foreground" type="bool" value="false"/>
    <property name="noDestroy" type="bool" value="true"/>
    <property name="rotationMult" type="float" value="1"/>
    <property name="squib" type="int" value="-1"/>
    <property name="squibSE" value=""/>
    <property name="static" type="bool" value="true"/>
   </properties>
  </object>
  <object id="861" class="prop" gid="747" x="555" y="940" width="33" height="12">
   <properties>
    <property name="foreground" type="bool" value="true"/>
    <property name="noDestroy" type="bool" value="true"/>
    <property name="rotationMult" type="float" value="1"/>
    <property name="squib" type="int" value="-1"/>
    <property name="squibSE" value=""/>
    <property name="static" type="bool" value="true"/>
   </properties>
  </object>
  <object id="862" class="prop" gid="748" x="541" y="931" width="14" height="14" rotation="90">
   <properties>
    <property name="foreground" type="bool" value="true"/>
    <property name="noDestroy" type="bool" value="true"/>
    <property name="rotationMult" type="float" value="1"/>
    <property name="squib" type="int" value="-1"/>
    <property name="squibSE" value=""/>
    <property name="static" type="bool" value="true"/>
   </properties>
  </object>
  <object id="863" class="prop" gid="749" x="537" y="945" width="7" height="17" rotation="90">
   <properties>
    <property name="foreground" type="bool" value="true"/>
    <property name="noDestroy" type="bool" value="true"/>
    <property name="rotationMult" type="float" value="1"/>
    <property name="squib" type="int" value="-1"/>
    <property name="squibSE" value=""/>
    <property name="static" type="bool" value="true"/>
   </properties>
  </object>
  <object id="864" class="prop" gid="748" x="734" y="940" width="14" height="14" rotation="270">
   <properties>
    <property name="foreground" type="bool" value="true"/>
    <property name="noDestroy" type="bool" value="true"/>
    <property name="rotationMult" type="float" value="1"/>
    <property name="squib" type="int" value="-1"/>
    <property name="squibSE" value=""/>
    <property name="static" type="bool" value="true"/>
   </properties>
  </object>
  <object id="865" class="prop" gid="747" x="654" y="940" width="33" height="12">
   <properties>
    <property name="foreground" type="bool" value="true"/>
    <property name="noDestroy" type="bool" value="true"/>
    <property name="rotationMult" type="float" value="1"/>
    <property name="squib" type="int" value="-1"/>
    <property name="squibSE" value=""/>
    <property name="static" type="bool" value="true"/>
   </properties>
  </object>
  <object id="866" class="prop" gid="747" x="687" y="940" width="33" height="12">
   <properties>
    <property name="foreground" type="bool" value="true"/>
    <property name="noDestroy" type="bool" value="true"/>
    <property name="rotationMult" type="float" value="1"/>
    <property name="squib" type="int" value="-1"/>
    <property name="squibSE" value=""/>
    <property name="static" type="bool" value="true"/>
   </properties>
  </object>
  <object id="867" class="prop" gid="747" x="316" y="1054" width="33" height="12" rotation="270">
   <properties>
    <property name="foreground" type="bool" value="true"/>
    <property name="noDestroy" type="bool" value="true"/>
    <property name="rotationMult" type="float" value="1"/>
    <property name="squib" type="int" value="-1"/>
    <property name="squibSE" value=""/>
    <property name="static" type="bool" value="true"/>
   </properties>
  </object>
  <object id="868" class="prop" gid="748" x="307" y="1068" width="14" height="14">
   <properties>
    <property name="foreground" type="bool" value="true"/>
    <property name="noDestroy" type="bool" value="true"/>
    <property name="rotationMult" type="float" value="1"/>
    <property name="squib" type="int" value="-1"/>
    <property name="squibSE" value=""/>
    <property name="static" type="bool" value="true"/>
   </properties>
  </object>
  <object id="869" class="prop" gid="749" x="321" y="1072" width="7" height="17">
   <properties>
    <property name="foreground" type="bool" value="true"/>
    <property name="noDestroy" type="bool" value="true"/>
    <property name="rotationMult" type="float" value="1"/>
    <property name="squib" type="int" value="-1"/>
    <property name="squibSE" value=""/>
    <property name="static" type="bool" value="true"/>
   </properties>
  </object>
  <object id="870" class="prop" gid="748" x="316" y="941" width="14" height="14" rotation="180">
   <properties>
    <property name="foreground" type="bool" value="true"/>
    <property name="noDestroy" type="bool" value="true"/>
    <property name="rotationMult" type="float" value="1"/>
    <property name="squib" type="int" value="-1"/>
    <property name="squibSE" value=""/>
    <property name="static" type="bool" value="true"/>
   </properties>
  </object>
  <object id="871" class="prop" gid="747" x="316" y="1021" width="33" height="12" rotation="270">
   <properties>
    <property name="foreground" type="bool" value="true"/>
    <property name="noDestroy" type="bool" value="true"/>
    <property name="rotationMult" type="float" value="1"/>
    <property name="squib" type="int" value="-1"/>
    <property name="squibSE" value=""/>
    <property name="static" type="bool" value="true"/>
   </properties>
  </object>
  <object id="872" class="prop" gid="747" x="316" y="988" width="33" height="12" rotation="270">
   <properties>
    <property name="foreground" type="bool" value="true"/>
    <property name="noDestroy" type="bool" value="true"/>
    <property name="rotationMult" type="float" value="1"/>
    <property name="squib" type="int" value="-1"/>
    <property name="squibSE" value=""/>
    <property name="static" type="bool" value="true"/>
   </properties>
  </object>
  <object id="873" class="prop" gid="747" x="588" y="940" width="33" height="12">
   <properties>
    <property name="foreground" type="bool" value="true"/>
    <property name="noDestroy" type="bool" value="true"/>
    <property name="rotationMult" type="float" value="1"/>
    <property name="squib" type="int" value="-1"/>
    <property name="squibSE" value=""/>
    <property name="static" type="bool" value="true"/>
   </properties>
  </object>
  <object id="874" class="prop" gid="747" x="621" y="940" width="33" height="12">
   <properties>
    <property name="foreground" type="bool" value="true"/>
    <property name="noDestroy" type="bool" value="true"/>
    <property name="rotationMult" type="float" value="1"/>
    <property name="squib" type="int" value="-1"/>
    <property name="squibSE" value=""/>
    <property name="static" type="bool" value="true"/>
   </properties>
  </object>
  <object id="875" class="prop" gid="749" x="644" y="940" width="7" height="17" rotation="90">
   <properties>
    <property name="foreground" type="bool" value="true"/>
    <property name="noDestroy" type="bool" value="true"/>
    <property name="rotationMult" type="float" value="1"/>
    <property name="squib" type="int" value="-1"/>
    <property name="squibSE" value=""/>
    <property name="static" type="bool" value="true"/>
   </properties>
  </object>
  <object id="876" class="prop" gid="683" x="481" y="1216" width="16" height="16">
   <properties>
    <property name="foreground" type="bool" value="true"/>
    <property name="noDestroy" type="bool" value="true"/>
    <property name="rotationMult" type="float" value="1"/>
    <property name="squib" type="int" value="-1"/>
    <property name="squibSE" value=""/>
    <property name="static" type="bool" value="true"/>
   </properties>
  </object>
  <object id="877" class="prop" gid="684" x="497" y="1201" width="14" height="48" rotation="90">
   <properties>
    <property name="foreground" type="bool" value="true"/>
    <property name="noDestroy" type="bool" value="true"/>
    <property name="rotationMult" type="float" value="1"/>
    <property name="squib" type="int" value="-1"/>
    <property name="squibSE" value=""/>
    <property name="static" type="bool" value="true"/>
   </properties>
  </object>
  <object id="878" class="prop" gid="684" x="545" y="1201" width="14" height="48" rotation="90">
   <properties>
    <property name="foreground" type="bool" value="true"/>
    <property name="noDestroy" type="bool" value="true"/>
    <property name="rotationMult" type="float" value="1"/>
    <property name="squib" type="int" value="-1"/>
    <property name="squibSE" value=""/>
    <property name="static" type="bool" value="true"/>
   </properties>
  </object>
  <object id="879" class="prop" gid="684" x="593" y="1201" width="14" height="48" rotation="90">
   <properties>
    <property name="foreground" type="bool" value="true"/>
    <property name="noDestroy" type="bool" value="true"/>
    <property name="rotationMult" type="float" value="1"/>
    <property name="squib" type="int" value="-1"/>
    <property name="squibSE" value=""/>
    <property name="static" type="bool" value="true"/>
   </properties>
  </object>
  <object id="880" class="prop" gid="684" x="640" y="1201" width="14" height="48" rotation="90">
   <properties>
    <property name="foreground" type="bool" value="true"/>
    <property name="noDestroy" type="bool" value="true"/>
    <property name="rotationMult" type="float" value="1"/>
    <property name="squib" type="int" value="-1"/>
    <property name="squibSE" value=""/>
    <property name="static" type="bool" value="true"/>
   </properties>
  </object>
  <object id="881" class="prop" gid="222" x="521" y="1227" width="55" height="13">
   <properties>
    <property name="foreground" type="bool" value="true"/>
    <property name="noDestroy" type="bool" value="true"/>
    <property name="rotationMult" type="float" value="1"/>
    <property name="squib" type="int" value="-1"/>
    <property name="squibSE" value=""/>
    <property name="static" type="bool" value="true"/>
   </properties>
  </object>
  <object id="882" class="prop" gid="220" x="574" y="1226" width="35" height="12">
   <properties>
    <property name="foreground" type="bool" value="true"/>
    <property name="noDestroy" type="bool" value="true"/>
    <property name="rotationMult" type="float" value="1"/>
    <property name="squib" type="int" value="-1"/>
    <property name="squibSE" value=""/>
    <property name="static" type="bool" value="true"/>
   </properties>
  </object>
  <object id="883" class="prop" gid="221" x="593" y="1230" width="44" height="15">
   <properties>
    <property name="foreground" type="bool" value="true"/>
    <property name="noDestroy" type="bool" value="true"/>
    <property name="rotationMult" type="float" value="1"/>
    <property name="squib" type="int" value="-1"/>
    <property name="squibSE" value=""/>
    <property name="static" type="bool" value="true"/>
   </properties>
  </object>
  <object id="884" class="prop" gid="221" x="503" y="1230" width="44" height="15">
   <properties>
    <property name="foreground" type="bool" value="true"/>
    <property name="noDestroy" type="bool" value="true"/>
    <property name="rotationMult" type="float" value="1"/>
    <property name="squib" type="int" value="-1"/>
    <property name="squibSE" value=""/>
    <property name="static" type="bool" value="true"/>
   </properties>
  </object>
  <object id="885" class="prop" gid="227" x="624" y="1257" width="29" height="43">
   <properties>
    <property name="foreground" type="bool" value="true"/>
    <property name="noDestroy" type="bool" value="true"/>
    <property name="rotationMult" type="float" value="1"/>
    <property name="squib" type="int" value="-1"/>
    <property name="squibSE" value=""/>
    <property name="static" type="bool" value="true"/>
   </properties>
  </object>
  <object id="886" class="prop" gid="228" x="558" y="1253" width="20" height="38">
   <properties>
    <property name="foreground" type="bool" value="true"/>
    <property name="noDestroy" type="bool" value="true"/>
    <property name="rotationMult" type="float" value="1"/>
    <property name="squib" type="int" value="-1"/>
    <property name="squibSE" value=""/>
    <property name="static" type="bool" value="true"/>
   </properties>
  </object>
  <object id="887" class="prop" gid="763" x="319" y="961" width="117" height="33">
   <properties>
    <property name="foreground" type="bool" value="true"/>
    <property name="noDestroy" type="bool" value="true"/>
    <property name="rotationMult" type="float" value="1"/>
    <property name="squib" type="int" value="-1"/>
    <property name="squibSE" value=""/>
    <property name="static" type="bool" value="true"/>
   </properties>
  </object>
  <object id="888" class="prop" gid="761" x="413" y="948" width="91" height="20">
   <properties>
    <property name="foreground" type="bool" value="true"/>
    <property name="noDestroy" type="bool" value="true"/>
    <property name="rotationMult" type="float" value="1"/>
    <property name="squib" type="int" value="-1"/>
    <property name="squibSE" value=""/>
    <property name="static" type="bool" value="true"/>
   </properties>
  </object>
  <object id="889" class="prop" gid="256" x="748" y="924" width="10" height="31" rotation="90">
   <properties>
    <property name="foreground" type="bool" value="false"/>
    <property name="noDestroy" type="bool" value="true"/>
    <property name="rotationMult" type="float" value="1"/>
    <property name="squib" type="int" value="-1"/>
    <property name="squibSE" value=""/>
    <property name="static" type="bool" value="true"/>
   </properties>
  </object>
  <object id="890" class="prop" gid="700" x="944" y="992" width="32" height="32" rotation="90">
   <properties>
    <property name="foreground" type="bool" value="false"/>
    <property name="noDestroy" type="bool" value="true"/>
    <property name="rotationMult" type="float" value="1"/>
    <property name="squib" type="int" value="-1"/>
    <property name="squibSE" value=""/>
    <property name="static" type="bool" value="true"/>
   </properties>
  </object>
  <object id="892" class="prop" gid="698" x="944" y="1024" width="32" height="32">
   <properties>
    <property name="foreground" type="bool" value="false"/>
    <property name="noDestroy" type="bool" value="true"/>
    <property name="rotationMult" type="float" value="1"/>
    <property name="squib" type="int" value="-1"/>
    <property name="squibSE" value=""/>
    <property name="static" type="bool" value="true"/>
   </properties>
  </object>
  <object id="893" class="prop" gid="688" x="288" y="1440" width="48" height="47">
   <properties>
    <property name="foreground" type="bool" value="false"/>
    <property name="noDestroy" type="bool" value="true"/>
    <property name="rotationMult" type="float" value="1"/>
    <property name="squib" type="int" value="-1"/>
    <property name="squibSE" value=""/>
    <property name="static" type="bool" value="true"/>
   </properties>
  </object>
  <object id="894" class="prop" gid="688" x="352" y="1440" width="48" height="47">
   <properties>
    <property name="foreground" type="bool" value="false"/>
    <property name="noDestroy" type="bool" value="true"/>
    <property name="rotationMult" type="float" value="1"/>
    <property name="squib" type="int" value="-1"/>
    <property name="squibSE" value=""/>
    <property name="static" type="bool" value="true"/>
   </properties>
  </object>
  <object id="896" class="prop" gid="678" x="299" y="1218" width="45" height="13">
   <properties>
    <property name="foreground" type="bool" value="true"/>
    <property name="noDestroy" type="bool" value="true"/>
    <property name="rotationMult" type="float" value="1"/>
    <property name="squib" type="int" value="-1"/>
    <property name="squibSE" value=""/>
    <property name="static" type="bool" value="true"/>
   </properties>
  </object>
  <object id="897" class="prop" gid="677" x="299" y="1212" width="48" height="14" rotation="4.81956">
   <properties>
    <property name="foreground" type="bool" value="true"/>
    <property name="noDestroy" type="bool" value="true"/>
    <property name="rotationMult" type="float" value="1"/>
    <property name="squib" type="int" value="-1"/>
    <property name="squibSE" value=""/>
    <property name="static" type="bool" value="true"/>
   </properties>
  </object>
  <object id="898" class="prop" gid="676" x="763" y="1443" width="70" height="17">
   <properties>
    <property name="foreground" type="bool" value="true"/>
    <property name="noDestroy" type="bool" value="true"/>
    <property name="rotationMult" type="float" value="1"/>
    <property name="squib" type="int" value="-1"/>
    <property name="squibSE" value=""/>
    <property name="static" type="bool" value="true"/>
   </properties>
  </object>
  <object id="899" class="prop" gid="677" x="762" y="1437" width="48" height="14">
   <properties>
    <property name="foreground" type="bool" value="true"/>
    <property name="noDestroy" type="bool" value="true"/>
    <property name="rotationMult" type="float" value="1"/>
    <property name="squib" type="int" value="-1"/>
    <property name="squibSE" value=""/>
    <property name="static" type="bool" value="true"/>
   </properties>
  </object>
  <object id="900" class="prop" gid="675" x="769" y="1436" width="67" height="15">
   <properties>
    <property name="foreground" type="bool" value="true"/>
    <property name="noDestroy" type="bool" value="true"/>
    <property name="rotationMult" type="float" value="1"/>
    <property name="squib" type="int" value="-1"/>
    <property name="squibSE" value=""/>
    <property name="static" type="bool" value="true"/>
   </properties>
  </object>
  <object id="901" class="prop" gid="677" x="512" y="1443" width="48" height="14">
   <properties>
    <property name="foreground" type="bool" value="true"/>
    <property name="noDestroy" type="bool" value="true"/>
    <property name="rotationMult" type="float" value="1"/>
    <property name="squib" type="int" value="-1"/>
    <property name="squibSE" value=""/>
    <property name="static" type="bool" value="true"/>
   </properties>
  </object>
  <object id="902" class="prop" gid="676" x="413" y="1443" width="70" height="17">
   <properties>
    <property name="foreground" type="bool" value="true"/>
    <property name="noDestroy" type="bool" value="true"/>
    <property name="rotationMult" type="float" value="1"/>
    <property name="squib" type="int" value="-1"/>
    <property name="squibSE" value=""/>
    <property name="static" type="bool" value="true"/>
   </properties>
  </object>
  <object id="904" class="prop" gid="761" x="401" y="1092" width="91" height="20">
   <properties>
    <property name="foreground" type="bool" value="true"/>
    <property name="noDestroy" type="bool" value="true"/>
    <property name="rotationMult" type="float" value="1"/>
    <property name="squib" type="int" value="-1"/>
    <property name="squibSE" value=""/>
    <property name="static" type="bool" value="true"/>
   </properties>
  </object>
  <object id="905" class="prop" gid="228" x="405" y="1110" width="20" height="38">
   <properties>
    <property name="foreground" type="bool" value="true"/>
    <property name="noDestroy" type="bool" value="true"/>
    <property name="rotationMult" type="float" value="1"/>
    <property name="squib" type="int" value="-1"/>
    <property name="squibSE" value=""/>
    <property name="static" type="bool" value="true"/>
   </properties>
  </object>
  <object id="906" class="prop" gid="693" x="706" y="1037" width="13" height="44">
   <properties>
    <property name="foreground" type="bool" value="false"/>
    <property name="noDestroy" type="bool" value="true"/>
    <property name="rotationMult" type="float" value="1"/>
    <property name="squib" type="int" value="-1"/>
    <property name="squibSE" value=""/>
    <property name="static" type="bool" value="true"/>
   </properties>
  </object>
  <object id="907" class="prop" gid="499" x="700" y="996" width="24" height="24">
   <properties>
    <property name="foreground" type="bool" value="false"/>
    <property name="noDestroy" type="bool" value="true"/>
    <property name="rotationMult" type="float" value="1"/>
    <property name="squib" type="int" value="-1"/>
    <property name="squibSE" value=""/>
    <property name="static" type="bool" value="true"/>
   </properties>
  </object>
  <object id="908" class="prop" gid="757" x="589" y="992" width="24" height="16">
   <properties>
    <property name="foreground" type="bool" value="false"/>
    <property name="noDestroy" type="bool" value="true"/>
    <property name="rotationMult" type="float" value="1"/>
    <property name="squib" type="int" value="-1"/>
    <property name="squibSE" value=""/>
    <property name="static" type="bool" value="true"/>
   </properties>
  </object>
  <object id="909" class="prop" gid="755" x="615" y="993" width="19" height="18">
   <properties>
    <property name="foreground" type="bool" value="false"/>
    <property name="noDestroy" type="bool" value="true"/>
    <property name="rotationMult" type="float" value="1"/>
    <property name="squib" type="int" value="-1"/>
    <property name="squibSE" value=""/>
    <property name="static" type="bool" value="true"/>
   </properties>
  </object>
  <object id="910" class="prop" gid="760" x="591" y="1012" width="21" height="16">
   <properties>
    <property name="foreground" type="bool" value="false"/>
    <property name="noDestroy" type="bool" value="true"/>
    <property name="rotationMult" type="float" value="1"/>
    <property name="squib" type="int" value="-1"/>
    <property name="squibSE" value=""/>
    <property name="static" type="bool" value="true"/>
   </properties>
  </object>
  <object id="911" class="prop" gid="751" x="615" y="1012" width="20" height="17">
   <properties>
    <property name="foreground" type="bool" value="false"/>
    <property name="noDestroy" type="bool" value="true"/>
    <property name="rotationMult" type="float" value="1"/>
    <property name="squib" type="int" value="-1"/>
    <property name="squibSE" value=""/>
    <property name="static" type="bool" value="true"/>
   </properties>
  </object>
  <object id="912" class="prop" gid="752" x="637" y="1013" width="19" height="18">
   <properties>
    <property name="foreground" type="bool" value="false"/>
    <property name="noDestroy" type="bool" value="true"/>
    <property name="rotationMult" type="float" value="1"/>
    <property name="squib" type="int" value="-1"/>
    <property name="squibSE" value=""/>
    <property name="static" type="bool" value="true"/>
   </properties>
  </object>
  <object id="913" class="prop" gid="700" x="800" y="1104" width="32" height="32">
   <properties>
    <property name="foreground" type="bool" value="false"/>
    <property name="noDestroy" type="bool" value="true"/>
    <property name="rotationMult" type="float" value="1"/>
    <property name="squib" type="int" value="-1"/>
    <property name="squibSE" value=""/>
    <property name="static" type="bool" value="true"/>
   </properties>
  </object>
  <object id="914" class="prop" gid="699" x="800" y="1136" width="32" height="32">
   <properties>
    <property name="foreground" type="bool" value="false"/>
    <property name="noDestroy" type="bool" value="true"/>
    <property name="rotationMult" type="float" value="1"/>
    <property name="squib" type="int" value="-1"/>
    <property name="squibSE" value=""/>
    <property name="static" type="bool" value="true"/>
   </properties>
  </object>
  <object id="915" class="prop" gid="700" x="800" y="1200" width="32" height="32">
   <properties>
    <property name="foreground" type="bool" value="false"/>
    <property name="noDestroy" type="bool" value="true"/>
    <property name="rotationMult" type="float" value="1"/>
    <property name="squib" type="int" value="-1"/>
    <property name="squibSE" value=""/>
    <property name="static" type="bool" value="true"/>
   </properties>
  </object>
  <object id="917" class="prop" gid="696" x="800" y="1104" width="32" height="32">
   <properties>
    <property name="foreground" type="bool" value="false"/>
    <property name="noDestroy" type="bool" value="true"/>
    <property name="rotationMult" type="float" value="1"/>
    <property name="squib" type="int" value="-1"/>
    <property name="squibSE" value=""/>
    <property name="static" type="bool" value="true"/>
   </properties>
  </object>
  <object id="918" class="prop" gid="698" x="800" y="1136" width="32" height="32">
   <properties>
    <property name="foreground" type="bool" value="false"/>
    <property name="noDestroy" type="bool" value="true"/>
    <property name="rotationMult" type="float" value="1"/>
    <property name="squib" type="int" value="-1"/>
    <property name="squibSE" value=""/>
    <property name="static" type="bool" value="true"/>
   </properties>
  </object>
  <object id="919" class="prop" gid="695" x="800" y="1168" width="32" height="32">
   <properties>
    <property name="foreground" type="bool" value="false"/>
    <property name="noDestroy" type="bool" value="true"/>
    <property name="rotationMult" type="float" value="1"/>
    <property name="squib" type="int" value="-1"/>
    <property name="squibSE" value=""/>
    <property name="static" type="bool" value="true"/>
   </properties>
  </object>
  <object id="920" class="prop" gid="697" x="800" y="1200" width="32" height="32">
   <properties>
    <property name="foreground" type="bool" value="false"/>
    <property name="noDestroy" type="bool" value="true"/>
    <property name="rotationMult" type="float" value="1"/>
    <property name="squib" type="int" value="-1"/>
    <property name="squibSE" value=""/>
    <property name="static" type="bool" value="true"/>
   </properties>
  </object>
  <object id="921" class="prop" gid="695" x="800" y="1232" width="32" height="32">
   <properties>
    <property name="foreground" type="bool" value="false"/>
    <property name="noDestroy" type="bool" value="true"/>
    <property name="rotationMult" type="float" value="1"/>
    <property name="squib" type="int" value="-1"/>
    <property name="squibSE" value=""/>
    <property name="static" type="bool" value="true"/>
   </properties>
  </object>
  <object id="922" class="prop" gid="695" x="800" y="1248" width="32" height="32">
   <properties>
    <property name="foreground" type="bool" value="false"/>
    <property name="noDestroy" type="bool" value="true"/>
    <property name="rotationMult" type="float" value="1"/>
    <property name="squib" type="int" value="-1"/>
    <property name="squibSE" value=""/>
    <property name="static" type="bool" value="true"/>
   </properties>
  </object>
  <object id="923" class="prop" gid="680" x="288" y="1104" width="8" height="32">
   <properties>
    <property name="foreground" type="bool" value="false"/>
    <property name="noDestroy" type="bool" value="true"/>
    <property name="rotationMult" type="float" value="1"/>
    <property name="squib" type="int" value="-1"/>
    <property name="squibSE" value=""/>
    <property name="static" type="bool" value="true"/>
   </properties>
  </object>
  <object id="924" class="prop" gid="681" x="288" y="1136" width="8" height="32">
   <properties>
    <property name="foreground" type="bool" value="false"/>
    <property name="noDestroy" type="bool" value="true"/>
    <property name="rotationMult" type="float" value="1"/>
    <property name="squib" type="int" value="-1"/>
    <property name="squibSE" value=""/>
    <property name="static" type="bool" value="true"/>
   </properties>
  </object>
  <object id="926" class="prop" gid="722" x="407" y="1169" width="64" height="19" rotation="180">
   <properties>
    <property name="foreground" type="bool" value="false"/>
    <property name="noDestroy" type="bool" value="true"/>
    <property name="rotationMult" type="float" value="1"/>
    <property name="squib" type="int" value="-1"/>
    <property name="squibSE" value=""/>
    <property name="static" type="bool" value="true"/>
   </properties>
  </object>
  <object id="927" class="prop" gid="723" x="454" y="1342" width="64" height="19" rotation="270">
   <properties>
    <property name="foreground" type="bool" value="false"/>
    <property name="noDestroy" type="bool" value="true"/>
    <property name="rotationMult" type="float" value="1"/>
    <property name="squib" type="int" value="-1"/>
    <property name="squibSE" value=""/>
    <property name="static" type="bool" value="true"/>
   </properties>
  </object>
  <object id="928" class="prop" gid="722" x="454" y="1278" width="64" height="19" rotation="270">
   <properties>
    <property name="foreground" type="bool" value="false"/>
    <property name="noDestroy" type="bool" value="true"/>
    <property name="rotationMult" type="float" value="1"/>
    <property name="squib" type="int" value="-1"/>
    <property name="squibSE" value=""/>
    <property name="static" type="bool" value="true"/>
   </properties>
  </object>
  <object id="929" class="prop" gid="722" x="368" y="1169" width="64" height="19" rotation="180">
   <properties>
    <property name="foreground" type="bool" value="false"/>
    <property name="noDestroy" type="bool" value="true"/>
    <property name="rotationMult" type="float" value="1"/>
    <property name="squib" type="int" value="-1"/>
    <property name="squibSE" value=""/>
    <property name="static" type="bool" value="true"/>
   </properties>
  </object>
  <object id="932" class="prop" gid="722" x="728" y="1342" width="64" height="19" rotation="270">
   <properties>
    <property name="foreground" type="bool" value="false"/>
    <property name="noDestroy" type="bool" value="true"/>
    <property name="rotationMult" type="float" value="1"/>
    <property name="squib" type="int" value="-1"/>
    <property name="squibSE" value=""/>
    <property name="static" type="bool" value="true"/>
   </properties>
  </object>
  <object id="933" class="prop" gid="722" x="728" y="1312" width="64" height="19" rotation="270">
   <properties>
    <property name="foreground" type="bool" value="false"/>
    <property name="noDestroy" type="bool" value="true"/>
    <property name="rotationMult" type="float" value="1"/>
    <property name="squib" type="int" value="-1"/>
    <property name="squibSE" value=""/>
    <property name="static" type="bool" value="true"/>
   </properties>
  </object>
  <object id="934" class="prop" gid="761" x="694" y="1268" width="91" height="20">
   <properties>
    <property name="foreground" type="bool" value="true"/>
    <property name="noDestroy" type="bool" value="true"/>
    <property name="rotationMult" type="float" value="1"/>
    <property name="squib" type="int" value="-1"/>
    <property name="squibSE" value=""/>
    <property name="static" type="bool" value="true"/>
   </properties>
  </object>
  <object id="935" class="prop" gid="725" x="519" y="1342" width="45" height="47" rotation="270">
   <properties>
    <property name="foreground" type="bool" value="false"/>
    <property name="noDestroy" type="bool" value="true"/>
    <property name="rotationMult" type="float" value="1"/>
    <property name="squib" type="int" value="-1"/>
    <property name="squibSE" value=""/>
    <property name="static" type="bool" value="true"/>
   </properties>
  </object>
  <object id="936" class="prop" gid="722" x="472" y="1297" width="64" height="19" rotation="180">
   <properties>
    <property name="foreground" type="bool" value="false"/>
    <property name="noDestroy" type="bool" value="true"/>
    <property name="rotationMult" type="float" value="1"/>
    <property name="squib" type="int" value="-1"/>
    <property name="squibSE" value=""/>
    <property name="static" type="bool" value="true"/>
   </properties>
  </object>
  <object id="937" class="prop" gid="722" x="433" y="1297" width="64" height="19" rotation="180">
   <properties>
    <property name="foreground" type="bool" value="false"/>
    <property name="noDestroy" type="bool" value="true"/>
    <property name="rotationMult" type="float" value="1"/>
    <property name="squib" type="int" value="-1"/>
    <property name="squibSE" value=""/>
    <property name="static" type="bool" value="true"/>
   </properties>
  </object>
  <object id="938" class="prop" gid="722" x="416" y="1297" width="64" height="19" rotation="180">
   <properties>
    <property name="foreground" type="bool" value="false"/>
    <property name="noDestroy" type="bool" value="true"/>
    <property name="rotationMult" type="float" value="1"/>
    <property name="squib" type="int" value="-1"/>
    <property name="squibSE" value=""/>
    <property name="static" type="bool" value="true"/>
   </properties>
  </object>
  <object id="942" class="prop" gid="722" x="628" y="928" width="64" height="19" rotation="90">
   <properties>
    <property name="foreground" type="bool" value="true"/>
    <property name="noDestroy" type="bool" value="true"/>
    <property name="rotationMult" type="float" value="1"/>
    <property name="squib" type="int" value="-1"/>
    <property name="squibSE" value=""/>
    <property name="static" type="bool" value="true"/>
   </properties>
  </object>
  <object id="943" class="prop" gid="722" x="628" y="992" width="64" height="19" rotation="90">
   <properties>
    <property name="foreground" type="bool" value="true"/>
    <property name="noDestroy" type="bool" value="true"/>
    <property name="rotationMult" type="float" value="1"/>
    <property name="squib" type="int" value="-1"/>
    <property name="squibSE" value=""/>
    <property name="static" type="bool" value="true"/>
   </properties>
  </object>
  <object id="945" class="prop" gid="726" x="628" y="1119" width="60" height="40" rotation="90">
   <properties>
    <property name="foreground" type="bool" value="true"/>
    <property name="noDestroy" type="bool" value="true"/>
    <property name="rotationMult" type="float" value="1"/>
    <property name="squib" type="int" value="-1"/>
    <property name="squibSE" value=""/>
    <property name="static" type="bool" value="true"/>
   </properties>
  </object>
  <object id="946" class="prop" gid="684" x="482" y="1344" width="14" height="48">
   <properties>
    <property name="foreground" type="bool" value="true"/>
    <property name="noDestroy" type="bool" value="true"/>
    <property name="rotationMult" type="float" value="1"/>
    <property name="squib" type="int" value="-1"/>
    <property name="squibSE" value=""/>
    <property name="static" type="bool" value="true"/>
   </properties>
  </object>
  <object id="948" class="prop" gid="727" x="628" y="1056" width="63" height="19" rotation="90">
   <properties>
    <property name="foreground" type="bool" value="true"/>
    <property name="noDestroy" type="bool" value="true"/>
    <property name="rotationMult" type="float" value="1"/>
    <property name="squib" type="int" value="-1"/>
    <property name="squibSE" value=""/>
    <property name="static" type="bool" value="true"/>
   </properties>
  </object>
  <object id="950" class="prop" gid="746" x="641" y="1065" width="43" height="7" rotation="270">
   <properties>
    <property name="foreground" type="bool" value="true"/>
    <property name="noDestroy" type="bool" value="true"/>
    <property name="rotationMult" type="float" value="1"/>
    <property name="squib" type="int" value="-1"/>
    <property name="squibSE" value=""/>
    <property name="static" type="bool" value="true"/>
   </properties>
  </object>
  <object id="951" class="prop" gid="708" x="451" y="1339" width="14" height="14" rotation="270">
   <properties>
    <property name="foreground" type="bool" value="false"/>
    <property name="noDestroy" type="bool" value="true"/>
    <property name="rotationMult" type="float" value="1"/>
    <property name="squib" type="int" value="-1"/>
    <property name="squibSE" value=""/>
    <property name="static" type="bool" value="true"/>
   </properties>
  </object>
  <object id="952" class="prop" gid="708" x="516" y="1340" width="14" height="14" rotation="270">
   <properties>
    <property name="foreground" type="bool" value="false"/>
    <property name="noDestroy" type="bool" value="true"/>
    <property name="rotationMult" type="float" value="1"/>
    <property name="squib" type="int" value="-1"/>
    <property name="squibSE" value=""/>
    <property name="static" type="bool" value="true"/>
   </properties>
  </object>
  <object id="953" class="prop" gid="708" x="726" y="1340" width="14" height="14" rotation="270">
   <properties>
    <property name="foreground" type="bool" value="false"/>
    <property name="noDestroy" type="bool" value="true"/>
    <property name="rotationMult" type="float" value="1"/>
    <property name="squib" type="int" value="-1"/>
    <property name="squibSE" value=""/>
    <property name="static" type="bool" value="true"/>
   </properties>
  </object>
  <object id="954" class="prop" gid="746" x="448" y="1267" width="43" height="7" rotation="270">
   <properties>
    <property name="foreground" type="bool" value="false"/>
    <property name="noDestroy" type="bool" value="true"/>
    <property name="rotationMult" type="float" value="1"/>
    <property name="squib" type="int" value="-1"/>
    <property name="squibSE" value=""/>
    <property name="static" type="bool" value="true"/>
   </properties>
  </object>
  <object id="955" class="prop" gid="677" x="406" y="994" width="48" height="14">
   <properties>
    <property name="foreground" type="bool" value="true"/>
    <property name="noDestroy" type="bool" value="true"/>
    <property name="rotationMult" type="float" value="1"/>
    <property name="squib" type="int" value="-1"/>
    <property name="squibSE" value=""/>
    <property name="static" type="bool" value="true"/>
   </properties>
  </object>
  <object id="956" class="prop" gid="676" x="725" y="1076" width="70" height="17">
   <properties>
    <property name="foreground" type="bool" value="true"/>
    <property name="noDestroy" type="bool" value="true"/>
    <property name="rotationMult" type="float" value="1"/>
    <property name="squib" type="int" value="-1"/>
    <property name="squibSE" value=""/>
    <property name="static" type="bool" value="true"/>
   </properties>
  </object>
  <object id="957" class="prop" gid="676" x="271" y="1444" width="70" height="17">
   <properties>
    <property name="foreground" type="bool" value="true"/>
    <property name="noDestroy" type="bool" value="true"/>
    <property name="rotationMult" type="float" value="1"/>
    <property name="squib" type="int" value="-1"/>
    <property name="squibSE" value=""/>
    <property name="static" type="bool" value="true"/>
   </properties>
  </object>
  <object id="958" class="prop" gid="256" x="268" y="1379" width="10" height="31">
   <properties>
    <property name="foreground" type="bool" value="false"/>
    <property name="noDestroy" type="bool" value="true"/>
    <property name="rotationMult" type="float" value="1"/>
    <property name="squib" type="int" value="-1"/>
    <property name="squibSE" value=""/>
    <property name="static" type="bool" value="true"/>
   </properties>
  </object>
  <object id="960" class="prop" gid="222" x="295" y="1356" width="55" height="13">
   <properties>
    <property name="foreground" type="bool" value="true"/>
    <property name="noDestroy" type="bool" value="true"/>
    <property name="rotationMult" type="float" value="1"/>
    <property name="squib" type="int" value="-1"/>
    <property name="squibSE" value=""/>
    <property name="static" type="bool" value="true"/>
   </properties>
  </object>
  <object id="961" class="prop" gid="221" x="277" y="1359" width="44" height="15">
   <properties>
    <property name="foreground" type="bool" value="true"/>
    <property name="noDestroy" type="bool" value="true"/>
    <property name="rotationMult" type="float" value="1"/>
    <property name="squib" type="int" value="-1"/>
    <property name="squibSE" value=""/>
    <property name="static" type="bool" value="true"/>
   </properties>
  </object>
  <object id="962" class="prop" gid="702" x="800" y="1344" width="32" height="32">
   <properties>
    <property name="foreground" type="bool" value="true"/>
    <property name="noDestroy" type="bool" value="true"/>
    <property name="rotationMult" type="float" value="1"/>
    <property name="squib" type="int" value="-1"/>
    <property name="squibSE" value=""/>
    <property name="static" type="bool" value="true"/>
   </properties>
  </object>
  <object id="963" class="prop" gid="701" x="800" y="1280" width="32" height="32">
   <properties>
    <property name="foreground" type="bool" value="true"/>
    <property name="noDestroy" type="bool" value="true"/>
    <property name="rotationMult" type="float" value="1"/>
    <property name="squib" type="int" value="-1"/>
    <property name="squibSE" value=""/>
    <property name="static" type="bool" value="true"/>
   </properties>
  </object>
  <object id="964" class="prop" gid="701" x="800" y="1376" width="32" height="32">
   <properties>
    <property name="foreground" type="bool" value="true"/>
    <property name="noDestroy" type="bool" value="true"/>
    <property name="rotationMult" type="float" value="1"/>
    <property name="squib" type="int" value="-1"/>
    <property name="squibSE" value=""/>
    <property name="static" type="bool" value="true"/>
   </properties>
  </object>
  <object id="965" class="prop" gid="704" x="800" y="1312" width="32" height="32">
   <properties>
    <property name="foreground" type="bool" value="true"/>
    <property name="noDestroy" type="bool" value="true"/>
    <property name="rotationMult" type="float" value="1"/>
    <property name="squib" type="int" value="-1"/>
    <property name="squibSE" value=""/>
    <property name="static" type="bool" value="true"/>
   </properties>
  </object>
  <object id="966" class="prop" gid="704" x="800" y="1408" width="32" height="32">
   <properties>
    <property name="foreground" type="bool" value="true"/>
    <property name="noDestroy" type="bool" value="true"/>
    <property name="rotationMult" type="float" value="1"/>
    <property name="squib" type="int" value="-1"/>
    <property name="squibSE" value=""/>
    <property name="static" type="bool" value="true"/>
   </properties>
  </object>
  <object id="967" class="prop" gid="704" x="800" y="1440" width="32" height="32">
   <properties>
    <property name="foreground" type="bool" value="true"/>
    <property name="noDestroy" type="bool" value="true"/>
    <property name="rotationMult" type="float" value="1"/>
    <property name="squib" type="int" value="-1"/>
    <property name="squibSE" value=""/>
    <property name="static" type="bool" value="true"/>
   </properties>
  </object>
  <object id="968" class="prop" gid="701" x="336" y="1056" width="32" height="32">
   <properties>
    <property name="foreground" type="bool" value="true"/>
    <property name="noDestroy" type="bool" value="true"/>
    <property name="rotationMult" type="float" value="1"/>
    <property name="squib" type="int" value="-1"/>
    <property name="squibSE" value=""/>
    <property name="static" type="bool" value="true"/>
   </properties>
  </object>
  <object id="969" class="prop" gid="701" x="336" y="1024" width="32" height="32">
   <properties>
    <property name="foreground" type="bool" value="true"/>
    <property name="noDestroy" type="bool" value="true"/>
    <property name="rotationMult" type="float" value="1"/>
    <property name="squib" type="int" value="-1"/>
    <property name="squibSE" value=""/>
    <property name="static" type="bool" value="true"/>
   </properties>
  </object>
  <object id="970" class="prop" gid="702" x="368" y="1056" width="32" height="32">
   <properties>
    <property name="foreground" type="bool" value="true"/>
    <property name="noDestroy" type="bool" value="true"/>
    <property name="rotationMult" type="float" value="1"/>
    <property name="squib" type="int" value="-1"/>
    <property name="squibSE" value=""/>
    <property name="static" type="bool" value="true"/>
   </properties>
  </object>
  <object id="971" class="prop" gid="701" x="368" y="1024" width="32" height="32">
   <properties>
    <property name="foreground" type="bool" value="true"/>
    <property name="noDestroy" type="bool" value="true"/>
    <property name="rotationMult" type="float" value="1"/>
    <property name="squib" type="int" value="-1"/>
    <property name="squibSE" value=""/>
    <property name="static" type="bool" value="true"/>
   </properties>
  </object>
  <object id="972" class="prop" gid="702" x="304" y="1056" width="32" height="32">
   <properties>
    <property name="foreground" type="bool" value="true"/>
    <property name="noDestroy" type="bool" value="true"/>
    <property name="rotationMult" type="float" value="1"/>
    <property name="squib" type="int" value="-1"/>
    <property name="squibSE" value=""/>
    <property name="static" type="bool" value="true"/>
   </properties>
  </object>
  <object id="973" class="prop" gid="701" x="304" y="1024" width="32" height="32">
   <properties>
    <property name="foreground" type="bool" value="true"/>
    <property name="noDestroy" type="bool" value="true"/>
    <property name="rotationMult" type="float" value="1"/>
    <property name="squib" type="int" value="-1"/>
    <property name="squibSE" value=""/>
    <property name="static" type="bool" value="true"/>
   </properties>
  </object>
  <object id="974" class="prop" gid="677" x="396" y="1138" width="48" height="14">
   <properties>
    <property name="foreground" type="bool" value="true"/>
    <property name="noDestroy" type="bool" value="true"/>
    <property name="rotationMult" type="float" value="1"/>
    <property name="squib" type="int" value="-1"/>
    <property name="squibSE" value=""/>
    <property name="static" type="bool" value="true"/>
   </properties>
  </object>
  <object id="975" class="prop" gid="676" x="300" y="1139" width="70" height="17">
   <properties>
    <property name="foreground" type="bool" value="true"/>
    <property name="noDestroy" type="bool" value="true"/>
    <property name="rotationMult" type="float" value="1"/>
    <property name="squib" type="int" value="-1"/>
    <property name="squibSE" value=""/>
    <property name="static" type="bool" value="true"/>
   </properties>
  </object>
  <object id="976" class="prop" gid="736" x="692" y="1072" width="12" height="20">
   <properties>
    <property name="foreground" type="bool" value="false"/>
    <property name="noDestroy" type="bool" value="true"/>
    <property name="rotationMult" type="float" value="1"/>
    <property name="squib" type="int" value="-1"/>
    <property name="squibSE" value=""/>
    <property name="static" type="bool" value="true"/>
   </properties>
  </object>
  <object id="977" class="prop" gid="687" x="478" y="992" width="18" height="32">
   <properties>
    <property name="foreground" type="bool" value="false"/>
    <property name="noDestroy" type="bool" value="true"/>
    <property name="rotationMult" type="float" value="1"/>
    <property name="squib" type="int" value="-1"/>
    <property name="squibSE" value=""/>
    <property name="static" type="bool" value="true"/>
   </properties>
  </object>
  <object id="978" class="prop" gid="687" x="224" y="1136" width="18" height="32">
   <properties>
    <property name="foreground" type="bool" value="false"/>
    <property name="noDestroy" type="bool" value="true"/>
    <property name="rotationMult" type="float" value="1"/>
    <property name="squib" type="int" value="-1"/>
    <property name="squibSE" value=""/>
    <property name="static" type="bool" value="true"/>
   </properties>
  </object>
  <object id="979" class="prop" gid="687" x="1038" y="991" width="18" height="32">
   <properties>
    <property name="foreground" type="bool" value="false"/>
    <property name="noDestroy" type="bool" value="true"/>
    <property name="rotationMult" type="float" value="1"/>
    <property name="squib" type="int" value="-1"/>
    <property name="squibSE" value=""/>
    <property name="static" type="bool" value="true"/>
   </properties>
  </object>
  <object id="980" class="prop" gid="687" x="1065" y="991" width="18" height="32">
   <properties>
    <property name="foreground" type="bool" value="false"/>
    <property name="noDestroy" type="bool" value="true"/>
    <property name="rotationMult" type="float" value="1"/>
    <property name="squib" type="int" value="-1"/>
    <property name="squibSE" value=""/>
    <property name="static" type="bool" value="true"/>
   </properties>
  </object>
  <object id="981" class="prop" gid="687" x="1108" y="991" width="18" height="32">
   <properties>
    <property name="foreground" type="bool" value="false"/>
    <property name="noDestroy" type="bool" value="true"/>
    <property name="rotationMult" type="float" value="1"/>
    <property name="squib" type="int" value="-1"/>
    <property name="squibSE" value=""/>
    <property name="static" type="bool" value="true"/>
   </properties>
  </object>
  <object id="982" class="prop" gid="761" x="131" y="1092" width="91" height="20">
   <properties>
    <property name="foreground" type="bool" value="true"/>
    <property name="noDestroy" type="bool" value="true"/>
    <property name="rotationMult" type="float" value="1"/>
    <property name="squib" type="int" value="-1"/>
    <property name="squibSE" value=""/>
    <property name="static" type="bool" value="true"/>
   </properties>
  </object>
  <object id="983" class="prop" gid="256" x="124" y="1123" width="10" height="31">
   <properties>
    <property name="foreground" type="bool" value="false"/>
    <property name="noDestroy" type="bool" value="true"/>
    <property name="rotationMult" type="float" value="1"/>
    <property name="squib" type="int" value="-1"/>
    <property name="squibSE" value=""/>
    <property name="static" type="bool" value="true"/>
   </properties>
  </object>
  <object id="984" class="prop" gid="677" x="176" y="1140" width="48" height="14">
   <properties>
    <property name="foreground" type="bool" value="true"/>
    <property name="noDestroy" type="bool" value="true"/>
    <property name="rotationMult" type="float" value="1"/>
    <property name="squib" type="int" value="-1"/>
    <property name="squibSE" value=""/>
    <property name="static" type="bool" value="true"/>
   </properties>
  </object>
 </objectgroup>
 <objectgroup color="#8aadff" id="9" name="puzzles">
  <object id="177" name="magnet1" class="magnet" x="352" y="288">
   <properties>
    <property name="direction" type="bool" value="true"/>
    <property name="draw" type="bool" value="true"/>
    <property name="size" type="int" value="1"/>
    <property name="startActive" type="bool" value="true"/>
   </properties>
   <point/>
  </object>
  <object id="178" name="door1" class="door" x="352" y="480" width="48" height="16">
   <properties>
    <property name="draw" type="bool" value="true"/>
    <property name="skin" type="int" value="0"/>
    <property name="startActive" type="bool" value="true"/>
   </properties>
  </object>
  <object id="179" class="wireOverlay" x="243" y="387">
   <properties>
    <property name="target" value="magnet1"/>
   </properties>
   <polyline points="109,102 69,45 69,-43 109,-99"/>
  </object>
  <object id="181" name="door2" class="door" x="1088" y="640" width="16" height="64">
   <properties>
    <property name="draw" type="bool" value="true"/>
    <property name="skin" type="int" value="0"/>
    <property name="startActive" type="bool" value="true"/>
   </properties>
  </object>
  <object id="182" name="timer1" class="timer" x="592" y="640">
   <properties>
    <property name="draw" type="bool" value="true"/>
    <property name="skin" type="int" value="0"/>
    <property name="startActive" type="bool" value="true"/>
    <property name="time" type="int" value="5"/>
   </properties>
   <point/>
  </object>
  <object id="183" class="wireOverlay" x="697" y="753">
   <properties>
    <property name="target" value="timer1"/>
   </properties>
   <polyline points="391,-65 55,-65 39,-81 39,-97 23,-113 -105,-113"/>
  </object>
  <object id="184" name="timer2" class="timer" x="1184" y="768">
   <properties>
    <property name="draw" type="bool" value="true"/>
    <property name="skin" type="int" value="0"/>
    <property name="startActive" type="bool" value="true"/>
    <property name="time" type="int" value="6"/>
   </properties>
   <point/>
  </object>
  <object id="185" class="wireOverlay" x="1289" y="881">
   <properties>
    <property name="target" value="timer2"/>
   </properties>
   <polyline points="-185,-193 -169,-193 -153,-177 -153,-129 -137,-113 -105,-113"/>
  </object>
  <object id="186" name="door3" class="door" x="1344" y="704" width="16" height="80">
   <properties>
    <property name="draw" type="bool" value="true"/>
    <property name="skin" type="int" value="0"/>
    <property name="startActive" type="bool" value="true"/>
   </properties>
  </object>
  <object id="187" name="magnet2" class="magnet" x="1312" y="640">
   <properties>
    <property name="direction" type="bool" value="true"/>
    <property name="draw" type="bool" value="true"/>
    <property name="size" type="int" value="1"/>
    <property name="startActive" type="bool" value="true"/>
   </properties>
   <point/>
  </object>
  <object id="188" class="wireOverlay" x="1280" y="656">
   <properties>
    <property name="target" value="magnet1"/>
   </properties>
   <polyline points="80,96 112,64 112,16 80,-16 32,-16"/>
  </object>
  <object id="192" name="charger1" class="catalyst_charger" x="1376" y="960">
   <properties>
    <property name="startActive" type="bool" value="true"/>
    <property name="target" value="catalyst1"/>
   </properties>
   <point/>
  </object>
  <object id="195" class="wireOverlay" x="1270" y="1028">
   <properties>
    <property name="target" value="catalyst1"/>
   </properties>
   <polyline points="104,328 138,298 138,-52 122,-68 106,-68"/>
  </object>
  <object id="201" name="magnet3" class="magnet" x="272" y="1408">
   <properties>
    <property name="direction" type="bool" value="true"/>
    <property name="draw" type="bool" value="true"/>
    <property name="size" type="int" value="2"/>
    <property name="startActive" type="bool" value="true"/>
   </properties>
   <point/>
  </object>
  <object id="202" name="door4" class="door" x="256" y="1072" width="16" height="64">
   <properties>
    <property name="draw" type="bool" value="true"/>
    <property name="skin" type="int" value="0"/>
    <property name="startActive" type="bool" value="true"/>
   </properties>
  </object>
  <object id="203" class="wireOverlay" x="320" y="1328">
   <properties>
    <property name="target" value="magnet3"/>
   </properties>
   <polyline points="-56,-192 -56,-48 -72,-32 -72,64 -57,80 -48,80"/>
  </object>
  <object id="205" name="charger2" class="catalyst_charger" x="743" y="1056">
   <properties>
    <property name="startActive" type="bool" value="true"/>
    <property name="target" value="catalyst2"/>
   </properties>
   <point/>
  </object>
  <object id="206" class="wireOverlay" x="506" y="1090">
   <properties>
    <property name="target" value="charger2"/>
   </properties>
   <polyline points="84,346 118,346 150,318 150,-18 166,-34 237,-34"/>
  </object>
 </objectgroup>
 <objectgroup color="#00ff00" id="4" name="nodegraph">
  <object id="118" class="node" x="1072" y="474">
   <point/>
  </object>
  <object id="119" class="node" x="800" y="480">
   <point/>
  </object>
  <object id="120" class="node" x="400" y="464">
   <point/>
  </object>
  <object id="121" class="node" x="544" y="304">
   <point/>
  </object>
  <object id="122" class="node" x="432" y="336">
   <point/>
  </object>
  <object id="123" class="node" x="496" y="464">
   <point/>
  </object>
  <object id="124" class="node" x="368" y="704">
   <point/>
  </object>
  <object id="125" class="node" x="464" y="704">
   <point/>
  </object>
  <object id="126" class="node" x="528" y="640">
   <point/>
  </object>
  <object id="127" class="node" x="608" y="848">
   <point/>
  </object>
  <object id="128" class="node" x="672" y="640">
   <point/>
  </object>
  <object id="129" class="node" x="800" y="848">
   <point/>
  </object>
  <object id="130" class="node" x="976" y="688">
   <point/>
  </object>
  <object id="131" class="node" x="1104" y="688">
   <point/>
  </object>
  <object id="132" class="node" x="1232" y="768">
   <point/>
  </object>
  <object id="133" class="node" x="1424" y="768">
   <point/>
  </object>
  <object id="134" class="node" x="1440" y="1024">
   <point/>
  </object>
  <object id="135" class="node" x="1424" y="1344">
   <point/>
  </object>
  <object id="136" class="node" x="1008" y="1280">
   <point/>
  </object>
  <object id="137" class="node" x="1152" y="1344">
   <point/>
  </object>
  <object id="138" class="node" x="960" y="1280">
   <point/>
  </object>
  <object id="139" class="node" x="944" y="976">
   <point/>
  </object>
  <object id="140" class="node" x="1104" y="976">
   <point/>
  </object>
  <object id="141" class="node" x="832" y="976">
   <point/>
  </object>
  <object id="142" class="node" x="688" y="1056">
   <point/>
  </object>
  <object id="143" class="node" x="512" y="976">
   <point/>
  </object>
  <object id="144" class="node" x="544" y="1264">
   <point/>
  </object>
  <object id="145" class="node" x="608" y="1424">
   <point/>
  </object>
  <object id="146" class="node" x="352" y="1424">
   <point/>
  </object>
  <object id="147" class="node" x="512" y="1120">
   <point/>
  </object>
  <object id="148" class="node" x="336" y="1120">
   <point/>
  </object>
  <object id="149" class="node" x="400" y="976">
   <point/>
  </object>
  <object id="150" class="node" x="480" y="1264">
   <point/>
  </object>
 </objectgroup>
 <objectgroup color="#ffffff" id="12" name="regions"/>
</map>
