<?xml version="1.0" encoding="UTF-8"?>
<map version="1.9" tiledversion="1.9.1" orientation="orthogonal" renderorder="right-down" width="64" height="32" tilewidth="16" tileheight="16" infinite="1" nextlayerid="13" nextobjectid="381">
 <tileset firstgid="1" source="../til/devSet.tsx"/>
 <layer id="5" name="background" width="64" height="32" tintcolor="#433b35">
  <data encoding="csv">
   <chunk x="16" y="0" width="16" height="16">
0,0,0,0,0,0,0,0,0,0,0,0,0,0,0,0,
0,0,0,0,0,0,0,0,0,0,0,0,0,0,0,0,
0,0,0,0,61,69,71,71,71,71,71,71,71,71,71,71,
0,0,0,0,70,71,71,71,71,71,71,71,71,71,71,71,
0,0,0,0,70,71,71,71,71,71,71,71,71,71,71,71,
0,0,0,0,70,71,71,71,71,71,71,71,71,71,71,71,
0,0,0,0,70,71,71,71,71,71,71,71,71,71,71,71,
0,0,0,0,70,71,71,71,71,71,71,71,71,71,71,71,
0,0,0,0,70,71,71,71,71,71,71,71,71,71,71,71,
0,0,0,0,70,71,71,71,71,71,71,71,71,71,71,71,
0,0,0,0,70,71,71,71,71,71,71,71,71,71,71,71,
0,0,10,62,69,71,71,71,71,71,71,71,71,71,71,71,
0,0,70,71,71,71,71,71,71,71,71,71,71,71,71,71,
0,0,70,71,71,71,71,71,71,71,71,71,71,71,71,71,
0,0,70,71,71,71,71,71,71,71,71,71,71,71,71,71,
0,0,70,71,71,71,71,71,71,71,71,71,71,71,71,71
</chunk>
   <chunk x="32" y="0" width="16" height="16">
0,0,0,0,0,0,0,0,0,0,0,0,0,0,0,0,
0,0,0,0,0,0,0,0,0,0,0,0,0,0,0,0,
71,71,71,71,71,0,0,0,0,0,0,0,0,0,0,0,
71,71,71,71,71,0,0,0,0,0,0,0,0,0,0,0,
71,71,71,71,71,0,0,0,0,0,0,0,0,0,0,0,
71,71,71,71,71,0,0,0,0,0,0,0,0,0,0,0,
71,71,71,71,71,0,0,0,0,0,0,0,0,0,0,0,
71,71,71,71,71,0,0,0,0,0,0,0,0,71,71,71,
71,71,71,71,71,0,0,0,0,0,0,0,0,71,71,71,
71,71,71,71,71,0,0,0,0,0,0,0,0,71,71,71,
71,71,71,71,71,0,0,0,0,0,0,0,0,71,71,71,
71,71,71,71,71,0,0,0,0,0,0,0,0,71,71,71,
71,71,71,71,71,0,0,0,0,0,0,0,0,71,71,71,
71,71,71,71,71,0,0,0,0,0,0,0,0,71,71,71,
71,71,71,71,71,71,71,71,71,71,71,71,71,71,71,71,
71,71,71,71,71,71,71,71,71,71,71,71,71,71,71,71
</chunk>
   <chunk x="48" y="0" width="16" height="16">
0,0,0,0,0,0,0,0,0,0,0,0,0,0,0,0,
0,0,0,0,0,0,0,0,0,0,0,0,0,0,0,0,
0,0,0,0,0,0,0,0,0,0,0,0,0,0,0,0,
0,0,0,0,0,0,0,0,0,0,0,0,0,0,0,0,
0,0,0,0,0,0,0,0,0,0,0,0,0,0,0,0,
0,0,0,0,0,0,0,0,0,0,0,0,0,0,0,0,
0,0,0,0,0,0,0,0,0,0,0,0,0,0,0,0,
71,71,71,71,71,71,71,71,71,71,71,71,71,71,71,71,
71,71,71,71,71,71,71,71,71,71,71,71,71,71,71,71,
71,71,71,71,71,71,71,71,71,71,71,71,71,71,71,71,
71,71,71,71,71,71,71,71,59,80,80,80,80,80,80,80,
71,71,71,71,71,71,71,71,72,0,0,0,0,0,0,0,
71,71,71,71,71,71,71,71,72,0,0,0,0,0,0,0,
71,71,71,71,71,71,71,71,72,0,0,0,0,0,0,0,
71,71,71,71,71,71,71,71,72,0,0,0,0,0,0,0,
71,71,71,71,71,71,71,71,72,0,0,0,0,0,0,0
</chunk>
   <chunk x="64" y="0" width="16" height="16">
0,0,0,0,0,0,0,0,0,0,0,0,0,0,0,0,
0,0,0,0,0,0,0,0,0,0,0,0,0,0,0,0,
0,0,0,0,0,0,0,0,0,0,0,0,0,0,0,0,
0,0,0,0,0,0,0,0,0,0,0,0,0,0,0,0,
0,0,0,0,0,0,0,0,0,0,0,0,0,0,0,0,
0,0,0,0,0,0,0,0,0,0,0,0,0,0,0,0,
0,0,0,0,0,0,0,0,0,0,0,0,0,0,0,0,
71,71,71,71,71,71,71,71,71,71,71,71,71,71,71,71,
71,71,71,71,71,71,71,71,71,71,71,71,71,71,71,71,
71,71,71,71,71,71,71,71,71,71,71,71,71,71,71,71,
80,80,80,80,80,80,80,80,80,80,60,71,71,71,71,71,
0,0,0,0,0,0,0,0,0,0,82,83,80,80,80,60,
0,0,0,0,0,0,0,0,0,0,0,0,0,0,0,70,
0,0,0,0,0,0,0,0,0,0,0,0,0,0,0,70,
0,0,0,0,0,0,0,0,0,0,0,0,0,0,0,70,
0,0,0,0,0,0,0,0,0,0,0,0,0,0,0,70
</chunk>
   <chunk x="80" y="0" width="16" height="16">
0,0,0,0,0,0,0,0,0,0,0,0,0,0,0,0,
0,0,0,0,0,0,0,0,0,0,0,0,0,0,0,0,
0,0,0,0,0,0,0,0,0,0,0,0,0,0,0,0,
0,0,0,0,0,0,0,0,0,0,0,0,0,0,0,0,
0,0,0,0,0,0,0,0,0,0,0,0,0,0,0,0,
0,0,0,0,0,0,0,0,0,0,0,0,0,0,0,0,
0,0,0,0,0,0,0,0,71,71,71,71,71,71,71,71,
71,71,71,0,0,0,0,0,71,71,71,71,71,71,71,71,
71,71,71,0,0,0,0,0,71,71,71,71,71,71,71,71,
71,71,71,0,0,0,0,0,71,71,71,71,71,71,71,71,
71,71,71,0,0,0,0,0,71,71,71,71,71,71,71,71,
71,71,71,71,71,71,71,71,71,71,71,71,71,71,71,71,
71,71,71,71,71,71,71,71,71,71,71,71,71,71,71,71,
71,71,71,71,71,71,71,71,71,71,71,71,71,71,71,71,
71,71,71,71,71,71,71,71,71,71,71,71,71,71,71,71,
71,71,71,71,71,71,71,71,71,71,71,71,71,71,71,71
</chunk>
   <chunk x="96" y="0" width="16" height="16">
0,0,0,0,0,0,0,0,0,0,0,0,0,0,0,0,
0,0,0,0,0,0,0,0,0,0,0,0,0,0,0,0,
0,0,0,0,0,0,0,0,0,0,0,0,0,0,0,0,
0,0,0,0,0,0,0,0,0,0,0,0,0,0,0,0,
0,0,0,0,0,0,0,0,0,0,0,0,0,0,0,0,
0,0,0,0,0,0,0,0,0,0,0,0,0,0,0,0,
71,71,71,71,71,71,71,71,71,71,71,71,71,71,71,71,
71,71,71,71,71,71,71,71,71,71,71,71,71,71,71,71,
71,71,71,71,71,71,71,71,71,71,71,71,71,71,71,71,
71,71,71,71,71,71,71,71,71,71,71,71,71,71,71,71,
71,71,71,71,71,71,71,71,71,71,71,71,71,71,71,71,
71,71,71,71,71,71,71,71,71,71,71,71,71,71,71,71,
71,71,71,71,71,71,71,71,71,71,71,71,71,71,71,71,
71,71,71,71,71,71,71,71,71,71,71,71,71,71,71,71,
71,71,71,71,71,71,71,71,71,71,71,71,71,71,71,71,
71,71,71,71,71,71,71,71,71,71,71,71,71,71,71,71
</chunk>
   <chunk x="112" y="0" width="16" height="16">
0,0,0,0,0,0,0,0,0,0,0,0,0,0,0,0,
0,0,0,0,0,0,0,0,0,0,0,0,0,0,0,0,
0,0,0,0,0,0,0,0,0,0,0,0,0,0,0,0,
0,0,0,0,0,0,0,0,0,0,0,0,0,0,0,0,
0,0,0,0,0,0,0,0,0,0,0,0,0,0,0,0,
0,0,0,0,0,0,0,0,0,0,0,0,0,0,0,0,
71,71,0,0,71,71,71,71,71,71,71,71,71,71,71,71,
71,71,0,0,71,71,71,71,71,71,71,71,71,71,71,71,
71,71,0,0,71,71,71,71,71,71,71,71,71,71,71,71,
71,71,0,0,71,71,71,71,71,71,71,71,71,71,71,71,
71,71,0,0,71,71,71,71,71,71,71,71,71,71,71,71,
71,71,0,0,71,71,71,71,71,71,71,71,71,59,80,80,
71,71,0,0,71,71,71,71,71,71,71,71,71,72,0,0,
71,71,0,0,71,71,71,71,71,71,71,71,71,72,0,0,
71,71,71,71,71,71,71,71,71,71,71,71,71,72,0,0,
71,71,71,71,71,71,71,71,71,71,71,71,71,72,0,0
</chunk>
   <chunk x="128" y="0" width="16" height="16">
0,0,0,0,0,0,0,0,0,0,0,0,0,0,0,0,
0,0,0,0,0,0,0,0,0,0,0,0,0,0,0,0,
0,0,0,0,0,0,0,0,0,0,0,0,0,0,0,0,
0,0,0,0,0,0,0,0,0,0,0,0,0,0,0,0,
0,0,0,0,0,0,0,0,0,0,0,0,0,0,0,0,
0,0,0,0,0,0,0,0,0,0,0,0,0,0,0,0,
71,71,71,71,71,71,71,71,71,71,71,71,71,71,71,71,
71,71,71,71,71,71,71,71,71,71,71,71,71,71,71,71,
71,71,71,71,71,71,71,71,71,71,71,71,71,71,71,71,
71,71,71,71,71,71,71,71,71,71,71,71,71,71,71,71,
71,71,71,71,71,71,71,71,71,71,71,71,71,71,71,71,
80,80,80,80,80,80,80,80,60,71,71,71,71,71,71,71,
0,0,0,0,0,0,0,0,70,71,71,71,71,71,71,71,
0,0,0,0,0,0,0,0,70,71,71,71,71,71,71,71,
0,0,0,0,0,0,0,0,70,71,71,71,71,71,71,71,
0,0,0,0,0,0,0,0,70,71,71,71,71,71,71,71
</chunk>
   <chunk x="144" y="0" width="16" height="16">
0,0,0,0,0,0,0,0,0,0,0,0,0,0,0,0,
0,0,0,0,0,0,0,0,0,0,0,0,0,0,71,71,
0,0,0,0,0,0,0,0,0,0,0,0,0,0,71,71,
0,0,0,0,0,0,0,0,0,0,0,0,0,0,71,71,
0,0,0,0,0,0,0,0,0,0,0,0,0,0,71,71,
0,0,0,0,0,0,0,0,0,0,0,0,0,0,71,71,
71,71,71,71,71,71,71,71,71,71,71,71,71,71,71,71,
71,71,71,71,71,71,71,71,71,71,71,71,71,71,71,71,
71,71,71,71,71,71,71,71,71,71,71,71,71,71,71,71,
71,71,71,71,71,71,71,71,71,71,71,71,71,71,71,71,
71,71,71,71,71,71,71,71,71,71,71,71,71,71,71,71,
71,71,71,71,59,80,80,80,80,80,80,60,71,71,71,71,
71,71,71,71,72,0,0,0,0,0,0,82,83,80,60,71,
71,71,71,71,72,0,0,0,0,0,0,0,0,0,82,83,
71,71,71,71,72,0,0,0,0,0,0,0,0,0,0,0,
71,71,71,71,72,0,0,0,0,0,0,0,0,0,0,0
</chunk>
   <chunk x="160" y="0" width="16" height="16">
0,0,0,0,0,0,0,0,0,0,0,0,0,0,0,0,
71,71,71,71,71,0,0,0,0,0,0,0,0,0,0,0,
71,71,71,71,71,0,0,0,0,0,0,0,0,0,0,0,
71,71,71,71,71,0,0,0,0,0,0,0,0,0,0,0,
71,71,71,71,71,0,0,0,0,0,0,0,0,0,0,0,
71,71,71,71,71,0,0,0,0,0,0,0,0,0,0,0,
71,71,71,71,71,0,0,0,0,0,0,0,0,0,0,0,
71,71,71,71,71,0,0,0,0,0,0,0,0,0,0,0,
71,71,71,71,71,0,0,0,0,0,0,0,0,0,0,0,
71,71,71,71,71,0,0,0,0,0,0,0,0,0,0,0,
71,71,71,71,71,0,0,0,0,0,0,0,0,0,0,0,
71,71,71,71,71,0,0,0,0,0,0,0,0,0,0,0,
71,71,71,71,71,0,0,0,0,0,0,0,0,0,0,0,
60,71,71,71,71,0,0,0,0,0,0,0,0,0,0,0,
70,71,71,71,71,0,0,0,0,0,0,0,0,0,0,0,
70,71,71,71,71,0,0,0,0,0,0,0,0,0,0,0
</chunk>
   <chunk x="0" y="16" width="16" height="16">
0,0,0,0,0,0,0,0,0,0,0,0,0,0,0,0,
0,0,0,0,0,0,0,0,0,0,0,0,0,0,0,0,
0,0,0,0,0,0,0,0,0,0,0,0,0,0,0,0,
0,0,0,0,0,0,0,0,0,0,0,0,0,0,0,0,
0,0,0,0,0,0,0,0,0,0,0,0,0,0,0,0,
0,0,0,0,0,0,0,0,0,0,0,0,0,0,0,0,
0,0,0,0,0,0,0,0,0,0,0,0,0,0,0,0,
0,0,0,0,0,0,0,0,0,0,0,0,0,0,0,0,
0,0,0,0,0,0,0,0,0,0,0,0,0,0,0,0,
0,0,0,0,0,0,0,0,0,0,0,0,0,0,0,0,
0,0,0,0,0,0,0,0,0,0,0,0,0,0,0,0,
0,0,0,0,0,0,0,0,0,0,0,0,0,0,0,0,
0,0,0,0,0,0,0,0,0,0,0,0,0,0,0,0,
0,0,0,0,0,0,0,0,0,0,0,0,0,0,0,10,
0,0,0,0,0,0,0,0,0,0,0,0,61,62,62,69,
0,0,0,0,0,0,0,0,0,0,0,0,70,71,71,71
</chunk>
   <chunk x="16" y="16" width="16" height="16">
0,0,27,80,80,80,60,71,71,71,71,71,71,71,71,71,
0,0,0,0,0,0,70,71,71,71,71,71,71,71,71,71,
0,0,0,0,0,0,70,71,71,71,71,71,71,71,71,71,
0,0,0,0,0,0,27,80,80,80,60,71,71,71,71,71,
0,0,0,0,0,0,0,0,0,0,70,71,71,71,71,71,
0,0,0,0,0,0,0,0,0,0,70,71,71,71,71,71,
0,0,0,0,0,0,0,0,0,0,70,71,71,71,71,71,
0,0,0,0,0,0,0,0,0,0,70,71,71,71,71,71,
0,0,0,0,0,0,0,0,0,0,70,71,71,71,71,71,
0,0,0,0,0,0,0,0,0,0,70,71,71,71,71,71,
0,0,0,0,0,0,0,0,0,0,70,71,71,71,71,71,
0,0,0,0,0,0,0,0,0,0,70,71,71,71,71,71,
0,0,0,0,0,0,0,0,0,0,70,71,71,71,71,71,
62,11,0,0,12,13,62,62,62,62,69,71,71,71,71,71,
71,68,62,62,69,71,71,71,71,71,71,71,71,71,71,71,
71,71,71,71,71,71,71,71,71,71,71,71,71,71,71,71
</chunk>
   <chunk x="32" y="16" width="16" height="16">
71,71,71,71,71,71,71,71,71,71,71,71,71,71,71,71,
71,71,71,71,71,71,71,71,71,71,71,71,71,71,71,71,
71,71,71,71,71,71,71,71,71,71,71,71,71,71,71,71,
71,71,71,71,71,71,71,71,71,71,71,71,71,71,71,71,
71,71,71,71,71,71,71,71,71,71,71,71,71,71,71,71,
71,71,71,71,71,0,0,0,0,0,0,0,0,0,0,0,
71,71,71,71,71,0,0,0,0,0,0,0,0,0,0,0,
71,71,71,71,71,0,0,0,0,0,0,0,0,0,0,0,
71,71,71,71,71,0,0,0,0,0,0,0,0,0,0,0,
71,71,71,71,71,0,0,0,0,0,0,0,0,0,0,0,
71,71,71,71,71,0,0,0,0,0,0,0,0,0,0,0,
71,71,71,71,71,0,0,0,0,0,0,0,0,0,0,0,
71,71,71,71,71,0,0,0,71,71,71,71,71,71,71,71,
71,71,71,71,71,0,0,0,71,71,71,71,71,71,71,71,
71,71,71,71,71,0,0,0,71,71,71,71,59,80,80,60,
71,71,71,71,71,0,0,0,71,71,71,71,72,0,0,70
</chunk>
   <chunk x="48" y="16" width="16" height="16">
71,71,71,71,71,71,71,71,68,62,62,62,62,62,62,62,
71,71,71,71,71,71,71,71,71,71,71,71,71,71,71,71,
71,71,71,71,71,71,71,71,71,71,71,71,71,71,71,71,
71,71,71,71,71,71,71,71,71,71,71,71,71,71,71,71,
71,71,71,71,71,71,71,71,71,71,71,71,71,71,71,71,
0,0,0,0,0,0,0,0,0,0,0,71,71,71,71,71,
0,0,0,0,0,0,0,0,0,0,0,71,71,71,71,71,
0,0,0,0,0,0,0,0,0,0,0,71,71,71,71,71,
0,0,0,0,0,0,0,0,0,0,0,71,71,71,71,71,
0,0,0,0,0,0,0,0,0,0,0,71,71,71,71,71,
0,0,0,0,0,0,0,0,0,0,0,71,71,71,71,71,
0,0,0,0,0,0,0,0,0,0,0,71,71,71,71,71,
71,71,71,71,71,71,71,0,0,0,0,71,71,71,71,71,
71,71,71,71,71,71,71,0,0,0,0,71,71,71,71,71,
71,71,71,71,71,71,71,0,0,0,0,71,71,71,71,71,
71,71,71,71,71,71,71,0,0,0,0,71,71,71,71,71
</chunk>
   <chunk x="64" y="16" width="16" height="16">
62,62,63,0,0,0,0,0,0,0,0,0,0,0,0,70,
71,71,72,0,0,0,0,0,0,0,0,0,0,10,62,69,
71,71,72,0,0,0,0,0,0,0,0,0,0,70,71,71,
71,71,72,0,0,0,0,0,0,0,0,0,0,70,71,71,
71,71,72,0,0,0,0,0,0,0,0,0,0,70,71,71,
71,71,72,0,0,0,0,0,0,0,0,0,0,70,71,71,
71,71,72,0,0,0,0,0,0,0,0,0,0,70,71,71,
71,71,72,0,0,0,0,0,0,0,0,0,0,70,71,71,
71,71,72,0,0,0,0,0,0,0,0,0,0,70,71,71,
71,71,72,0,0,0,0,0,0,0,0,0,0,70,71,71,
71,71,68,63,0,0,0,0,0,0,0,0,0,70,71,71,
71,71,71,72,0,0,0,0,0,0,0,0,0,70,71,71,
71,71,71,68,62,11,0,0,0,0,0,12,13,69,71,71,
71,71,71,71,71,72,0,0,0,0,0,70,71,71,71,71,
71,71,71,71,71,72,0,0,0,0,10,69,71,71,71,71,
71,71,71,71,71,72,0,0,0,0,70,71,71,71,71,71
</chunk>
   <chunk x="80" y="16" width="16" height="16">
71,71,71,71,71,71,71,71,71,71,71,71,71,71,71,71,
71,71,71,71,71,71,71,71,71,71,71,71,71,71,71,71,
71,71,71,71,71,71,71,71,71,71,71,71,71,71,71,71,
71,71,71,71,71,71,71,71,71,71,71,71,71,71,71,71,
71,71,71,71,71,71,71,71,71,71,71,71,71,71,71,71,
71,0,0,0,0,0,0,0,0,0,0,71,71,71,71,71,
71,0,0,0,0,0,0,0,0,0,0,71,71,71,71,71,
71,0,0,0,0,0,0,0,0,0,0,71,71,71,71,71,
71,0,0,0,0,0,0,0,0,0,0,71,71,71,71,71,
71,0,0,0,0,0,0,0,0,0,0,71,71,71,71,71,
71,0,0,0,0,0,0,0,0,0,0,71,71,71,71,71,
71,0,0,0,0,0,0,0,0,0,0,71,71,71,71,71,
71,0,0,0,0,0,0,0,0,0,0,71,71,71,71,71,
71,0,0,0,0,0,0,0,0,0,0,71,71,71,71,71,
71,0,0,0,0,0,0,0,0,0,0,71,71,71,71,71,
71,0,0,0,0,0,0,0,0,0,0,71,71,71,71,71
</chunk>
   <chunk x="96" y="16" width="16" height="16">
71,71,71,71,71,71,71,71,71,71,71,71,71,71,71,71,
71,71,71,71,71,71,71,71,71,71,71,71,71,71,71,71,
71,71,71,71,71,71,71,71,71,71,71,71,71,71,71,71,
71,71,71,71,71,71,71,71,71,71,71,71,71,71,71,71,
71,71,71,71,71,71,71,71,71,71,71,71,71,71,71,71,
71,71,71,0,0,0,0,0,0,0,0,0,0,0,0,0,
71,71,71,0,0,0,0,0,0,0,0,0,0,0,0,0,
71,71,71,0,0,0,0,0,0,0,0,0,0,0,0,0,
71,71,71,0,0,0,0,0,0,0,0,0,0,0,0,0,
71,71,71,0,0,0,0,0,0,0,0,0,0,0,0,0,
71,71,71,0,0,0,0,0,0,0,0,0,0,0,0,0,
71,71,71,0,0,0,0,0,0,0,0,0,0,0,0,0,
71,71,71,0,0,0,0,0,0,71,71,71,71,71,71,71,
71,71,71,0,0,0,0,0,0,71,71,71,71,71,71,71,
71,71,71,71,71,71,71,71,71,71,71,71,71,71,71,71,
71,71,71,71,71,71,71,71,71,71,71,71,71,71,71,71
</chunk>
   <chunk x="112" y="16" width="16" height="16">
71,71,71,71,71,71,71,71,71,71,71,71,71,72,0,0,
71,71,71,71,71,71,71,71,71,71,71,71,71,72,0,0,
71,71,71,71,71,71,71,71,71,71,71,71,71,68,62,62,
71,71,71,71,71,71,71,71,71,71,71,71,71,71,71,71,
71,71,71,71,71,71,71,71,71,71,71,71,71,71,71,71,
0,0,0,0,71,71,71,71,71,71,71,71,71,71,71,71,
0,0,0,0,0,0,0,0,0,0,0,0,0,0,0,0,
0,0,0,0,0,0,0,0,0,0,0,0,0,0,0,0,
0,0,0,0,0,0,0,0,0,0,0,0,0,0,0,0,
0,0,0,0,0,0,0,0,0,0,0,0,0,0,0,0,
0,0,0,0,0,0,0,0,0,0,0,0,0,0,0,0,
0,0,0,0,0,0,0,0,0,0,0,0,0,0,0,0,
71,71,71,71,71,71,71,71,71,71,71,71,71,0,0,0,
71,71,71,71,71,71,71,71,71,71,71,71,71,0,0,0,
71,71,71,71,71,71,71,71,71,71,71,71,71,71,71,71,
71,71,71,71,71,71,71,71,71,71,71,71,71,71,71,71
</chunk>
   <chunk x="128" y="16" width="16" height="16">
0,0,0,0,0,0,0,0,70,71,71,71,71,71,71,71,
0,0,0,0,0,0,0,0,70,71,71,71,71,71,71,71,
62,62,62,62,62,62,62,62,69,71,71,71,71,71,71,71,
71,71,71,71,71,71,71,71,71,71,71,71,71,71,71,71,
71,71,71,71,71,71,71,71,71,71,71,71,71,71,71,71,
71,71,71,71,71,71,71,71,71,71,71,71,71,71,71,71,
0,0,0,0,0,0,0,0,0,0,0,0,0,0,0,0,
0,0,0,0,0,0,0,0,0,0,0,0,0,0,0,0,
0,0,0,0,0,0,0,0,0,0,0,0,0,0,0,0,
0,0,0,0,0,0,0,0,0,0,0,0,0,0,0,0,
0,0,0,0,0,0,0,0,0,0,0,0,0,0,0,0,
0,0,0,0,0,0,0,0,0,0,0,0,0,0,0,0,
0,0,0,0,0,0,0,0,0,0,0,0,0,0,0,0,
0,0,0,0,0,0,0,0,0,0,0,0,0,0,0,0,
71,71,71,71,71,0,0,0,0,0,0,0,0,0,0,0,
71,71,71,71,71,0,0,0,0,0,0,0,0,0,0,0
</chunk>
   <chunk x="144" y="16" width="16" height="16">
71,71,71,71,72,0,0,0,0,0,0,0,0,0,0,0,
71,71,71,71,68,62,62,62,62,62,62,62,62,62,62,62,
71,71,71,71,71,71,71,71,71,71,71,71,71,71,71,71,
71,71,71,71,71,71,71,71,71,71,71,71,71,71,71,71,
71,71,71,71,71,71,71,71,71,71,71,71,71,71,71,71,
71,71,71,71,71,71,71,71,71,71,71,71,71,71,71,71,
0,0,0,0,0,0,0,0,0,0,0,0,0,0,0,0,
0,0,0,0,0,0,0,0,0,0,0,0,0,0,0,0,
0,0,0,0,0,0,0,0,0,0,0,0,0,0,0,0,
0,0,0,0,0,0,0,0,0,0,0,0,0,0,0,0,
0,0,0,0,0,0,0,0,0,0,0,0,0,0,0,0,
0,0,0,0,0,0,0,0,0,0,0,0,0,0,0,0,
0,0,0,0,0,0,0,0,0,0,0,0,0,0,0,0,
0,0,0,0,0,0,0,0,0,0,0,0,0,0,0,0,
0,0,0,0,0,0,0,0,0,0,0,0,0,0,0,0,
0,0,0,0,0,0,0,0,0,0,0,0,0,0,0,0
</chunk>
   <chunk x="160" y="16" width="16" height="16">
70,71,71,71,71,0,0,0,0,0,0,0,0,0,0,0,
69,71,71,71,71,0,0,0,0,0,0,0,0,0,0,0,
71,71,71,71,71,0,0,0,0,0,0,0,0,0,0,0,
71,71,71,71,71,0,0,0,0,0,0,0,0,0,0,0,
71,71,71,71,71,0,0,0,0,0,0,0,0,0,0,0,
0,0,0,0,0,0,0,0,0,0,0,0,0,0,0,0,
0,0,0,0,0,0,0,0,0,0,0,0,0,0,0,0,
0,0,0,0,0,0,0,0,0,0,0,0,0,0,0,0,
0,0,0,0,0,0,0,0,0,0,0,0,0,0,0,0,
0,0,0,0,0,0,0,0,0,0,0,0,0,0,0,0,
0,0,0,0,0,0,0,0,0,0,0,0,0,0,0,0,
0,0,0,0,0,0,0,0,0,0,0,0,0,0,0,0,
0,0,0,0,0,0,0,0,0,0,0,0,0,0,0,0,
0,0,0,0,0,0,0,0,0,0,0,0,0,0,0,0,
0,0,0,0,0,0,0,0,0,0,0,0,0,0,0,0,
0,0,0,0,0,0,0,0,0,0,0,0,0,0,0,0
</chunk>
   <chunk x="0" y="32" width="16" height="16">
0,0,0,0,0,0,0,0,0,0,0,0,79,60,71,71,
0,0,0,0,0,0,0,0,0,0,0,0,61,69,71,71,
0,0,0,0,0,0,0,0,0,0,0,0,0,71,71,71,
0,0,0,0,0,0,0,0,0,0,0,0,0,71,71,71,
0,0,0,0,0,0,0,0,0,0,0,0,0,71,71,71,
0,0,0,0,0,0,0,0,0,0,0,0,0,71,71,71,
0,0,0,0,0,0,0,0,0,0,0,0,0,0,0,0,
0,0,0,0,0,0,0,0,0,0,0,0,0,0,0,0,
0,0,0,0,0,0,0,0,0,0,0,0,79,60,71,71,
0,0,0,0,0,0,0,0,0,0,0,0,61,69,71,71,
0,0,0,0,0,0,0,0,0,0,0,0,70,71,71,71,
0,0,0,0,0,0,0,0,0,0,0,0,82,83,80,80,
0,0,0,0,0,0,0,0,0,0,0,0,0,0,0,0,
0,0,0,0,0,0,0,0,0,0,0,0,0,0,0,0,
0,0,0,0,0,0,0,0,0,0,0,0,0,0,0,0,
0,0,0,0,0,0,0,0,0,0,0,0,0,0,0,0
</chunk>
   <chunk x="16" y="32" width="16" height="16">
71,71,71,71,71,71,71,71,71,71,71,71,71,71,71,71,
71,71,71,71,71,71,71,71,71,71,71,71,71,71,71,71,
71,71,71,71,71,71,71,71,71,71,71,71,71,0,0,0,
71,71,71,71,71,71,71,71,71,71,71,71,71,0,0,0,
71,71,71,71,71,71,71,71,71,71,71,71,71,0,0,0,
71,71,71,71,71,71,71,71,71,71,71,71,71,0,0,0,
0,0,0,0,0,71,71,71,71,71,0,0,0,0,0,0,
0,0,0,0,0,71,71,71,71,71,0,0,0,0,0,0,
71,71,71,71,71,71,71,71,71,71,0,0,0,0,0,0,
71,71,71,71,71,71,71,71,71,71,71,71,0,0,0,0,
71,71,71,71,71,71,71,71,71,71,71,71,71,71,0,0,
80,80,80,80,80,60,71,71,71,71,71,71,71,71,0,0,
0,0,0,0,0,79,60,71,71,71,71,71,71,71,0,0,
0,0,0,0,0,0,27,60,71,71,71,71,71,71,0,0,
0,0,0,0,0,0,0,70,71,71,71,71,71,71,0,0,
0,0,0,0,0,0,0,70,71,71,71,71,71,71,0,0
</chunk>
   <chunk x="32" y="32" width="16" height="16">
71,71,71,71,71,0,0,0,71,71,71,71,72,0,0,70,
71,71,71,71,71,0,0,0,71,71,71,71,72,0,0,27,
0,0,0,0,0,0,0,0,71,71,71,71,72,0,0,0,
0,0,0,0,0,0,0,0,71,71,71,71,72,0,0,0,
0,0,0,0,0,0,0,0,71,71,71,71,72,0,0,0,
0,0,0,0,0,0,0,0,71,71,71,71,72,0,0,0,
0,0,0,0,0,0,0,0,71,71,71,71,72,0,0,0,
0,0,0,0,71,71,71,71,71,71,71,71,72,0,0,0,
0,0,0,0,71,71,71,71,71,71,71,71,68,11,0,0,
0,0,0,0,71,71,71,71,71,71,71,71,71,68,11,0,
0,0,0,0,71,71,71,71,71,71,71,71,71,71,72,0,
0,0,0,0,71,71,71,71,71,71,71,71,71,71,68,62,
0,0,0,0,71,71,71,71,71,71,71,71,71,71,71,71,
0,0,0,0,71,71,71,71,71,71,71,71,71,71,71,71,
0,0,0,0,71,71,71,71,71,71,71,71,71,0,0,0,
0,0,0,0,71,71,71,71,71,71,71,71,71,0,0,0
</chunk>
   <chunk x="48" y="32" width="16" height="16">
71,71,71,71,71,71,71,0,0,0,0,71,71,71,71,71,
80,60,71,71,71,71,71,0,0,0,0,71,71,71,71,71,
0,27,60,71,71,71,71,0,0,0,0,0,0,71,71,71,
0,0,70,71,71,71,71,0,0,0,0,0,0,71,71,71,
0,0,70,71,71,71,71,0,0,0,0,0,0,71,71,71,
0,0,70,71,71,71,71,0,0,0,0,0,0,71,71,71,
0,0,70,71,71,71,71,0,0,0,0,0,0,71,71,71,
0,0,70,71,71,71,71,0,0,0,0,0,0,71,71,71,
0,0,70,71,71,71,71,71,71,71,71,71,71,71,71,71,
0,0,70,71,71,71,71,71,71,71,71,71,71,71,71,71,
0,0,70,71,71,71,71,71,71,71,71,71,71,71,71,71,
62,62,69,71,71,71,71,71,71,71,71,71,71,71,71,71,
71,71,71,71,71,71,71,71,71,71,71,71,71,71,71,71,
71,71,71,71,71,0,0,0,0,0,0,0,0,0,0,71,
0,0,0,0,0,0,0,0,0,0,0,0,0,0,0,71,
0,0,0,0,0,0,0,0,0,0,0,0,0,0,0,71
</chunk>
   <chunk x="64" y="32" width="16" height="16">
71,71,71,71,71,72,0,0,0,0,70,71,71,71,71,71,
71,71,71,71,71,72,0,0,0,61,69,71,71,71,71,71,
71,71,71,71,71,72,0,0,0,70,71,71,71,71,71,71,
71,71,71,71,71,72,0,0,0,70,71,71,71,71,71,71,
71,71,71,71,71,72,0,0,0,82,83,60,71,71,71,71,
71,71,71,71,71,72,0,0,0,0,0,70,71,71,71,71,
71,71,71,71,71,72,0,0,0,0,0,70,71,71,71,71,
71,71,71,71,59,18,0,0,0,0,0,70,71,71,71,71,
71,71,59,80,18,0,0,0,0,0,0,70,71,71,71,71,
71,71,72,0,0,0,0,0,0,0,0,70,71,71,71,71,
71,71,72,0,0,0,0,0,0,0,0,70,71,71,71,71,
71,71,72,0,0,0,0,0,0,0,10,69,71,71,71,71,
71,71,72,0,0,0,0,0,0,0,70,71,71,71,71,71,
71,71,72,0,0,0,0,0,0,10,69,71,71,71,71,71,
71,71,72,0,0,0,0,0,0,70,71,71,71,71,71,71,
71,71,72,0,0,0,0,0,0,70,71,71,71,71,71,71
</chunk>
   <chunk x="80" y="32" width="16" height="16">
71,0,0,0,0,0,0,0,0,0,0,71,71,71,71,71,
71,71,71,71,0,0,0,0,0,0,0,71,71,71,71,71,
71,71,71,71,0,0,0,0,0,0,0,71,71,71,71,71,
71,71,71,71,0,0,0,0,0,0,0,71,71,71,71,71,
71,71,71,71,0,0,0,0,0,0,0,71,71,71,71,71,
71,71,71,71,0,0,0,0,0,0,0,71,71,71,71,71,
71,71,71,71,0,0,0,0,0,0,0,71,71,71,71,71,
71,71,71,71,0,0,0,0,0,0,0,71,71,71,71,71,
71,71,71,71,0,0,0,0,0,0,0,0,0,0,0,0,
71,71,71,71,0,0,0,0,0,0,0,0,0,0,0,0,
71,71,71,71,0,0,0,0,0,0,0,0,0,0,0,0,
71,71,71,71,0,0,0,0,0,0,0,0,0,0,0,0,
71,71,71,71,71,0,0,0,0,0,0,0,0,0,0,0,
71,71,71,71,71,0,0,0,0,0,0,0,0,0,0,0,
71,71,71,71,71,0,0,0,0,0,0,0,0,0,0,0,
71,71,71,71,71,0,0,0,0,0,0,0,0,0,0,0
</chunk>
   <chunk x="96" y="32" width="16" height="16">
71,71,71,71,71,71,71,71,71,71,71,71,71,71,71,71,
71,71,71,71,71,71,71,71,71,71,71,71,71,71,71,71,
71,71,71,71,71,71,71,71,71,71,71,71,71,71,71,71,
71,71,71,71,71,71,71,71,71,71,71,71,71,71,71,71,
71,71,71,71,71,71,71,71,71,71,71,71,71,71,71,71,
71,71,71,71,71,71,71,71,71,71,71,71,71,71,71,71,
71,71,71,71,71,71,71,71,71,71,71,71,71,71,71,71,
71,71,71,71,71,71,71,71,71,71,71,71,71,71,71,71,
0,0,0,0,0,0,0,0,0,71,71,71,71,71,71,71,
0,0,0,0,0,0,0,0,0,71,71,71,71,71,71,71,
0,0,0,0,0,0,0,0,0,0,0,0,0,0,0,0,
0,0,0,0,0,0,0,0,0,0,0,0,0,0,0,0,
0,0,0,0,0,0,0,0,0,0,0,0,0,0,0,0,
0,0,0,0,0,0,0,0,0,0,0,0,0,0,0,0,
0,0,0,0,0,0,0,0,0,0,0,0,0,0,0,0,
0,0,0,0,0,0,0,0,0,0,0,0,0,0,0,0
</chunk>
   <chunk x="112" y="32" width="16" height="16">
71,71,71,71,71,71,71,71,71,71,71,71,71,71,71,71,
71,71,71,71,71,71,71,71,71,71,71,71,71,71,71,71,
71,71,71,71,71,71,71,71,71,71,71,71,71,71,71,71,
71,71,71,71,71,71,71,71,71,71,71,71,71,71,71,71,
71,71,71,71,71,71,71,71,71,71,71,71,71,71,71,71,
71,71,71,71,71,71,71,71,71,71,71,71,71,71,71,71,
71,71,71,71,71,71,71,71,71,71,71,71,71,71,71,71,
71,71,71,71,71,71,71,71,71,71,71,71,71,71,71,71,
71,71,71,71,71,71,71,71,71,71,71,71,71,0,0,0,
71,71,71,71,71,71,71,71,71,71,71,71,71,0,0,0,
0,0,0,0,0,0,0,0,0,0,0,0,0,0,0,0,
0,0,0,0,0,0,0,0,0,0,0,0,0,0,0,0,
0,0,0,0,0,0,0,0,0,0,0,0,0,0,0,0,
0,0,0,0,0,0,0,0,0,0,0,0,0,0,0,0,
0,0,0,0,0,0,0,0,0,0,0,0,0,0,0,0,
0,0,0,0,0,0,0,0,0,0,0,0,0,0,0,0
</chunk>
   <chunk x="128" y="32" width="16" height="16">
71,71,71,71,71,71,71,71,71,71,71,71,71,71,71,71,
71,71,71,71,71,71,71,71,71,71,71,71,71,71,71,71,
71,71,71,71,71,71,71,71,71,71,71,71,71,71,71,71,
71,71,71,71,71,71,71,71,71,71,71,71,71,71,71,71,
71,71,71,71,71,71,71,71,71,71,71,71,71,71,71,71,
71,71,71,71,71,71,71,71,71,71,71,71,71,71,71,71,
71,71,71,71,71,71,71,71,71,71,71,71,71,71,71,71,
71,71,71,71,71,71,71,71,71,71,71,71,71,71,71,71,
0,0,0,0,0,0,0,0,0,0,0,0,0,0,0,0,
0,0,0,0,0,0,0,0,0,0,0,0,0,0,0,0,
0,0,0,0,0,0,0,0,0,0,0,0,0,0,0,0,
0,0,0,0,0,0,0,0,0,0,0,0,0,0,0,0,
0,0,0,0,0,0,0,0,0,0,0,0,0,0,0,0,
0,0,0,0,0,0,0,0,0,0,0,0,0,0,0,0,
0,0,0,0,0,0,0,0,0,0,0,0,0,0,0,0,
0,0,0,0,0,0,0,0,0,0,0,0,0,0,0,0
</chunk>
   <chunk x="144" y="32" width="16" height="16">
71,71,71,71,71,71,71,71,71,0,0,0,0,0,0,0,
71,71,71,71,71,71,71,71,71,0,0,0,0,0,0,0,
71,71,71,71,71,71,71,71,71,0,0,0,0,0,0,0,
71,71,71,71,71,71,71,71,71,0,0,0,0,0,0,0,
71,71,71,71,71,71,71,71,71,0,0,0,0,0,0,0,
71,71,71,71,71,71,71,71,71,0,0,0,0,0,0,0,
71,71,71,71,71,71,71,71,71,0,0,0,0,0,0,0,
71,71,71,71,71,71,71,71,71,0,0,0,0,0,0,0,
0,0,71,71,71,71,71,71,71,0,0,0,0,0,0,0,
0,0,71,71,71,71,71,71,71,0,0,0,0,0,0,0,
0,0,71,71,71,71,71,71,71,0,0,0,0,0,0,0,
0,0,71,71,71,71,71,71,71,0,0,0,0,0,0,0,
0,0,71,71,71,71,71,71,71,0,0,0,0,0,0,0,
0,0,71,71,71,71,71,71,71,0,0,0,0,0,0,0,
0,0,71,71,71,71,71,71,71,0,0,0,0,0,0,0,
0,0,71,71,71,71,71,71,71,0,0,0,0,0,0,0
</chunk>
   <chunk x="16" y="48" width="16" height="16">
0,0,0,0,0,0,0,70,71,71,71,71,71,71,0,0,
0,0,0,0,0,0,0,70,71,71,71,71,71,71,0,0,
0,0,0,0,0,0,0,70,71,71,71,71,71,71,0,0,
0,0,0,0,0,0,0,70,71,71,71,71,71,71,0,0,
0,0,0,0,0,0,0,79,60,59,60,71,71,71,0,0,
0,0,0,0,0,0,0,0,79,81,79,0,0,0,0,0,
0,0,0,0,0,0,0,0,0,0,0,0,0,0,0,0,
0,0,0,0,0,0,0,0,0,0,0,0,0,0,0,0,
0,0,0,0,0,0,61,63,61,63,0,0,0,0,0,0,
0,0,0,0,0,61,69,68,69,68,71,71,71,71,0,0,
0,0,0,0,0,70,71,71,71,71,71,71,71,71,0,0,
0,0,0,0,0,70,71,71,71,71,71,71,71,71,71,71,
0,0,0,0,0,70,71,71,71,71,71,71,71,71,71,71,
0,0,0,0,0,70,71,71,71,71,71,71,71,71,71,71,
0,0,0,0,0,70,71,71,71,71,71,71,71,71,71,71,
0,0,0,0,0,70,71,71,71,71,71,71,71,71,71,71
</chunk>
   <chunk x="32" y="48" width="16" height="16">
0,0,0,0,71,71,71,71,71,71,71,71,71,71,71,71,
0,0,0,0,71,71,71,71,71,71,71,71,71,71,71,71,
0,0,0,0,71,71,71,71,71,71,71,71,71,71,71,71,
0,0,0,0,71,71,71,71,71,71,71,71,71,71,71,71,
0,0,0,0,71,71,71,71,71,71,71,71,71,71,71,71,
0,0,0,0,71,71,71,71,71,71,71,71,71,71,59,80,
0,0,0,0,71,71,71,71,71,71,71,71,59,84,85,0,
0,0,0,0,71,71,71,71,71,71,59,84,85,0,0,0,
0,0,0,0,71,71,71,71,71,59,18,0,0,0,0,0,
0,0,0,0,71,71,71,71,71,72,0,0,0,0,0,0,
0,0,0,0,71,71,71,71,71,72,0,0,0,0,0,0,
71,71,71,71,71,71,71,71,71,72,0,0,0,0,0,0,
71,71,71,71,71,71,71,71,71,72,0,0,0,0,0,0,
71,71,71,71,71,71,71,71,71,68,62,62,62,62,62,62,
71,71,71,71,71,71,71,71,71,71,71,71,71,71,71,71,
71,71,71,71,71,71,71,71,71,71,71,71,71,71,71,71
</chunk>
   <chunk x="48" y="48" width="16" height="16">
71,71,71,71,71,71,71,0,0,0,0,0,0,0,0,71,
71,71,71,71,71,71,71,0,0,0,0,0,0,0,0,71,
71,71,71,71,71,71,71,0,0,0,0,0,0,0,0,71,
71,71,71,71,71,71,71,0,0,0,0,0,0,0,0,71,
71,71,71,71,71,71,71,0,0,0,0,0,0,0,0,71,
80,80,60,71,71,71,71,0,0,0,0,0,0,0,0,71,
0,0,70,71,71,71,71,0,0,0,0,0,0,0,0,0,
0,0,79,60,71,71,71,0,0,0,0,0,0,0,0,0,
0,0,0,70,71,71,71,0,0,0,0,0,0,0,0,0,
0,0,0,70,71,71,71,0,0,0,0,0,0,0,0,0,
0,0,0,70,71,71,71,0,0,0,0,0,0,0,0,0,
0,0,0,70,71,71,71,71,71,71,71,71,71,71,71,71,
0,0,0,70,71,71,71,71,71,71,71,71,71,71,71,71,
62,62,62,69,71,71,71,71,71,71,71,71,71,71,71,71,
71,71,71,71,71,71,71,71,71,71,71,71,71,71,71,71,
71,71,71,71,71,71,71,71,71,71,71,71,71,71,71,71
</chunk>
   <chunk x="64" y="48" width="16" height="16">
71,71,72,0,0,0,0,0,10,69,71,71,71,71,71,71,
71,71,68,11,0,0,12,13,69,71,71,71,71,71,71,71,
71,71,71,68,62,62,69,71,71,71,71,71,71,71,71,71,
71,71,71,71,71,71,71,71,71,71,71,71,71,71,71,71,
71,71,71,71,71,71,71,71,71,71,71,71,71,71,71,71,
71,71,71,71,71,71,71,71,71,59,80,80,60,71,71,71,
0,71,71,71,71,71,71,71,59,18,0,0,70,71,71,71,
0,71,71,71,71,71,71,59,18,0,0,0,70,71,71,71,
0,71,71,71,71,59,80,18,0,0,0,0,70,71,71,71,
0,71,71,71,71,72,0,0,0,0,0,0,70,71,71,71,
0,71,71,71,71,72,0,0,0,0,0,0,82,83,60,71,
71,71,71,71,71,72,0,0,0,0,0,0,0,0,70,71,
71,71,71,71,71,72,0,0,0,0,0,0,0,0,70,71,
71,71,71,71,71,72,0,0,0,0,0,0,0,0,27,60,
71,71,71,71,71,72,0,0,0,0,0,0,0,0,0,70,
71,71,71,71,71,72,0,0,0,0,0,0,0,0,0,70
</chunk>
   <chunk x="80" y="48" width="16" height="16">
71,71,71,71,71,0,0,0,0,0,0,0,0,0,0,0,
71,71,71,71,71,0,0,0,0,0,0,0,0,0,0,0,
71,71,71,71,71,0,0,0,0,0,0,0,0,0,0,0,
71,71,71,71,71,0,0,0,0,0,0,0,0,0,0,0,
71,71,71,71,71,0,0,0,0,0,0,0,0,0,0,0,
71,71,71,71,71,0,0,0,0,0,0,0,0,0,0,0,
71,71,71,71,71,0,0,0,0,0,0,0,0,0,0,0,
71,71,71,71,71,0,0,0,0,0,0,0,0,0,0,0,
71,71,71,71,71,0,0,0,0,0,0,0,0,0,0,0,
71,71,71,71,71,0,0,0,0,0,0,0,0,0,0,0,
71,71,71,71,71,0,0,0,0,0,71,71,71,71,71,71,
71,71,71,71,0,0,0,0,0,0,71,71,71,71,71,71,
71,71,71,71,0,0,0,0,0,0,71,71,71,71,71,71,
71,71,71,71,0,0,0,0,0,0,71,71,71,71,71,71,
71,71,71,71,0,0,0,0,0,0,71,71,71,71,71,71,
71,71,71,71,0,0,0,0,0,0,71,71,71,71,71,71
</chunk>
   <chunk x="96" y="48" width="16" height="16">
0,0,0,0,0,0,0,0,0,0,0,0,0,0,0,0,
0,0,0,0,0,0,0,0,0,0,0,0,0,0,0,0,
0,0,0,0,0,0,0,0,0,0,0,0,0,0,0,0,
0,0,0,0,0,0,0,0,0,0,0,0,0,0,0,0,
0,0,0,0,0,0,0,0,0,0,0,0,0,0,0,0,
0,0,0,0,0,0,0,0,0,0,0,0,0,0,0,0,
0,0,0,0,0,0,0,0,0,0,0,0,0,0,0,0,
0,0,0,0,0,0,0,0,0,0,0,0,0,0,0,0,
0,0,0,0,0,0,0,0,0,0,0,0,0,0,0,0,
0,0,0,0,0,0,0,0,0,0,0,0,0,0,0,0,
71,71,71,71,71,71,71,71,71,71,71,71,71,71,71,71,
71,71,71,71,71,71,71,71,71,71,71,71,71,71,71,71,
71,71,71,71,71,71,71,71,71,71,71,71,71,71,71,71,
71,71,71,71,71,71,71,71,71,71,71,71,71,71,71,71,
71,71,71,71,71,71,71,71,71,71,71,71,71,71,71,71,
71,71,71,71,71,71,71,71,71,71,71,71,71,71,71,71
</chunk>
   <chunk x="112" y="48" width="16" height="16">
0,0,0,0,0,0,0,0,0,0,0,0,0,0,0,0,
0,0,0,0,0,0,0,0,0,0,0,0,71,71,71,71,
0,0,0,0,0,0,0,0,0,0,0,0,71,71,71,71,
0,0,0,0,0,0,0,0,0,0,0,0,71,71,71,71,
0,0,0,0,0,0,0,0,0,0,0,0,71,71,71,71,
0,0,0,0,0,0,0,0,0,0,0,0,71,71,71,71,
0,0,0,0,0,0,0,0,0,0,0,0,71,71,71,71,
0,0,0,0,0,0,0,0,0,0,0,0,71,71,71,71,
0,0,0,0,0,0,0,0,0,0,0,0,71,71,71,71,
0,0,0,0,0,0,0,0,0,0,0,0,71,71,71,71,
71,71,71,71,0,0,0,0,0,0,0,0,71,71,71,71,
71,71,71,71,0,0,0,0,0,0,0,0,71,71,71,71,
71,71,71,71,0,0,0,0,0,0,0,0,71,71,71,71,
71,71,71,71,0,0,0,0,0,0,0,0,71,71,71,71,
71,71,71,71,0,0,0,0,0,0,0,0,71,71,71,71,
71,71,71,71,0,0,0,0,0,0,0,0,71,71,71,71
</chunk>
   <chunk x="128" y="48" width="16" height="16">
0,0,0,0,0,0,0,0,0,0,0,0,0,0,0,0,
71,71,71,71,71,71,71,71,71,71,71,71,71,71,71,71,
71,71,71,71,71,71,71,71,71,71,71,71,71,71,71,71,
71,71,71,71,71,71,71,71,71,71,71,71,71,71,71,71,
71,71,71,71,71,71,71,71,71,71,71,71,71,71,59,80,
71,71,71,71,71,71,71,71,71,71,71,71,71,71,72,0,
71,71,71,71,71,71,71,71,71,71,71,71,71,71,72,0,
71,71,71,71,71,71,71,71,71,71,71,71,71,71,72,0,
71,71,71,71,71,71,71,71,71,71,71,71,71,71,72,0,
71,71,71,71,71,71,71,71,71,71,71,71,71,71,72,0,
71,71,71,71,71,71,71,71,71,71,71,71,71,71,72,0,
71,71,71,71,71,71,71,71,71,71,71,71,71,71,72,0,
71,71,71,71,71,71,71,71,71,71,71,71,71,71,68,0,
71,71,71,71,71,71,71,71,71,71,71,71,71,71,71,0,
71,71,71,71,71,71,71,71,71,71,71,71,71,71,71,0,
71,71,71,71,71,71,71,71,71,71,71,71,59,60,71,0
</chunk>
   <chunk x="144" y="48" width="16" height="16">
0,0,71,71,71,71,71,71,71,0,0,0,0,0,0,0,
71,71,71,71,71,71,71,71,71,0,0,0,0,0,0,0,
71,71,71,71,71,71,71,71,71,71,71,71,71,71,71,71,
71,71,71,71,71,71,71,71,71,71,71,71,71,71,71,71,
80,80,80,80,60,71,71,71,71,71,71,71,71,71,71,71,
0,0,0,0,79,80,80,80,60,71,71,71,71,71,71,71,
0,0,0,0,0,0,0,0,70,71,71,71,71,71,71,71,
0,0,0,0,0,0,0,0,70,71,71,71,71,71,71,71,
0,0,0,0,0,0,0,0,27,80,80,80,80,60,71,71,
0,0,0,0,0,0,0,0,0,0,0,0,0,82,83,80,
0,0,0,0,0,0,0,0,0,0,0,0,0,0,0,0,
0,0,0,0,0,0,0,0,0,0,0,0,0,0,0,0,
0,0,0,0,0,0,0,0,0,0,0,0,0,0,0,0,
0,0,0,0,0,0,0,0,0,0,0,0,0,0,0,0,
0,0,0,0,0,0,0,0,0,0,0,0,0,0,0,0,
0,0,0,0,0,0,0,0,0,0,0,0,0,0,0,0
</chunk>
   <chunk x="160" y="48" width="16" height="16">
0,0,0,0,0,0,0,0,0,0,0,0,0,0,0,0,
0,0,0,0,0,0,0,0,0,0,0,0,0,0,0,0,
71,71,71,71,71,71,71,0,0,0,0,0,0,0,0,0,
71,71,71,71,71,71,71,0,0,0,0,0,0,0,0,0,
71,71,71,71,71,71,59,81,0,0,0,0,0,0,0,0,
71,71,71,71,71,71,68,63,0,0,0,0,0,0,0,0,
71,71,71,71,71,71,71,72,0,0,0,0,0,0,0,0,
71,71,71,71,71,71,71,72,0,0,0,0,0,0,0,0,
71,71,71,71,71,71,71,72,0,0,0,0,0,0,0,0,
80,80,80,80,80,80,80,18,0,0,0,0,0,0,0,0,
0,0,0,0,0,0,0,0,0,0,0,0,0,0,0,0,
0,0,0,0,0,0,0,0,0,0,0,0,0,0,0,0,
0,0,0,0,0,0,0,0,0,0,0,0,0,0,0,0,
0,0,0,0,0,0,0,0,0,0,0,0,0,0,0,0,
0,0,0,0,0,0,0,0,0,0,0,0,0,0,0,0,
0,0,0,0,0,0,0,0,0,0,0,0,0,0,0,0
</chunk>
   <chunk x="16" y="64" width="16" height="16">
0,0,0,0,0,70,71,71,71,71,71,71,71,71,71,71,
0,0,0,0,0,79,60,59,60,71,71,71,71,71,71,71,
0,0,0,0,0,0,79,81,79,0,0,0,0,0,0,0,
0,0,0,0,0,0,0,0,0,0,0,0,0,0,0,0,
0,0,0,0,0,0,0,0,0,0,0,0,0,0,0,0,
0,0,0,0,0,0,0,0,0,0,0,0,0,0,0,0,
0,0,0,0,0,0,0,0,0,0,0,0,0,0,0,0,
0,0,0,0,0,0,0,0,0,0,0,0,0,0,0,0,
0,0,0,0,0,0,0,0,0,0,0,0,0,0,0,0,
0,0,0,0,0,0,0,0,0,0,0,0,0,0,0,0,
0,0,0,0,0,0,0,0,0,0,0,0,0,0,0,0,
0,71,71,71,71,71,71,71,71,71,71,71,71,0,0,0,
0,71,71,71,71,71,71,71,71,71,71,71,71,0,0,0,
0,71,71,71,71,71,71,71,71,71,71,71,71,0,0,0,
0,71,71,71,71,71,71,71,71,71,71,71,71,0,0,0,
0,71,71,71,71,71,71,71,71,71,71,71,71,0,0,0
</chunk>
   <chunk x="32" y="64" width="16" height="16">
71,71,71,71,71,71,71,71,71,71,71,71,71,71,71,71,
71,71,71,71,71,0,0,0,0,0,0,0,0,0,0,0,
0,0,0,0,0,0,0,0,0,0,0,0,0,0,0,0,
0,0,0,0,0,0,0,0,0,0,0,0,0,0,0,0,
0,0,0,0,0,0,0,0,0,0,0,0,0,0,0,0,
0,0,0,0,0,0,0,0,0,0,0,0,0,0,0,0,
0,0,0,0,0,0,0,0,0,0,0,0,0,0,0,0,
0,0,0,0,0,0,0,0,0,0,0,0,0,0,0,0,
0,0,0,0,0,0,0,0,0,0,0,0,0,0,0,0,
0,0,0,0,0,0,0,0,0,0,0,0,0,0,0,0,
0,0,0,0,0,0,0,0,0,0,0,0,0,0,0,0,
0,0,0,0,0,0,0,0,0,0,0,0,0,0,0,0,
0,0,0,0,0,0,0,0,0,0,0,0,0,0,0,0,
0,0,0,0,0,0,0,0,0,0,0,0,0,0,0,0,
0,0,0,0,0,0,0,0,0,0,0,0,0,0,0,0,
0,0,0,0,0,0,0,0,0,0,0,0,0,0,0,0
</chunk>
   <chunk x="48" y="64" width="16" height="16">
71,71,71,71,71,71,71,71,71,71,71,71,71,71,71,71,
0,0,0,0,0,0,71,71,71,71,71,71,71,71,71,71,
0,0,0,0,0,0,0,0,0,0,0,0,0,0,0,0,
0,0,0,0,0,0,0,0,0,0,0,0,0,0,0,0,
0,0,0,0,0,0,0,0,0,0,0,0,0,0,0,0,
0,0,0,0,0,0,0,0,0,0,0,0,0,0,0,0,
0,0,0,0,0,0,0,0,0,0,0,0,0,0,0,0,
0,0,0,0,0,0,0,0,0,0,0,0,0,0,0,0,
0,0,0,0,0,0,0,0,0,0,0,0,0,0,0,0,
0,0,0,0,0,0,0,0,0,0,0,0,0,0,0,0,
0,0,0,0,0,0,0,0,0,0,0,0,0,0,0,0,
0,0,0,0,0,0,0,0,0,0,0,0,0,0,0,0,
0,0,0,0,0,0,0,0,0,0,0,0,0,0,0,0,
0,0,0,0,0,0,0,0,0,0,0,0,0,0,0,0,
0,0,0,0,0,0,0,0,0,0,0,0,0,0,0,0,
0,0,0,0,0,0,0,0,0,0,0,0,0,0,0,0
</chunk>
   <chunk x="64" y="64" width="16" height="16">
71,71,71,71,71,68,62,62,62,63,0,0,0,0,0,70,
71,71,71,71,71,71,71,71,71,72,0,0,0,0,0,70,
0,0,71,71,71,71,71,71,71,72,0,0,0,0,0,70,
0,0,71,71,71,71,71,71,71,72,0,0,0,0,0,70,
0,0,71,71,71,71,71,71,71,72,0,0,0,0,0,70,
0,0,71,71,71,71,71,71,71,72,0,0,0,0,0,70,
0,0,71,71,71,71,71,71,71,72,0,0,0,0,0,70,
0,0,71,71,71,71,71,71,71,72,0,0,0,0,0,70,
0,0,71,71,71,71,71,71,71,72,0,0,0,0,0,70,
0,0,71,71,71,71,71,71,71,72,0,0,0,0,0,70,
0,0,71,71,71,71,71,71,71,72,0,0,0,0,0,70,
0,0,71,71,71,71,71,71,71,72,0,0,0,0,0,70,
0,0,71,71,71,71,71,71,71,72,0,0,0,0,0,70,
0,0,71,71,71,71,71,71,71,72,0,0,0,0,0,70,
0,0,71,71,71,71,71,71,71,68,62,62,62,62,62,69,
0,0,71,71,71,71,71,71,71,71,71,71,71,71,71,71
</chunk>
   <chunk x="80" y="64" width="16" height="16">
71,71,71,71,0,0,0,0,0,0,71,71,71,71,71,71,
71,71,71,71,0,0,0,0,0,0,71,71,71,71,71,71,
71,71,71,71,0,0,0,0,0,0,71,71,71,71,71,71,
71,71,71,71,0,0,0,0,0,0,0,0,0,0,0,0,
71,71,71,71,0,0,0,0,0,0,0,0,0,0,0,0,
71,71,71,71,0,0,0,0,0,0,0,0,0,0,0,0,
71,71,71,71,0,0,0,0,0,0,0,0,0,0,0,0,
71,71,71,71,0,0,0,0,0,0,0,0,0,0,0,0,
71,71,71,71,0,0,0,0,0,0,71,71,71,71,71,71,
71,71,71,71,0,0,0,0,0,0,71,71,71,71,71,71,
71,71,71,71,0,0,0,0,0,0,71,71,71,71,71,71,
71,71,71,71,0,0,0,0,0,0,71,71,71,71,71,71,
71,71,71,71,0,0,0,0,0,0,71,71,71,71,71,71,
71,71,71,71,0,0,0,0,0,0,71,71,71,71,71,71,
71,71,71,71,0,0,0,0,0,0,71,71,71,71,71,71,
71,71,71,71,0,0,0,0,0,0,71,71,71,71,71,71
</chunk>
   <chunk x="96" y="64" width="16" height="16">
71,71,71,71,71,71,71,71,71,71,71,71,71,71,71,71,
71,71,71,71,71,71,71,71,71,71,71,71,71,71,71,71,
71,71,71,71,71,71,71,71,71,71,71,71,71,71,71,71,
71,71,71,71,71,71,71,71,71,71,71,71,71,71,71,71,
71,71,71,71,71,71,71,71,71,71,71,71,71,71,71,71,
71,71,71,71,71,71,71,71,71,71,71,71,71,71,71,71,
71,71,71,71,71,71,71,71,71,71,71,71,71,71,71,71,
71,71,71,71,71,71,71,71,71,71,71,71,71,71,71,71,
71,71,71,71,71,71,71,71,71,71,71,71,71,71,71,71,
71,71,71,71,71,71,71,71,71,71,71,71,71,71,71,71,
71,71,71,71,71,71,71,71,71,71,71,71,71,71,71,71,
71,71,71,71,71,71,71,71,71,71,71,71,71,71,71,71,
71,71,71,71,71,71,71,71,71,71,71,71,71,71,71,71,
71,71,71,71,71,71,71,71,71,71,71,71,71,71,71,71,
71,71,71,71,71,71,71,71,71,71,71,71,71,71,71,71,
71,71,71,71,71,71,71,71,71,71,71,71,71,71,71,71
</chunk>
   <chunk x="112" y="64" width="16" height="16">
71,71,71,71,0,0,0,0,0,0,0,0,71,71,71,71,
71,71,71,71,0,0,0,0,0,0,0,0,71,71,71,71,
71,71,71,71,0,0,0,0,0,0,0,0,71,71,71,71,
0,0,0,0,0,0,0,0,0,0,0,0,71,71,71,71,
0,0,0,0,0,0,0,0,0,0,0,0,71,71,71,71,
0,0,0,0,0,0,0,0,0,0,0,0,71,71,71,71,
0,0,0,0,0,0,0,0,0,0,0,0,71,71,71,71,
0,0,0,0,0,0,0,0,0,0,0,0,71,71,71,71,
0,0,0,0,0,0,0,0,0,0,0,0,71,71,71,71,
0,0,0,0,0,0,0,0,0,0,0,0,71,71,71,71,
71,71,71,71,0,0,0,0,0,0,0,0,71,71,71,71,
71,71,71,71,0,0,0,0,0,0,0,0,0,0,0,0,
71,71,71,71,0,0,0,0,0,0,0,0,0,0,0,0,
71,71,71,71,0,0,0,0,0,0,0,0,0,0,0,0,
71,71,71,71,0,0,0,0,0,0,0,0,0,0,0,0,
71,71,71,71,0,0,0,0,0,0,0,0,0,0,0,0
</chunk>
   <chunk x="128" y="64" width="16" height="16">
71,71,71,71,71,71,71,71,71,71,71,71,72,79,0,0,
71,71,71,71,71,71,71,71,71,71,71,71,72,0,0,0,
71,71,71,71,71,71,71,71,71,71,71,71,72,0,0,0,
71,71,71,71,71,71,71,71,71,59,80,80,18,0,0,0,
71,71,71,71,71,71,71,71,71,72,0,0,0,0,0,0,
71,71,71,71,71,71,71,71,71,72,0,0,0,0,0,0,
71,71,71,71,71,71,71,71,71,72,0,0,0,0,0,0,
71,71,71,71,71,71,71,71,71,72,0,0,0,0,0,0,
71,71,71,71,71,71,71,71,71,72,0,0,0,0,0,0,
71,71,71,71,71,71,71,71,71,72,0,0,0,0,0,0,
71,71,71,71,71,71,59,60,71,72,0,0,0,0,0,0,
0,0,0,0,0,0,0,0,0,0,0,0,0,0,0,0,
0,0,0,0,0,0,0,0,0,0,0,0,0,0,0,0,
0,0,0,0,0,0,0,0,0,0,0,0,0,0,0,0,
0,0,0,0,0,0,0,0,0,0,0,0,0,0,0,0,
0,0,0,0,0,0,0,0,0,0,0,0,0,0,0,0
</chunk>
   <chunk x="16" y="80" width="16" height="16">
0,71,71,71,71,71,71,71,71,71,71,71,71,0,0,0,
0,71,71,71,71,71,71,71,71,71,71,71,71,0,0,0,
0,71,71,71,71,71,71,71,71,71,71,71,71,0,0,0,
0,0,0,0,0,0,0,0,71,71,71,71,71,0,0,0,
0,0,0,0,0,0,0,0,71,71,71,71,71,0,0,0,
0,0,0,0,0,0,0,0,71,71,71,71,71,0,0,0,
0,0,0,0,0,0,0,0,71,71,71,71,71,0,0,0,
0,0,0,0,0,0,0,0,71,71,71,71,71,0,0,0,
0,0,0,0,0,0,0,0,71,71,71,71,71,0,0,0,
0,0,0,0,0,0,0,0,71,71,71,71,71,0,0,0,
0,0,0,0,0,0,0,0,71,71,71,71,71,0,0,0,
0,0,0,0,0,0,0,0,71,71,71,71,71,0,0,0,
0,0,0,0,0,0,0,0,71,71,71,71,71,0,0,0,
0,0,0,0,0,0,0,0,71,71,71,71,71,0,0,0,
0,0,0,0,0,0,0,0,71,71,71,71,71,0,0,0,
0,0,0,0,0,0,0,0,71,71,71,71,71,0,0,0
</chunk>
   <chunk x="64" y="80" width="16" height="16">
0,71,71,71,71,71,71,71,71,71,71,71,71,71,71,71,
0,71,71,71,71,71,71,71,71,71,71,71,71,71,71,71,
0,71,71,71,71,71,71,71,71,71,71,71,71,71,71,71,
0,71,71,71,71,71,71,71,71,71,71,71,71,71,71,71,
0,71,71,71,71,71,71,71,59,80,80,80,60,71,71,71,
0,71,71,71,71,71,71,59,81,0,0,0,70,71,71,71,
0,71,71,71,71,71,71,72,0,0,0,0,70,71,71,71,
0,71,71,71,71,71,71,72,0,0,0,0,70,71,71,71,
0,71,71,71,71,71,71,72,0,0,0,0,70,71,71,71,
0,71,71,71,71,71,71,72,0,0,0,0,70,71,71,71,
0,71,71,71,71,71,71,72,0,0,0,0,70,71,71,71,
0,71,71,71,71,71,71,72,0,0,0,0,70,71,71,71,
0,71,71,71,71,71,71,72,0,0,0,0,70,71,71,71,
0,71,71,71,71,71,71,72,0,0,0,10,69,71,71,71,
0,71,71,71,71,71,71,68,62,62,62,69,71,71,71,71,
0,71,71,71,71,71,71,71,71,71,71,71,71,71,71,71
</chunk>
   <chunk x="80" y="80" width="16" height="16">
71,71,71,71,0,0,0,0,0,0,71,71,71,71,71,71,
71,71,71,71,0,0,0,0,0,0,71,71,71,71,71,71,
71,71,71,71,0,0,0,0,0,0,71,71,71,71,71,71,
71,71,71,71,0,0,0,0,0,0,71,71,71,71,71,71,
71,71,71,71,0,0,0,0,0,0,71,71,71,71,71,71,
71,71,71,71,71,71,71,71,71,71,71,71,71,71,71,71,
71,71,71,71,71,71,71,71,71,71,71,71,71,71,71,71,
71,71,71,71,71,71,71,71,71,71,71,71,71,71,71,71,
71,71,71,71,71,71,71,71,71,71,71,71,71,71,71,71,
71,71,71,71,71,71,71,71,71,71,71,71,71,71,71,71,
71,71,71,71,0,0,0,0,0,0,71,71,71,71,71,71,
71,71,71,71,0,0,0,0,0,0,71,71,71,71,71,71,
71,71,71,71,0,0,0,0,0,0,71,71,71,71,71,71,
71,71,71,71,0,0,0,0,0,0,71,71,71,71,71,71,
71,71,71,71,0,0,0,0,0,0,0,0,0,0,0,0,
71,71,71,71,0,0,0,0,0,0,0,0,0,0,0,0
</chunk>
   <chunk x="96" y="80" width="16" height="16">
71,71,71,71,71,71,71,71,71,71,71,71,71,71,71,71,
71,71,71,71,71,71,71,71,71,71,71,71,71,71,71,71,
71,71,71,71,71,71,71,71,71,71,71,71,71,71,71,71,
71,71,71,71,71,71,71,71,71,71,71,71,71,71,71,71,
71,71,71,71,71,71,71,71,71,71,71,71,71,71,71,71,
71,71,71,71,71,71,71,71,71,71,71,71,71,71,71,71,
71,71,71,71,71,71,71,71,71,71,71,71,71,71,71,71,
71,71,71,71,71,71,71,71,71,71,71,71,71,71,71,71,
71,71,71,71,71,71,71,71,71,71,71,71,71,71,71,71,
71,71,71,71,71,71,71,71,71,71,71,71,71,71,71,71,
71,71,71,71,71,71,71,71,71,71,71,71,71,71,71,71,
71,71,71,71,71,71,71,71,71,71,71,71,71,71,71,71,
71,71,71,71,71,71,71,71,71,71,71,71,71,71,71,71,
71,71,71,71,71,71,71,71,71,71,71,71,71,71,71,71,
0,0,0,0,0,0,0,0,0,0,0,0,0,0,0,0,
0,0,0,0,0,0,0,0,0,0,0,0,0,0,0,0
</chunk>
   <chunk x="112" y="80" width="16" height="16">
71,71,71,71,71,71,71,71,71,71,71,71,71,71,71,71,
71,71,71,71,71,71,71,71,71,71,71,71,71,71,71,71,
71,71,71,71,71,71,71,71,71,71,71,71,71,71,71,71,
71,71,71,71,71,71,71,71,71,71,71,71,71,71,71,71,
71,71,71,71,71,71,71,71,71,71,71,71,71,71,71,71,
71,71,71,71,71,71,71,71,71,71,71,71,71,71,71,71,
71,71,71,71,71,71,71,71,71,71,71,71,71,71,71,71,
71,71,71,71,71,71,71,71,71,71,71,71,71,71,71,71,
71,71,71,71,71,71,71,71,71,71,71,71,71,71,71,71,
71,71,71,71,71,71,71,71,71,71,71,71,71,71,71,71,
71,71,71,71,71,71,71,71,71,71,71,71,71,71,71,71,
71,71,71,71,71,71,71,71,71,71,71,71,71,71,71,71,
71,71,71,71,71,71,71,71,71,71,71,71,71,71,71,71,
71,71,71,71,71,71,71,71,71,71,71,71,71,71,71,71,
0,0,0,0,0,0,0,0,0,0,0,0,0,0,0,0,
0,0,0,0,0,0,0,0,0,0,0,0,0,0,0,0
</chunk>
   <chunk x="128" y="80" width="16" height="16">
71,0,0,0,0,0,0,0,0,0,0,0,0,0,0,0,
71,71,71,71,71,71,71,71,71,71,71,71,71,71,71,71,
71,71,71,71,71,71,71,71,71,71,71,71,71,71,71,71,
71,71,71,71,71,71,71,71,71,71,71,71,71,71,71,71,
71,71,71,71,71,71,71,71,71,71,71,71,71,71,71,71,
71,71,71,71,71,71,71,71,71,71,71,71,71,71,71,71,
71,71,71,71,71,71,71,71,71,71,71,71,71,71,71,71,
71,71,71,71,71,71,71,71,71,71,71,71,71,71,71,71,
71,71,71,71,71,71,71,71,71,71,71,71,71,71,71,71,
71,71,71,71,71,71,71,71,71,71,71,71,71,71,71,71,
71,71,71,71,71,71,71,71,71,71,71,71,71,71,71,71,
71,71,71,71,71,71,71,71,71,71,71,71,71,71,71,71,
71,71,71,71,71,71,71,71,71,71,71,71,71,71,71,71,
71,71,71,71,71,71,71,71,71,71,71,71,71,71,71,71,
0,0,0,0,0,0,0,0,0,0,0,0,0,0,0,0,
0,0,0,0,0,0,0,0,0,0,0,0,0,0,0,0
</chunk>
   <chunk x="144" y="80" width="16" height="16">
0,0,0,0,0,0,0,0,0,0,0,0,0,0,0,0,
71,0,0,0,0,0,0,0,0,0,0,0,0,0,0,0,
71,0,0,0,0,0,0,0,0,0,0,0,0,0,0,0,
71,71,71,71,71,0,0,0,0,0,0,0,0,0,0,0,
71,71,71,71,71,71,0,0,0,0,0,0,0,0,0,0,
71,71,71,71,71,71,0,0,0,0,0,0,0,0,0,0,
71,71,71,71,71,71,71,71,0,0,0,62,62,63,0,0,
71,71,71,71,71,71,71,71,71,71,71,71,71,72,0,0,
71,71,71,71,71,71,71,71,71,71,71,71,71,72,0,0,
71,71,71,71,71,71,71,71,71,71,71,71,71,72,0,0,
71,71,71,71,71,71,71,71,71,71,71,71,71,68,63,0,
71,71,71,71,71,71,71,71,71,71,71,71,71,71,68,63,
71,71,71,71,71,71,71,71,71,71,71,71,71,71,71,72,
71,71,71,71,71,71,71,59,60,71,71,71,71,71,71,72,
0,0,0,0,0,0,0,0,0,0,0,0,0,0,0,0,
0,0,0,0,0,0,0,0,0,0,0,0,0,0,0,0
</chunk>
   <chunk x="16" y="96" width="16" height="16">
0,0,0,0,0,0,0,0,71,71,71,71,71,0,0,0,
0,0,0,0,0,0,0,0,71,71,71,71,71,0,0,0,
0,0,0,0,0,0,0,0,71,71,71,71,71,0,0,0,
0,0,0,0,0,0,0,0,71,71,71,71,71,0,0,0,
0,0,0,0,0,0,0,0,0,0,0,0,0,0,0,0,
0,0,0,0,0,0,0,0,0,0,0,0,0,0,0,0,
0,0,0,0,0,0,0,0,0,0,0,0,0,0,0,0,
0,0,0,0,0,0,0,0,0,0,0,0,0,0,0,0,
0,0,0,0,0,0,0,0,0,0,0,0,0,0,0,0,
0,0,0,0,0,0,0,0,0,0,0,0,0,0,0,0,
0,0,0,0,0,0,0,0,0,0,0,0,0,0,0,0,
0,0,0,0,0,0,0,0,0,0,0,0,0,0,0,0,
0,0,0,0,0,0,0,0,0,0,0,0,0,0,0,0,
0,0,0,0,0,0,0,0,0,0,0,0,0,0,0,0,
0,0,0,0,0,0,0,0,0,0,0,0,0,0,0,0,
0,0,0,0,0,0,0,0,0,0,0,0,0,0,0,0
</chunk>
   <chunk x="64" y="96" width="16" height="16">
0,0,0,71,71,71,71,71,71,71,71,71,71,71,71,71,
0,0,0,71,71,71,71,71,71,71,71,71,71,71,71,71,
0,0,0,71,71,71,71,71,71,71,71,71,71,71,71,71,
0,0,0,71,71,71,71,71,71,71,71,71,71,71,71,71,
0,0,0,71,71,71,71,71,71,71,71,71,71,71,71,71,
0,0,0,0,0,0,0,0,0,0,0,0,0,0,0,0,
0,0,0,0,0,0,0,0,0,0,0,0,0,0,0,0,
0,0,0,0,0,0,0,0,0,0,0,0,0,0,0,0,
0,0,0,0,0,0,0,0,0,0,0,0,0,0,0,0,
0,0,0,0,0,0,0,0,0,0,0,0,0,0,0,0,
0,0,0,0,0,0,0,0,0,0,0,0,0,0,0,0,
0,0,0,0,0,0,0,0,0,0,0,0,0,0,0,0,
0,0,0,0,0,0,0,0,0,0,0,0,0,0,0,0,
0,0,0,0,0,0,0,0,0,0,0,0,0,0,0,0,
0,0,0,0,0,0,0,0,0,0,0,0,0,0,0,0,
0,0,0,0,0,0,0,0,0,0,0,0,0,0,0,0
</chunk>
   <chunk x="80" y="96" width="16" height="16">
71,71,71,0,0,0,0,0,0,0,0,0,0,0,0,0,
71,71,71,0,0,0,0,0,0,0,0,0,0,0,0,0,
71,71,71,0,0,0,0,0,0,0,0,0,0,0,0,0,
71,71,71,0,0,0,0,0,0,0,0,0,0,0,0,0,
71,71,71,0,0,0,0,0,0,0,0,0,0,0,0,0,
0,0,0,0,0,0,0,0,0,0,0,0,0,0,0,0,
0,0,0,0,0,0,0,0,0,0,0,0,0,0,0,0,
0,0,0,0,0,0,0,0,0,0,0,0,0,0,0,0,
0,0,0,0,0,0,0,0,0,0,0,0,0,0,0,0,
0,0,0,0,0,0,0,0,0,0,0,0,0,0,0,0,
0,0,0,0,0,0,0,0,0,0,0,0,0,0,0,0,
0,0,0,0,0,0,0,0,0,0,0,0,0,0,0,0,
0,0,0,0,0,0,0,0,0,0,0,0,0,0,0,0,
0,0,0,0,0,0,0,0,0,0,0,0,0,0,0,0,
0,0,0,0,0,0,0,0,0,0,0,0,0,0,0,0,
0,0,0,0,0,0,0,0,0,0,0,0,0,0,0,0
</chunk>
  </data>
 </layer>
 <layer id="1" name="ground" width="64" height="32">
  <data encoding="csv"/>
 </layer>
 <layer id="2" name="collision" width="64" height="32">
  <data encoding="csv">
   <chunk x="0" y="0" width="16" height="16">
0,0,0,0,0,0,70,71,71,71,71,71,71,71,71,71,
0,0,0,0,0,0,70,71,71,71,71,71,71,71,71,71,
0,0,0,0,0,0,70,71,71,71,71,71,71,71,71,71,
0,0,0,0,0,0,70,71,71,71,71,71,71,71,59,80,
0,0,0,16,16,16,70,71,71,71,71,71,71,59,18,0,
0,0,26,0,0,0,27,60,71,71,59,80,80,81,0,0,
0,0,26,0,0,0,0,27,80,84,85,0,0,0,0,0,
0,0,26,0,0,0,0,0,0,0,0,0,0,0,0,0,
0,0,26,0,0,0,0,0,0,0,0,0,0,0,0,0,
0,0,26,0,0,0,0,0,0,0,0,0,0,0,0,0,
0,0,26,0,0,0,0,0,0,0,0,0,0,0,0,0,
0,0,26,0,0,0,0,0,0,0,0,0,0,0,0,0,
0,0,26,0,0,0,0,0,0,0,0,0,0,0,0,0,
0,0,26,0,0,0,0,0,0,0,0,0,0,0,0,0,
0,0,26,0,0,0,0,0,0,0,0,0,0,0,0,0,
0,0,26,0,0,0,0,0,0,0,0,0,0,0,0,0
</chunk>
   <chunk x="16" y="0" width="16" height="16">
71,71,71,71,71,71,71,71,71,71,71,71,71,71,71,71,
71,71,71,71,71,71,71,71,71,71,71,71,71,71,71,71,
71,71,71,71,71,71,71,71,71,71,71,71,71,71,71,71,
80,80,80,80,80,80,80,80,80,80,80,80,80,80,60,71,
0,0,0,0,0,0,0,0,0,0,0,0,0,0,70,71,
0,0,0,0,0,0,0,0,0,0,0,0,0,0,70,71,
0,0,0,0,0,0,0,0,0,0,0,0,0,0,70,71,
0,0,0,0,0,0,0,0,0,0,0,0,0,0,70,71,
0,0,0,0,0,0,0,0,0,0,0,0,0,0,27,60,
0,0,0,0,0,0,0,0,0,0,0,0,0,0,0,27,
0,0,0,0,0,0,0,0,0,0,0,0,0,0,0,0,
0,0,0,0,0,0,0,0,0,0,0,0,0,0,0,0,
0,0,0,0,61,62,62,62,62,63,0,0,0,0,0,0,
0,0,0,0,70,71,71,71,71,72,0,0,0,0,0,0,
0,0,0,0,70,71,71,71,71,72,0,0,0,0,0,0,
0,0,0,0,70,71,71,71,71,72,0,0,0,0,0,0
</chunk>
   <chunk x="32" y="0" width="16" height="16">
71,71,71,71,71,71,71,71,71,71,71,71,71,71,71,71,
71,71,71,71,71,71,71,71,71,71,71,71,71,71,71,71,
71,71,71,71,71,71,71,71,71,71,71,71,71,71,71,71,
71,71,71,71,71,71,71,71,71,71,71,71,71,71,71,71,
71,71,71,71,71,71,71,71,71,71,71,71,71,71,71,71,
71,71,71,71,71,71,71,71,71,71,71,71,71,71,71,71,
71,71,71,71,71,71,71,71,71,71,71,71,71,71,71,71,
71,71,71,71,71,71,71,71,71,71,71,71,71,59,80,80,
71,71,71,71,71,71,71,71,71,71,71,71,71,72,0,0,
60,71,71,71,71,71,71,71,71,71,71,71,71,72,0,0,
27,60,71,71,71,71,71,71,71,71,71,71,71,72,0,0,
0,27,60,71,71,71,71,71,71,71,71,71,71,72,0,0,
0,0,27,60,71,71,71,71,71,71,71,71,71,72,0,0,
0,0,0,27,60,71,71,71,71,71,71,71,71,72,0,0,
0,0,0,0,79,80,80,80,80,80,80,80,80,81,0,0,
0,0,0,0,0,0,0,0,0,0,0,0,0,0,0,0
</chunk>
   <chunk x="48" y="0" width="16" height="16">
71,71,71,71,71,71,71,71,71,71,71,71,71,71,71,71,
71,71,71,71,71,71,71,71,71,71,71,71,71,71,71,71,
71,71,71,71,71,71,71,71,71,71,71,71,71,71,71,71,
71,71,71,71,71,71,71,71,71,71,71,71,71,71,71,71,
71,71,71,71,71,71,71,71,71,71,71,71,71,71,71,71,
71,71,71,71,71,71,71,71,71,71,71,71,71,71,71,71,
71,71,71,71,71,71,71,71,71,71,71,71,71,71,71,71,
80,80,80,80,80,80,80,80,80,80,80,80,80,80,80,80,
0,0,0,0,0,0,0,0,0,0,0,0,0,0,0,0,
0,0,0,0,0,0,0,0,0,0,0,0,0,0,0,0,
0,0,0,0,0,0,0,0,0,0,0,0,0,0,0,0,
0,0,0,0,0,0,0,0,0,0,0,0,0,0,0,0,
0,0,0,0,0,0,0,0,0,0,0,0,0,0,0,0,
0,0,0,0,0,0,0,0,0,0,0,0,0,0,0,0,
0,0,0,0,0,0,0,0,0,0,0,0,0,0,0,0,
0,0,0,0,0,0,0,0,0,0,0,0,0,0,0,0
</chunk>
   <chunk x="64" y="0" width="16" height="16">
71,71,71,71,71,71,71,71,71,71,71,71,71,71,71,71,
71,71,71,71,71,71,71,71,71,71,71,71,71,71,71,71,
71,71,71,71,71,71,71,71,71,71,71,71,71,71,71,71,
71,71,71,71,71,71,71,71,71,71,71,71,71,71,71,71,
71,71,71,71,71,71,71,71,71,71,71,71,71,71,71,71,
71,71,71,71,71,71,71,71,71,71,71,71,71,71,71,71,
71,71,71,71,71,71,71,71,71,71,71,71,71,71,71,71,
80,80,80,80,80,80,80,80,80,80,80,80,80,80,80,80,
0,0,0,0,0,0,0,0,0,0,0,0,0,0,0,0,
0,0,0,0,0,0,0,0,0,0,0,0,0,0,0,0,
0,0,0,0,0,0,0,0,0,0,0,0,0,0,0,0,
0,0,0,0,0,0,0,0,0,0,0,0,0,0,0,0,
0,0,0,0,0,0,0,0,0,0,0,0,0,0,0,0,
0,0,0,0,0,0,0,0,0,0,0,0,0,0,0,0,
0,0,0,0,0,0,0,0,0,0,0,0,0,0,0,0,
0,0,0,0,0,0,0,0,0,0,0,0,0,0,0,0
</chunk>
   <chunk x="80" y="0" width="16" height="16">
71,71,71,71,71,71,71,71,71,71,71,71,71,71,71,71,
71,71,71,71,71,71,71,71,71,71,71,71,71,71,71,71,
71,71,71,71,71,71,71,71,71,71,71,71,71,71,71,71,
71,71,71,71,71,71,71,71,71,71,71,71,71,71,71,71,
71,71,71,71,71,71,71,71,71,71,71,71,71,71,71,71,
71,71,71,71,71,71,71,71,71,71,71,71,71,71,71,71,
71,71,71,71,71,71,71,71,71,71,71,71,59,80,80,80,
60,71,71,71,71,71,71,71,71,71,71,59,18,0,0,0,
79,80,60,71,71,71,71,71,59,80,80,81,0,0,0,0,
0,0,70,71,71,71,71,71,72,0,0,0,0,0,0,0,
0,0,70,71,71,71,71,71,72,0,0,0,0,0,0,0,
0,0,79,80,80,80,80,80,81,0,0,0,0,0,0,0,
0,0,0,0,0,0,0,0,0,0,0,0,0,0,0,0,
0,0,0,0,0,0,0,0,0,0,0,0,0,0,0,0,
0,0,0,0,0,0,0,0,0,0,0,0,0,0,0,0,
0,0,0,0,0,0,0,0,0,0,0,0,0,0,0,0
</chunk>
   <chunk x="96" y="0" width="16" height="16">
71,71,71,71,71,71,71,71,71,71,71,71,71,71,71,71,
71,71,71,71,71,71,71,71,71,71,71,71,71,71,71,71,
71,71,71,71,71,71,71,71,71,71,71,71,71,71,71,71,
71,71,71,71,71,71,71,71,71,71,71,71,71,71,71,71,
71,71,71,71,71,71,71,71,71,71,71,71,71,71,71,71,
71,71,71,71,71,71,71,71,71,71,71,71,71,71,71,71,
80,80,80,80,80,80,80,80,80,80,80,80,80,80,60,71,
0,0,0,0,0,0,0,0,0,0,0,0,0,0,70,71,
0,0,0,0,0,0,0,0,0,0,0,0,0,0,70,71,
0,0,0,0,0,0,0,0,0,0,0,0,0,0,27,60,
0,0,0,0,0,0,0,0,0,0,0,0,0,0,0,79,
0,0,0,0,0,0,0,0,0,0,0,0,0,0,0,0,
0,0,0,0,0,0,0,0,0,0,0,0,0,0,0,0,
0,0,0,0,0,0,0,0,0,0,0,0,0,0,0,0,
0,0,0,0,0,0,0,0,0,0,0,0,0,0,0,0,
0,0,0,0,0,0,0,0,0,0,0,0,0,0,0,0
</chunk>
   <chunk x="112" y="0" width="16" height="16">
71,71,71,71,71,71,71,71,71,71,71,71,71,71,71,71,
71,71,71,71,71,71,71,71,71,71,71,71,71,71,71,71,
71,71,71,71,71,71,71,71,71,71,71,71,71,71,71,71,
71,71,71,71,71,71,71,71,71,71,71,71,71,71,71,71,
71,71,71,71,71,71,71,71,71,71,71,71,71,71,71,71,
71,71,71,71,71,71,71,71,71,71,71,71,71,71,71,71,
71,71,71,71,71,71,71,71,71,71,71,71,59,80,80,80,
71,71,71,71,71,71,71,71,71,71,59,80,81,0,0,0,
71,71,71,71,59,80,80,80,80,80,18,0,0,0,0,0,
71,71,71,71,72,0,0,0,0,0,0,0,0,0,0,0,
60,71,71,71,72,0,0,0,0,0,0,0,0,0,0,0,
70,71,71,71,72,0,0,0,0,0,0,0,0,0,0,0,
70,71,71,71,72,0,0,0,0,0,0,0,0,0,0,0,
27,60,71,71,72,0,0,0,0,0,0,0,0,0,0,0,
0,27,80,80,81,0,0,0,0,0,0,0,0,0,0,0,
0,0,0,0,0,0,0,0,0,0,0,0,0,0,0,0
</chunk>
   <chunk x="128" y="0" width="16" height="16">
71,71,71,71,71,71,71,71,71,71,71,71,71,71,71,71,
71,71,71,71,71,71,71,71,71,71,71,71,71,71,71,71,
71,71,71,71,71,71,71,71,71,71,71,71,71,71,71,71,
71,71,71,71,71,71,71,71,71,71,71,71,71,71,71,71,
71,71,71,71,71,71,71,71,71,71,71,71,71,71,71,71,
71,71,71,71,71,71,71,71,71,71,71,71,71,71,71,71,
80,80,80,80,80,80,80,80,80,80,80,60,71,71,71,71,
0,0,0,0,0,0,0,0,0,0,0,27,80,80,80,80,
0,0,0,0,0,0,0,0,0,0,0,0,0,0,0,0,
0,0,0,0,0,0,0,0,0,0,0,0,0,0,0,0,
0,0,0,0,0,0,0,0,0,0,0,0,0,0,0,0,
0,0,0,0,0,0,0,0,0,0,0,0,0,0,0,0,
0,0,0,0,0,0,0,0,0,0,0,0,0,0,0,0,
0,0,0,0,0,0,0,0,0,0,0,0,0,0,0,0,
0,0,0,0,0,0,0,0,0,0,0,0,0,0,0,0,
0,0,0,0,0,0,0,0,0,0,25,25,25,25,25,25
</chunk>
   <chunk x="144" y="0" width="16" height="16">
71,71,71,71,71,71,71,71,71,71,71,71,71,71,71,71,
71,71,71,71,71,71,71,71,71,71,71,71,71,71,59,80,
71,71,71,71,71,71,71,71,71,71,71,71,71,71,72,0,
71,71,71,71,71,71,71,71,71,71,71,71,71,71,72,0,
71,71,71,71,71,71,71,71,71,71,71,71,71,71,72,0,
71,71,71,71,71,71,71,71,71,71,71,71,71,71,72,0,
71,71,71,71,71,71,71,71,71,71,71,71,71,71,72,0,
80,80,80,80,60,71,71,71,71,71,71,71,71,71,72,0,
0,0,0,0,27,80,80,80,80,80,60,71,71,71,72,0,
0,0,0,0,0,0,0,0,0,0,27,80,80,80,81,0,
0,0,0,0,0,0,0,0,0,0,0,0,0,0,0,0,
0,0,0,0,0,0,0,0,0,0,0,0,0,0,0,0,
0,0,0,0,0,0,0,0,0,0,0,0,0,0,0,0,
0,0,0,0,0,0,0,0,0,0,0,0,0,0,0,0,
0,0,0,0,0,0,0,0,0,0,0,0,0,0,0,0,
0,0,0,0,0,0,0,0,0,0,0,0,0,0,0,0
</chunk>
   <chunk x="160" y="0" width="16" height="16">
71,71,71,71,71,71,71,71,71,71,71,71,71,71,71,71,
80,80,80,80,60,71,71,71,71,71,71,71,71,71,71,71,
0,0,0,0,70,71,71,71,71,71,71,71,71,71,71,71,
0,0,0,0,70,71,71,71,71,71,71,71,71,71,71,71,
0,0,0,0,70,71,71,71,71,71,71,71,71,71,71,71,
0,0,0,0,70,71,71,71,71,71,71,71,71,71,71,71,
0,0,0,0,70,71,71,71,71,71,71,71,71,71,71,71,
0,0,0,0,70,71,71,71,71,71,71,71,71,71,71,71,
0,0,0,0,70,71,71,71,71,71,71,71,71,71,71,71,
0,0,0,0,70,71,71,71,71,71,71,71,71,71,71,71,
0,0,0,0,70,71,71,71,71,71,71,71,71,71,71,71,
0,0,0,0,70,71,71,71,71,71,71,71,71,71,71,71,
0,0,0,0,70,71,71,71,71,71,71,71,71,71,71,71,
0,0,0,0,70,71,71,71,71,71,71,71,71,71,71,71,
0,0,0,0,70,71,71,71,71,71,71,71,71,71,71,71,
0,0,0,0,70,71,71,71,71,71,71,71,71,71,71,71
</chunk>
   <chunk x="0" y="16" width="16" height="16">
0,0,26,0,0,0,0,0,0,0,0,0,0,0,0,0,
0,0,26,0,0,0,0,0,0,0,0,0,0,0,0,0,
0,0,26,0,0,0,0,0,0,0,0,0,0,0,0,0,
0,0,26,0,0,0,0,0,0,0,0,0,0,0,0,0,
0,0,26,0,0,0,0,0,0,0,0,0,0,0,0,0,
0,0,26,0,0,0,0,0,0,0,0,0,0,0,0,0,
0,0,26,0,0,0,0,0,0,0,0,0,0,0,0,0,
0,0,26,0,0,0,0,0,0,0,0,0,0,0,0,0,
0,0,26,0,0,0,0,0,0,0,0,0,0,0,0,0,
0,0,0,25,25,25,61,62,62,62,62,62,62,63,0,0,
0,0,0,0,0,0,70,71,71,71,71,71,71,72,0,0,
0,0,0,0,0,0,70,71,71,71,71,71,71,72,0,0,
0,0,0,0,0,0,70,71,71,71,71,71,71,72,0,0,
0,0,0,0,0,0,70,71,71,71,71,71,71,72,0,0,
0,0,0,0,0,0,70,71,71,71,71,71,71,72,0,0,
0,0,0,0,0,0,70,71,71,71,71,71,71,72,0,0
</chunk>
   <chunk x="16" y="16" width="16" height="16">
0,0,0,0,70,71,71,71,71,72,0,0,0,0,0,0,
0,0,0,0,79,80,80,80,80,81,0,0,0,0,0,0,
0,0,0,0,0,0,0,0,0,0,0,0,0,0,0,0,
0,0,0,0,0,0,0,0,0,0,0,0,0,0,0,0,
0,0,0,0,0,0,0,0,0,0,0,0,0,0,0,0,
0,0,0,0,0,0,0,0,0,0,0,0,0,0,0,0,
0,0,0,0,0,0,0,0,0,0,0,0,0,0,0,0,
0,0,0,0,0,0,0,0,0,0,0,0,0,0,0,0,
0,0,0,0,0,0,0,0,0,0,0,0,0,0,0,0,
0,0,0,0,0,0,0,0,0,0,0,0,0,0,0,0,
0,0,0,0,0,0,0,0,0,0,0,0,0,0,0,0,
0,0,0,0,0,0,0,0,0,0,0,0,0,0,0,0,
0,0,0,0,0,0,0,0,0,0,0,0,0,0,0,0,
0,0,0,0,0,0,0,0,0,0,0,0,0,0,0,0,
0,0,0,0,0,0,0,0,0,0,0,0,0,0,0,0,
0,0,0,0,0,0,0,0,0,0,0,0,0,0,0,0
</chunk>
   <chunk x="32" y="16" width="16" height="16">
0,0,0,0,0,0,0,0,0,0,0,0,0,0,0,0,
0,0,0,0,0,0,0,0,0,0,0,0,0,0,0,0,
0,0,0,0,0,0,0,0,0,0,0,0,0,0,0,0,
0,0,0,0,0,0,0,0,0,0,0,0,0,0,0,0,
0,0,0,0,61,62,62,62,62,62,62,62,62,62,62,62,
0,0,0,0,70,71,71,71,71,71,71,71,71,71,71,71,
0,0,0,0,70,71,71,71,71,71,71,71,71,71,71,71,
0,0,0,0,70,71,71,71,71,71,71,71,71,71,71,71,
0,0,0,0,70,71,71,71,71,71,71,71,71,71,71,71,
0,0,0,0,70,71,71,71,71,71,71,71,71,71,71,71,
0,0,0,0,70,71,71,71,71,71,71,71,71,71,71,71,
0,0,0,0,70,71,71,71,71,71,71,71,71,71,71,71,
0,0,0,0,70,71,71,71,59,80,80,80,80,80,80,80,
0,0,0,0,70,71,71,71,72,0,0,0,0,0,0,0,
0,0,0,0,70,71,71,71,72,0,0,0,0,0,0,0,
0,0,0,0,70,71,71,71,72,0,0,0,0,0,0,0
</chunk>
   <chunk x="48" y="16" width="16" height="16">
0,0,0,0,0,0,0,0,0,0,0,0,0,0,0,0,
0,0,0,0,0,0,0,0,0,0,0,0,0,0,0,0,
0,0,0,0,0,0,0,0,0,0,0,0,0,0,0,0,
0,0,0,0,0,0,0,0,0,0,0,0,0,0,0,0,
62,62,62,62,62,62,62,62,62,62,62,63,0,0,25,25,
71,71,71,71,71,71,71,71,71,71,71,72,0,0,0,0,
71,71,71,71,71,71,71,71,71,71,71,72,0,0,0,0,
71,71,71,71,71,71,71,71,71,71,71,72,0,0,0,0,
71,71,71,71,71,71,71,71,71,71,71,72,0,0,0,0,
71,71,71,71,71,71,71,71,71,71,71,72,0,0,0,0,
71,71,71,71,71,71,71,71,71,71,71,72,0,0,0,0,
71,71,71,71,71,71,71,71,71,71,71,72,0,0,0,0,
80,80,80,80,80,80,60,71,71,71,71,72,0,0,0,0,
0,0,0,0,0,0,70,71,71,71,71,72,0,0,0,0,
0,0,0,0,0,0,70,71,71,71,71,72,0,0,0,0,
0,0,0,0,0,0,70,71,71,71,71,72,0,0,0,0
</chunk>
   <chunk x="64" y="16" width="16" height="16">
0,0,0,0,0,0,0,0,0,0,0,0,0,0,0,0,
0,0,0,0,0,0,0,0,0,0,0,0,0,0,0,0,
0,0,0,0,0,0,0,0,0,0,0,0,0,0,0,0,
0,0,0,0,0,0,0,0,0,0,0,0,0,0,0,0,
25,25,25,25,25,25,25,25,25,25,25,25,25,25,25,25,
0,0,0,0,0,0,0,0,0,0,0,0,0,0,0,0,
0,0,0,0,0,0,0,0,0,0,0,0,0,0,0,0,
0,0,0,0,0,0,0,0,0,0,0,0,0,0,0,0,
0,0,0,0,0,0,0,0,0,0,0,0,0,0,0,0,
0,0,0,0,0,0,0,0,0,0,0,0,0,0,0,0,
0,0,0,0,0,0,0,0,0,0,0,0,0,0,0,0,
0,0,0,0,0,0,0,0,0,0,0,0,0,0,0,0,
0,0,0,0,0,0,0,0,0,0,0,0,0,0,0,0,
0,0,0,0,0,0,0,0,0,0,0,0,0,0,0,0,
0,0,0,0,0,0,0,0,0,0,0,0,0,0,0,0,
0,0,0,0,0,0,0,0,0,0,0,0,0,0,0,0
</chunk>
   <chunk x="80" y="16" width="16" height="16">
0,0,0,0,0,0,0,0,0,0,0,0,0,0,0,0,
0,0,0,0,0,0,0,0,0,0,0,0,0,0,0,0,
0,0,0,0,0,0,0,0,0,0,0,0,0,0,0,0,
0,0,0,0,0,0,0,0,0,0,0,0,0,0,0,0,
61,62,62,62,62,62,62,62,62,62,62,63,0,0,0,0,
70,71,71,71,71,71,71,71,71,71,71,72,0,0,0,0,
70,71,71,71,71,71,71,71,71,71,71,72,0,0,0,0,
70,71,71,71,71,71,71,71,71,71,71,72,0,0,0,0,
70,71,71,71,71,71,71,71,71,71,71,72,0,0,0,0,
70,71,71,71,71,71,71,71,71,71,71,72,0,0,0,0,
70,71,71,71,71,71,71,71,71,71,71,72,0,0,0,0,
70,71,71,71,71,71,71,71,71,71,71,72,0,0,0,0,
70,71,71,71,71,71,71,71,71,71,71,72,0,0,0,0,
70,71,71,71,71,71,71,71,71,71,71,72,0,0,0,0,
70,71,71,71,71,71,71,71,71,71,71,72,0,0,0,0,
70,71,71,71,71,71,71,71,71,71,71,72,0,0,0,0
</chunk>
   <chunk x="96" y="16" width="16" height="16">
0,0,0,0,0,0,0,0,0,0,0,0,0,0,0,0,
0,0,0,0,0,0,0,0,0,0,0,0,0,0,0,0,
0,0,0,0,0,0,0,0,0,0,0,0,0,0,0,0,
0,0,0,0,0,0,0,0,0,0,0,0,0,0,0,0,
0,61,62,62,62,62,62,62,62,62,62,62,62,62,62,62,
0,70,71,71,71,71,71,71,71,71,71,71,71,71,71,71,
0,70,71,71,71,71,71,71,71,71,71,71,71,71,71,71,
0,70,71,71,71,71,71,71,71,71,71,71,71,71,71,71,
0,70,71,71,71,71,71,71,71,71,71,71,71,71,71,71,
0,70,71,71,71,71,71,71,71,71,71,71,71,71,71,71,
0,70,71,71,71,71,71,71,71,71,71,71,71,71,71,71,
0,70,71,71,71,71,71,71,71,71,71,71,71,71,71,71,
0,27,60,71,71,71,71,71,71,71,59,80,80,80,80,80,
0,0,27,60,71,71,71,71,59,84,85,0,0,0,0,0,
0,0,0,27,80,80,80,80,81,0,0,0,0,0,0,0,
0,0,0,0,0,0,0,0,0,0,0,0,0,0,0,0
</chunk>
   <chunk x="112" y="16" width="16" height="16">
0,0,0,0,0,0,0,0,0,0,0,0,0,0,0,0,
0,0,0,0,0,0,0,0,0,0,0,0,0,0,0,0,
0,0,0,0,0,0,0,0,0,0,0,0,0,0,0,0,
0,0,0,0,0,0,0,0,0,0,0,0,0,0,0,0,
62,62,62,62,62,62,62,14,15,0,0,0,0,0,0,0,
71,71,71,71,71,71,71,71,68,62,62,62,62,62,62,62,
71,71,71,71,71,71,71,71,71,71,71,71,71,71,71,71,
71,71,71,71,71,71,71,71,71,71,71,71,71,71,71,71,
71,71,71,71,71,71,71,71,71,71,71,71,71,71,71,71,
71,71,71,71,71,71,71,71,71,71,71,71,71,71,71,71,
71,71,71,71,71,71,71,71,71,71,71,71,71,71,71,71,
71,71,71,71,71,71,71,71,71,71,71,71,71,71,71,71,
80,80,80,80,80,80,80,80,80,80,60,71,71,71,71,71,
0,0,0,0,0,0,0,0,0,0,82,83,60,71,71,71,
0,0,0,0,0,0,0,0,0,0,0,0,79,80,80,80,
0,0,0,0,0,0,0,0,0,0,0,0,0,0,0,0
</chunk>
   <chunk x="128" y="16" width="16" height="16">
0,0,0,0,0,0,0,0,0,0,0,0,0,0,0,0,
0,0,0,0,0,0,0,0,0,0,0,0,0,0,0,0,
0,0,0,0,0,0,0,0,0,0,0,0,0,0,0,0,
0,0,0,0,0,0,0,0,0,0,0,0,0,0,0,0,
0,0,0,0,0,0,0,0,0,0,0,0,0,0,0,0,
62,62,62,62,62,62,62,62,62,62,62,62,62,62,62,62,
71,71,71,71,71,71,71,71,71,71,71,71,71,71,71,71,
71,71,71,71,71,71,71,71,71,71,71,71,71,71,71,71,
71,71,71,71,71,71,71,71,71,71,71,71,71,71,71,71,
71,71,71,71,71,71,71,71,71,71,71,71,71,71,71,71,
71,71,71,71,71,71,71,71,71,71,71,71,71,71,71,71,
71,71,71,71,71,71,71,71,71,71,71,71,71,71,71,71,
71,71,71,71,71,71,71,71,71,71,71,71,71,71,71,71,
71,71,71,71,71,71,71,71,71,71,71,71,71,71,71,71,
80,80,80,80,60,71,71,71,71,71,71,71,71,71,71,71,
0,0,0,0,70,71,71,71,71,71,71,71,71,71,71,71
</chunk>
   <chunk x="144" y="16" width="16" height="16">
0,0,0,0,0,0,0,0,0,0,0,0,0,0,0,0,
0,0,0,0,0,0,0,0,0,0,0,0,0,0,0,0,
0,0,0,0,0,0,0,0,0,0,0,0,0,0,0,0,
0,0,0,0,0,0,0,0,0,0,0,0,0,0,0,0,
0,0,0,0,0,0,0,0,0,0,0,12,13,62,62,62,
62,62,62,62,62,62,62,62,62,62,62,69,71,71,71,71,
71,71,71,71,71,71,71,71,71,71,71,71,71,71,71,71,
71,71,71,71,71,71,71,71,71,71,71,71,71,71,71,71,
71,71,71,71,71,71,71,71,71,71,71,71,71,71,71,71,
71,71,71,71,71,71,71,71,71,71,71,71,71,71,71,71,
71,71,71,71,71,71,71,71,71,71,71,71,71,71,71,71,
71,71,71,71,71,71,71,71,71,71,71,71,71,71,71,71,
71,71,71,71,71,71,71,71,71,71,71,71,71,71,71,71,
71,71,71,71,71,71,71,71,71,71,71,71,71,71,71,71,
71,71,71,71,71,71,71,71,71,71,71,71,71,71,71,71,
71,71,71,71,71,71,71,71,71,71,71,71,71,71,71,71
</chunk>
   <chunk x="160" y="16" width="16" height="16">
0,0,0,0,70,71,71,71,71,71,71,71,71,71,71,71,
0,0,0,0,70,71,71,71,71,71,71,71,71,71,71,71,
0,0,0,0,70,71,71,71,71,71,71,71,71,71,71,71,
0,0,0,0,70,71,71,71,71,71,71,71,71,71,71,71,
62,62,62,62,69,71,71,71,71,71,71,71,71,71,71,71,
71,71,71,71,71,71,71,71,71,71,71,71,71,71,71,71,
71,71,71,71,71,71,71,71,71,71,71,71,71,71,71,71,
71,71,71,71,71,71,71,71,71,71,71,71,71,71,71,71,
71,71,71,71,71,71,71,71,71,71,71,71,71,71,71,71,
71,71,71,71,71,71,71,71,71,71,71,71,71,71,71,71,
71,71,71,71,71,71,71,71,71,71,71,71,71,71,71,71,
71,71,71,71,71,71,71,71,71,71,71,71,71,71,71,71,
71,71,71,71,71,71,71,71,71,71,71,71,71,71,71,71,
71,71,71,71,71,71,71,71,71,71,71,71,71,71,71,71,
71,71,71,71,71,71,71,71,71,71,71,71,71,71,71,71,
71,71,71,71,71,71,71,71,71,71,71,71,71,71,71,71
</chunk>
   <chunk x="0" y="32" width="16" height="16">
0,0,0,0,0,0,70,71,71,71,71,71,71,72,0,0,
0,0,0,0,0,0,70,71,71,71,71,71,71,72,0,0,
0,0,0,0,0,0,70,71,71,71,71,71,71,72,0,0,
0,0,0,0,0,0,70,71,71,71,71,71,71,72,0,0,
0,0,0,0,0,0,70,71,71,71,71,71,71,68,62,62,
0,0,0,0,0,0,70,71,71,71,71,71,71,71,71,71,
0,0,0,0,0,0,70,71,71,71,71,71,71,71,71,71,
0,0,0,0,0,0,70,71,71,71,71,71,71,71,71,71,
0,0,0,0,0,0,27,80,80,60,71,71,71,71,71,71,
0,0,0,0,0,0,0,0,0,82,83,80,80,80,80,80,
0,0,0,0,0,0,0,0,0,0,0,0,0,0,0,0,
0,0,0,0,0,0,0,0,0,0,0,0,0,0,0,0,
0,0,0,0,0,0,0,0,0,0,0,0,0,0,0,0,
0,0,0,0,0,0,0,0,0,0,0,0,0,0,0,0,
0,0,0,0,0,0,0,0,0,0,0,0,0,0,0,0,
0,0,0,0,0,0,0,0,0,0,0,0,0,0,0,0
</chunk>
   <chunk x="16" y="32" width="16" height="16">
0,0,0,0,0,0,0,0,0,0,0,0,0,0,0,0,
0,0,0,0,0,0,0,0,0,61,62,62,62,62,62,62,
0,0,0,0,0,0,0,0,0,70,71,71,71,71,71,71,
0,0,0,0,0,0,0,0,0,70,71,71,71,71,71,71,
62,62,62,62,62,63,0,0,0,70,71,71,71,71,71,71,
71,71,71,71,71,72,0,0,0,70,71,71,71,71,71,71,
71,71,71,71,71,72,0,0,0,70,71,71,71,71,71,71,
71,71,71,71,71,72,0,0,0,70,71,71,71,71,71,71,
71,71,59,80,80,81,0,0,0,70,71,71,71,71,71,71,
80,80,81,0,0,0,0,0,0,79,80,60,71,71,71,71,
0,0,0,0,0,0,0,0,0,0,0,27,60,71,71,71,
0,0,0,0,0,0,0,0,0,0,0,0,79,60,71,71,
0,0,0,0,25,25,25,0,0,0,0,0,0,70,71,71,
0,0,0,0,0,0,0,0,0,0,0,0,0,70,71,71,
0,0,0,0,0,0,0,0,0,0,0,0,0,70,71,71,
0,0,0,0,0,0,0,0,0,0,0,0,0,70,71,71
</chunk>
   <chunk x="32" y="32" width="16" height="16">
0,0,0,0,70,71,71,71,72,0,0,0,0,0,0,0,
62,62,62,62,69,71,71,71,72,0,0,0,0,0,0,0,
71,71,71,71,71,71,71,71,72,0,0,0,0,0,0,0,
71,71,71,71,71,71,71,71,72,0,0,0,0,0,0,0,
71,71,71,71,71,71,71,71,72,0,0,0,0,0,0,0,
71,71,71,71,71,71,71,71,72,0,0,0,0,0,0,0,
71,71,71,71,71,71,71,71,72,0,0,0,0,0,0,0,
71,71,71,71,59,80,80,80,81,0,0,0,0,0,0,0,
71,71,71,71,72,0,0,0,0,0,0,0,0,0,0,0,
71,71,71,71,72,0,0,0,0,0,0,0,0,0,0,0,
71,71,71,71,72,0,0,0,0,0,0,0,0,0,0,0,
71,71,71,71,72,0,0,0,0,0,0,0,0,0,0,0,
71,71,71,71,72,0,0,0,0,0,0,0,0,0,0,0,
71,71,71,71,72,25,25,25,25,25,0,0,61,62,62,62,
71,71,71,71,72,0,0,0,0,0,0,0,70,71,71,71,
71,71,71,71,72,0,0,0,0,0,0,0,70,71,71,71
</chunk>
   <chunk x="48" y="32" width="16" height="16">
0,0,0,0,0,0,70,71,71,71,71,68,63,25,25,25,
0,0,0,0,0,0,70,71,71,71,71,71,72,0,0,0,
0,0,0,0,0,0,70,71,71,71,71,71,72,0,0,0,
0,0,0,0,0,0,70,71,71,71,71,71,72,0,0,0,
0,0,0,0,0,0,70,71,71,71,71,71,72,0,0,0,
0,0,0,0,0,0,70,71,71,71,71,71,72,0,0,0,
0,0,0,0,0,0,70,71,71,71,71,71,72,0,0,0,
0,0,0,0,0,0,70,71,71,71,71,71,72,0,0,0,
0,0,0,0,0,0,79,80,80,80,80,80,81,0,0,0,
0,0,0,0,0,0,0,0,0,0,0,0,0,0,0,0,
0,0,0,0,0,0,0,0,0,0,0,0,0,0,0,0,
0,0,0,0,0,0,0,0,0,0,0,0,0,0,0,0,
0,0,0,0,0,0,0,0,0,0,0,0,0,0,0,0,
62,62,62,62,62,62,62,62,62,62,62,62,62,62,63,0,
71,71,71,71,71,71,71,71,71,71,71,71,71,71,72,0,
71,71,71,71,71,71,71,71,71,71,71,71,71,71,72,0
</chunk>
   <chunk x="64" y="32" width="16" height="16">
25,25,25,25,25,25,25,25,25,25,0,0,0,0,0,0,
0,0,0,0,0,0,0,0,0,0,0,0,0,0,0,0,
0,0,0,0,0,0,0,0,0,0,0,0,0,0,0,0,
0,0,0,0,0,0,0,0,0,0,0,0,0,0,0,0,
0,0,0,0,0,0,0,0,0,0,0,0,0,0,0,0,
0,0,0,0,0,0,0,0,0,0,0,0,0,0,0,0,
0,0,0,0,0,0,0,0,0,0,0,0,0,0,0,0,
0,0,0,0,0,0,0,0,0,0,0,0,0,0,0,0,
0,0,0,0,0,0,0,0,0,0,0,0,0,0,0,0,
0,0,0,0,0,0,0,0,0,0,0,0,0,0,0,0,
0,0,0,0,0,0,0,0,0,0,0,0,0,0,0,0,
0,0,0,0,0,0,0,0,0,0,0,0,0,0,0,0,
0,0,0,0,0,0,0,0,0,0,0,0,0,0,0,0,
0,0,0,0,0,0,0,0,0,0,0,61,62,62,62,62,
0,0,0,0,0,0,0,0,0,0,0,70,71,71,71,71,
0,0,0,0,0,0,0,0,0,0,0,70,71,71,71,71
</chunk>
   <chunk x="80" y="32" width="16" height="16">
70,71,71,71,71,71,71,71,71,71,71,72,0,0,0,0,
27,60,71,71,71,71,71,71,71,71,71,72,0,0,0,0,
0,70,71,71,71,71,71,71,71,71,71,72,0,0,0,0,
0,70,71,71,71,71,71,71,71,71,71,68,11,0,0,0,
0,27,60,71,71,71,71,71,71,71,71,71,68,11,0,0,
0,0,70,71,71,71,71,71,71,71,71,71,71,68,11,0,
0,0,70,71,71,71,71,71,71,71,71,71,71,71,68,11,
0,0,27,60,71,71,71,71,71,71,71,71,71,71,71,68,
0,0,0,70,71,71,71,71,71,71,71,71,71,71,71,71,
0,0,0,70,71,71,71,71,71,71,71,71,71,71,71,71,
0,0,0,27,60,71,71,71,71,71,71,71,71,71,71,71,
0,0,0,0,70,71,71,71,71,71,71,71,71,71,71,71,
0,0,0,0,70,71,71,71,71,71,71,71,71,71,71,71,
63,0,0,0,70,71,71,71,71,71,71,71,71,71,71,71,
72,0,0,0,70,71,71,71,71,71,71,71,71,71,71,71,
72,0,0,0,70,71,71,71,71,71,71,71,71,71,71,71
</chunk>
   <chunk x="96" y="32" width="16" height="16">
0,0,0,0,0,0,0,0,0,0,0,0,0,0,0,0,
0,0,0,0,0,0,0,0,0,0,0,0,0,0,0,0,
0,0,0,0,0,0,0,0,0,0,0,0,0,0,0,0,
0,0,0,0,0,0,0,0,0,0,0,0,0,0,0,0,
0,0,0,0,0,0,0,0,0,0,0,0,0,0,0,0,
0,0,0,0,0,0,0,0,0,0,0,0,0,0,0,0,
0,0,0,0,0,0,0,0,0,0,0,0,0,0,0,0,
62,62,62,62,62,62,62,62,11,0,0,0,0,0,0,0,
71,71,71,71,71,71,71,71,68,14,15,0,0,0,0,0,
71,71,71,71,71,71,71,71,71,71,68,62,62,62,62,62,
71,71,71,71,71,71,71,71,71,71,71,71,71,71,71,71,
71,71,71,71,71,71,71,71,71,71,71,71,71,71,71,71,
71,71,71,71,71,71,71,71,71,71,71,71,71,71,71,71,
71,71,71,71,71,71,71,71,71,71,71,71,71,71,71,71,
71,71,71,71,71,71,71,71,71,71,71,71,71,71,71,71,
71,71,71,71,71,71,71,71,71,71,71,71,71,71,71,71
</chunk>
   <chunk x="112" y="32" width="16" height="16">
0,0,0,0,0,0,0,0,0,0,0,0,0,0,0,0,
0,0,0,0,0,0,0,0,0,0,0,0,0,0,0,0,
0,0,0,0,0,0,0,0,0,0,0,0,0,0,0,0,
0,0,0,0,0,0,0,0,0,0,0,0,0,0,0,0,
0,0,0,0,0,0,0,0,0,0,0,0,0,0,0,0,
0,0,0,0,0,0,0,0,0,0,0,0,0,0,0,0,
0,0,0,0,0,0,0,0,0,0,0,0,0,0,0,0,
0,0,0,0,0,0,0,0,0,0,0,0,10,62,62,62,
0,0,0,0,0,0,0,0,0,0,12,13,69,71,71,71,
62,62,62,62,62,62,62,62,62,62,69,71,71,71,71,71,
71,71,71,71,71,71,71,71,71,71,71,71,71,71,71,71,
71,71,71,71,71,71,71,71,71,71,71,71,71,71,71,71,
71,71,71,71,71,71,71,71,71,71,71,71,71,71,71,71,
71,71,71,71,71,71,71,71,71,71,71,71,71,71,71,71,
71,71,71,71,71,71,71,71,71,71,71,71,71,71,71,71,
71,71,71,71,71,71,71,71,71,71,71,71,71,71,71,71
</chunk>
   <chunk x="128" y="32" width="16" height="16">
0,0,0,0,27,80,80,80,80,80,80,80,80,80,80,80,
0,0,0,0,0,0,0,0,0,0,0,0,0,0,0,0,
0,0,0,0,0,0,0,0,0,0,0,0,0,0,0,0,
0,0,0,0,0,0,0,0,0,0,0,0,0,0,0,0,
0,0,0,0,0,0,0,0,0,0,0,0,0,0,0,0,
0,0,0,0,0,0,0,0,0,0,0,0,0,0,0,0,
0,0,0,0,0,0,0,0,0,0,0,0,0,0,0,0,
62,62,62,62,62,62,62,62,62,62,62,62,62,62,62,62,
71,71,71,71,71,71,71,71,71,71,71,71,71,71,71,71,
71,71,71,71,71,71,71,71,71,71,71,71,71,71,71,71,
71,71,71,71,71,71,71,71,71,71,71,71,71,71,71,71,
71,71,71,71,71,71,71,71,71,71,71,71,71,71,71,71,
71,71,71,71,71,71,71,71,71,71,71,71,71,71,71,71,
71,71,71,71,71,71,71,71,71,71,71,71,71,71,71,71,
71,71,71,71,71,71,71,71,71,71,71,71,71,71,71,71,
71,71,71,71,71,71,71,71,71,71,71,71,71,71,71,71
</chunk>
   <chunk x="144" y="32" width="16" height="16">
80,80,80,80,80,80,80,80,60,71,71,71,71,71,71,71,
0,0,0,0,0,0,0,0,70,71,71,71,71,71,71,71,
0,0,0,0,0,0,0,0,70,71,71,71,71,71,71,71,
0,0,0,0,0,0,0,0,70,71,71,71,71,71,71,71,
0,0,0,0,0,0,0,0,70,71,71,71,71,71,71,71,
0,0,0,0,0,0,0,0,70,71,71,71,71,71,71,71,
0,0,0,0,0,0,0,0,70,71,71,71,71,71,71,71,
62,62,63,0,0,0,0,0,70,71,71,71,71,71,71,71,
71,71,72,0,0,0,0,0,70,71,71,71,71,71,71,71,
71,71,72,0,0,0,0,0,70,71,71,71,71,71,71,71,
71,71,72,0,0,0,0,0,70,71,71,71,71,71,71,71,
71,71,72,0,0,0,0,0,70,71,71,71,71,71,71,71,
71,71,72,0,0,0,0,0,70,71,71,71,71,71,71,71,
71,71,72,0,0,0,0,0,70,71,71,71,71,71,71,71,
71,71,72,0,0,0,0,0,70,71,71,71,71,71,71,71,
71,71,72,0,0,0,0,0,70,71,71,71,71,71,71,71
</chunk>
   <chunk x="160" y="32" width="16" height="16">
71,71,71,71,71,71,71,71,71,71,71,71,71,71,71,71,
71,71,71,71,71,71,71,71,71,71,71,71,71,71,71,71,
71,71,71,71,71,71,71,71,71,71,71,71,71,71,71,71,
71,71,71,71,71,71,71,71,71,71,71,71,71,71,71,71,
71,71,71,71,71,71,71,71,71,71,71,71,71,71,71,71,
71,71,71,71,71,71,71,71,71,59,80,80,80,80,80,80,
71,71,71,71,71,71,71,71,71,72,0,0,0,0,0,0,
71,71,71,71,71,71,71,71,71,72,0,0,0,0,0,0,
71,71,71,71,71,71,71,71,71,72,0,0,0,0,0,0,
71,71,71,71,71,71,71,71,71,72,0,0,0,0,0,0,
71,71,71,71,71,71,71,71,71,72,0,0,0,0,0,0,
71,71,71,71,71,71,71,71,71,72,0,0,0,0,0,0,
71,71,71,71,71,71,71,71,71,72,0,0,0,0,0,0,
71,71,71,71,71,71,71,71,71,72,0,0,0,0,0,0,
71,71,71,71,71,71,71,71,71,72,0,0,0,0,0,0,
71,71,71,71,71,71,71,71,71,72,0,0,0,0,0,0
</chunk>
   <chunk x="0" y="48" width="16" height="16">
0,0,0,0,0,0,0,0,0,0,0,0,0,0,0,0,
0,0,0,0,0,0,0,0,0,0,0,0,0,0,0,0,
0,0,0,0,0,0,0,0,0,0,0,0,0,0,0,0,
0,0,0,0,0,0,0,0,0,0,0,0,0,0,0,0,
0,0,0,0,0,0,0,0,0,0,0,0,0,0,0,0,
0,0,0,0,0,0,0,0,0,0,0,0,0,0,0,0,
0,0,0,0,0,0,0,0,0,0,0,0,0,0,0,0,
0,0,0,0,0,0,0,0,0,0,0,0,0,0,0,0,
0,0,0,0,0,0,0,0,0,4,0,0,0,0,0,0,
0,0,0,0,0,0,0,0,0,0,0,0,0,0,0,0,
0,0,0,0,0,0,0,0,0,0,0,0,0,0,0,0,
0,0,0,0,0,0,0,0,0,0,0,0,0,0,0,0,
0,0,0,0,0,0,0,0,0,0,0,0,0,0,0,0,
0,0,0,0,0,0,0,0,0,0,0,0,0,0,0,0,
0,0,0,0,0,0,0,0,0,0,0,0,0,0,0,0,
0,0,0,0,0,0,0,0,0,0,0,0,0,0,0,0
</chunk>
   <chunk x="16" y="48" width="16" height="16">
0,0,0,0,0,0,0,0,0,0,0,0,0,70,71,71,
0,0,0,0,0,0,0,0,0,0,0,0,0,70,71,71,
0,0,0,0,0,0,0,0,0,0,0,0,0,70,71,71,
0,0,0,0,0,0,0,0,0,0,0,0,0,70,71,71,
0,0,0,0,0,61,62,62,62,62,62,62,62,69,71,71,
0,0,0,0,0,70,71,71,71,71,71,71,71,71,71,71,
0,0,0,0,0,70,71,71,71,71,71,71,71,71,71,71,
0,0,0,0,0,70,71,71,71,71,71,71,71,71,71,71,
0,0,0,0,0,70,71,71,71,71,71,71,71,71,71,71,
0,0,0,0,0,79,80,80,80,80,80,80,80,60,71,71,
0,0,0,0,0,0,0,0,0,0,0,0,0,70,71,71,
0,0,0,0,0,0,0,0,0,0,0,0,0,79,80,80,
0,0,0,0,0,0,0,0,0,0,0,0,0,0,0,0,
0,0,0,0,0,0,0,0,0,0,0,0,0,0,0,0,
0,0,0,0,0,0,0,0,0,0,0,0,0,0,0,0,
0,0,0,0,0,0,0,0,0,0,0,0,0,0,0,0
</chunk>
   <chunk x="32" y="48" width="16" height="16">
71,71,71,71,72,0,0,0,0,0,0,0,79,80,80,80,
71,71,71,71,72,0,0,0,0,0,0,0,0,0,0,0,
71,71,71,71,72,0,0,0,0,0,0,0,0,0,0,0,
71,71,71,71,72,0,0,0,0,0,0,0,0,0,0,0,
71,71,71,71,72,0,0,0,0,0,0,0,0,0,0,0,
71,71,71,71,72,0,0,0,0,0,25,25,0,0,0,0,
71,71,71,71,72,0,0,0,0,0,0,0,0,0,0,0,
71,71,71,71,72,0,0,0,0,0,0,0,0,0,0,0,
71,71,71,71,72,0,0,0,0,0,0,0,0,0,0,0,
71,71,71,71,72,0,0,0,0,0,0,0,0,0,0,0,
71,71,71,71,72,0,0,0,0,0,0,0,0,0,0,0,
80,80,80,80,81,0,0,0,0,0,0,0,0,0,0,0,
0,0,0,0,0,0,0,0,0,0,0,0,0,0,0,0,
0,0,0,0,0,0,0,0,0,0,0,0,0,0,0,0,
0,0,0,0,0,0,0,0,0,0,0,0,0,0,0,0,
0,0,0,0,0,0,0,0,0,0,0,0,0,0,0,0
</chunk>
   <chunk x="48" y="48" width="16" height="16">
80,80,80,80,80,80,60,71,71,71,71,71,71,71,68,63,
0,0,0,0,0,0,70,71,71,71,71,71,71,71,71,72,
0,0,0,0,0,0,70,71,71,71,71,71,71,71,71,72,
0,0,0,0,0,0,70,71,71,71,71,71,71,71,71,68,
0,0,0,0,0,0,70,71,71,71,71,71,71,71,71,71,
0,0,0,0,0,0,70,71,71,71,71,71,71,71,71,71,
0,0,0,0,0,0,70,71,71,71,71,71,71,71,71,71,
0,0,0,0,0,0,70,71,71,71,71,71,71,71,71,71,
0,0,0,0,0,0,70,71,71,71,71,71,71,71,71,71,
0,0,0,0,0,0,70,71,71,71,71,71,71,71,71,71,
0,0,0,0,0,0,70,71,71,71,71,71,71,71,71,71,
0,0,0,0,0,0,79,80,80,80,80,80,80,80,80,80,
0,0,0,0,0,0,0,0,0,0,0,0,0,0,0,0,
0,0,0,0,0,0,0,0,0,0,0,0,0,0,0,0,
0,0,0,0,0,0,0,0,0,0,0,0,0,0,0,0,
0,0,0,0,0,0,0,0,0,0,0,0,0,0,0,0
</chunk>
   <chunk x="64" y="48" width="16" height="16">
0,0,0,0,0,0,0,0,0,0,0,70,71,71,71,71,
0,0,0,0,0,0,0,0,0,0,0,70,71,71,71,71,
0,0,0,0,0,0,0,0,0,0,0,70,71,71,71,71,
11,0,0,0,0,0,0,0,0,0,0,79,80,80,80,80,
72,0,0,0,0,0,0,0,0,0,0,0,0,0,0,0,
72,0,0,0,0,0,0,0,0,0,0,0,0,0,0,0,
68,63,25,25,25,0,0,0,0,0,0,0,0,0,0,0,
71,72,0,0,0,0,0,0,0,0,0,0,0,0,0,0,
71,72,0,0,0,0,0,0,0,0,0,0,0,0,0,0,
71,72,0,0,0,0,0,0,0,0,0,0,0,0,0,0,
71,72,0,0,0,0,0,0,0,0,0,0,0,0,0,0,
80,81,0,0,0,0,0,0,0,0,0,0,0,0,0,0,
0,0,0,0,0,0,0,0,0,0,0,0,0,0,0,0,
0,0,0,0,0,0,0,0,0,0,0,0,0,0,0,0,
0,0,0,0,0,0,0,0,0,0,0,0,0,0,0,0,
0,0,0,0,0,0,0,0,0,0,0,0,0,0,0,0
</chunk>
   <chunk x="80" y="48" width="16" height="16">
72,0,0,0,70,71,71,71,71,71,71,71,71,71,71,71,
72,0,0,0,70,71,71,71,71,71,71,71,71,71,71,71,
72,0,0,0,70,71,71,71,71,71,71,71,71,71,71,71,
81,0,0,0,70,71,71,71,71,71,71,71,71,71,71,71,
0,0,0,0,70,71,71,71,71,71,71,71,71,71,71,71,
0,0,0,0,70,71,71,71,71,71,71,71,71,71,71,71,
0,0,0,0,70,71,71,71,71,71,71,71,71,71,71,71,
0,0,0,0,70,71,71,71,71,71,71,71,71,71,71,71,
0,0,0,0,70,71,71,71,71,71,71,71,71,71,71,71,
0,0,0,0,70,71,71,71,71,71,71,71,71,71,71,71,
0,0,0,0,70,71,71,71,71,71,71,71,59,80,80,80,
0,0,0,0,70,71,71,71,71,71,71,59,18,0,0,0,
0,0,0,0,70,71,71,71,71,71,59,18,0,0,0,0,
0,0,0,0,70,71,71,71,71,71,72,0,0,0,0,0,
0,0,0,0,70,71,71,71,71,71,72,0,0,0,0,0,
0,0,0,0,70,71,71,71,71,71,72,0,0,0,0,0
</chunk>
   <chunk x="96" y="48" width="16" height="16">
71,71,71,71,71,71,71,71,71,71,71,71,71,71,71,71,
71,71,71,71,71,71,71,71,71,71,71,71,71,71,71,71,
71,71,71,71,71,71,71,71,71,71,71,71,71,71,71,71,
71,71,71,71,71,71,71,71,71,71,71,71,71,71,71,71,
71,71,71,71,71,71,71,71,71,71,71,71,71,71,71,71,
71,71,71,71,71,71,71,71,71,71,71,71,71,71,71,71,
71,71,71,71,71,71,71,71,71,71,71,71,71,71,71,71,
71,71,71,71,71,71,71,71,71,71,71,71,71,71,71,71,
71,71,71,71,71,71,71,71,71,71,71,71,71,71,71,71,
71,71,71,71,71,71,71,71,71,71,71,71,71,71,71,71,
80,80,80,80,80,80,80,80,80,80,80,80,80,80,80,80,
0,0,0,0,0,0,0,0,0,0,0,0,0,0,0,0,
0,0,0,0,0,0,0,0,0,0,0,0,0,0,0,0,
0,0,0,0,0,0,0,0,0,0,0,0,0,0,0,0,
0,0,0,0,0,0,0,0,0,0,0,0,0,0,0,0,
0,0,0,0,0,0,0,0,0,0,0,0,0,0,0,0
</chunk>
   <chunk x="112" y="48" width="16" height="16">
71,71,71,71,71,71,71,71,71,71,71,71,71,71,71,71,
71,71,71,71,71,71,71,71,71,71,71,71,71,71,59,80,
71,71,71,71,71,71,71,71,71,71,71,71,71,59,18,0,
71,71,71,71,71,71,71,71,71,71,71,71,59,18,0,0,
71,71,71,71,71,71,71,71,71,71,71,71,72,0,0,0,
71,71,71,71,71,71,71,71,71,71,71,71,72,0,0,0,
71,71,71,71,71,71,71,71,71,71,71,71,72,0,0,0,
71,71,71,71,71,71,71,71,71,71,71,71,72,0,0,0,
71,71,71,71,71,71,71,71,71,71,71,71,72,0,0,0,
71,71,71,71,71,71,71,71,71,71,71,71,72,0,0,0,
80,60,71,71,71,71,71,71,71,71,71,71,72,0,0,0,
0,27,60,71,71,71,71,71,71,71,71,71,72,0,0,0,
0,0,27,60,71,71,71,71,71,71,71,71,72,0,0,0,
0,0,0,70,71,71,71,71,71,71,71,71,72,0,0,0,
0,0,0,70,71,71,71,71,71,71,71,71,72,0,0,0,
0,0,0,70,71,71,71,71,71,71,71,71,72,0,0,0
</chunk>
   <chunk x="128" y="48" width="16" height="16">
71,71,71,71,71,71,71,71,71,71,71,71,71,71,71,71,
80,80,80,80,80,80,80,80,80,80,80,80,80,80,80,80,
0,0,0,0,0,0,0,0,0,0,0,0,0,0,0,0,
0,0,0,0,0,0,0,0,0,0,0,0,0,0,0,0,
0,0,0,0,0,0,0,0,0,0,0,0,0,0,0,0,
0,0,0,0,0,0,0,0,0,0,0,0,0,0,0,0,
0,0,0,0,0,0,0,0,0,0,0,0,0,0,0,0,
0,0,0,0,0,0,0,0,0,0,0,0,0,0,0,0,
0,0,0,0,0,0,0,0,0,0,0,0,0,0,0,0,
0,0,0,0,0,0,0,0,0,0,0,0,0,0,0,0,
0,0,0,0,0,0,0,0,0,0,0,0,0,0,0,0,
0,0,0,0,0,0,0,0,0,0,0,0,0,0,0,0,
0,0,0,0,0,0,0,0,0,0,61,62,62,62,62,62,
0,0,0,0,0,0,0,0,0,0,70,71,71,71,71,71,
0,0,0,0,0,0,0,0,0,0,70,71,71,71,71,71,
0,0,0,0,0,0,0,0,0,0,70,71,71,71,71,71
</chunk>
   <chunk x="144" y="48" width="16" height="16">
71,71,72,0,0,0,0,0,70,71,71,71,71,71,71,71,
80,80,81,0,0,0,0,0,70,71,71,71,71,71,71,71,
0,0,0,0,0,0,0,0,70,71,71,71,71,71,71,71,
0,0,0,0,0,0,0,0,79,60,71,71,71,71,71,71,
0,0,0,0,0,0,0,0,0,27,60,71,71,71,71,71,
0,0,0,0,0,0,0,0,0,0,27,80,80,80,80,80,
0,0,0,0,0,0,0,0,0,0,0,0,0,0,0,0,
0,0,0,0,0,0,0,0,0,0,0,0,0,0,0,0,
0,0,0,0,0,0,0,0,0,0,0,0,0,0,0,0,
0,0,0,0,0,0,0,0,0,0,0,0,0,0,0,0,
0,0,0,0,0,0,0,0,0,0,0,0,0,0,0,0,
0,0,0,0,0,0,0,0,0,0,0,0,0,0,0,0,
62,62,63,0,0,0,0,0,0,0,0,0,0,0,0,0,
71,71,72,0,0,0,0,0,0,0,0,0,0,0,0,0,
71,71,72,0,0,0,0,0,0,0,0,0,0,0,0,0,
71,71,72,0,0,0,0,0,0,0,0,0,0,0,0,0
</chunk>
   <chunk x="160" y="48" width="16" height="16">
71,71,71,71,71,71,71,71,71,72,0,0,0,0,0,0,
71,71,71,71,71,71,71,71,71,72,0,0,0,0,0,0,
71,71,71,71,71,71,71,71,71,72,0,0,0,0,0,0,
71,71,71,71,71,71,71,71,71,72,0,0,0,0,0,0,
71,71,71,71,71,71,71,71,71,72,0,0,0,0,0,0,
80,80,80,80,80,80,80,80,80,81,0,0,0,0,0,0,
0,0,0,0,0,0,0,0,0,0,0,0,0,0,0,0,
0,0,0,0,0,0,0,0,0,0,0,0,0,0,0,0,
0,0,0,0,0,0,0,0,0,0,0,0,0,0,0,0,
0,0,0,0,0,0,0,0,0,0,0,0,0,0,0,0,
0,0,0,0,0,0,0,0,0,0,0,0,0,0,0,0,
0,0,0,0,0,0,0,0,0,0,0,0,0,0,0,0,
0,0,0,0,0,0,0,0,0,0,0,0,0,0,0,0,
0,0,0,0,0,0,0,0,0,0,0,0,0,0,0,0,
0,0,61,62,62,62,62,63,0,0,0,0,0,0,0,0,
0,0,70,71,71,71,71,72,0,0,0,0,0,0,0,0
</chunk>
   <chunk x="0" y="64" width="16" height="16">
0,0,0,0,0,0,0,0,0,0,0,0,0,0,0,0,
0,0,0,0,0,0,0,0,0,0,0,0,0,0,0,0,
0,0,0,0,0,0,0,0,0,0,0,0,0,0,0,10,
0,0,0,0,0,0,0,0,0,0,0,0,0,0,10,69,
0,0,0,0,0,0,0,0,0,0,0,0,0,0,70,71,
0,0,0,0,0,0,0,0,0,0,0,0,0,0,70,71,
0,0,0,0,0,0,0,0,0,0,0,0,0,0,70,71,
0,0,0,0,0,0,0,0,0,0,0,0,0,0,70,71,
0,0,0,0,0,0,0,0,0,0,0,0,0,0,79,60,
0,0,0,0,0,0,0,0,0,0,0,0,0,0,0,27,
0,0,0,0,0,0,0,0,0,0,0,0,0,0,0,0,
0,0,0,0,0,0,0,0,0,0,0,0,0,0,0,0,
0,0,0,0,0,0,0,0,0,0,0,0,0,0,0,0,
0,0,0,0,0,0,0,0,0,0,0,0,0,0,0,0,
0,0,0,0,0,0,0,0,0,0,0,0,0,0,0,0,
0,0,0,0,0,0,61,62,62,62,62,62,62,62,62,62
</chunk>
   <chunk x="16" y="64" width="16" height="16">
0,0,0,0,0,0,0,0,0,0,0,0,0,0,0,0,
10,62,62,62,62,62,62,62,62,62,62,62,62,62,62,62,
69,71,71,71,71,71,71,71,71,71,71,71,71,71,71,71,
71,71,71,71,71,71,71,71,71,71,71,71,71,71,71,71,
71,71,71,71,71,71,71,71,71,71,71,71,71,71,71,71,
71,71,71,71,71,71,71,71,71,71,71,71,71,71,71,71,
71,71,71,71,71,71,71,71,71,71,71,71,71,71,71,71,
71,71,71,71,71,71,71,71,71,71,71,71,71,71,71,71,
71,71,71,71,71,71,71,71,71,71,71,71,71,71,71,71,
60,71,71,71,71,71,71,71,71,71,71,71,71,71,71,71,
27,80,80,80,80,80,80,80,80,80,80,80,60,71,71,71,
0,0,0,0,0,0,0,0,0,0,0,0,70,71,71,71,
0,0,0,0,0,0,0,0,0,0,0,0,70,71,71,71,
0,0,0,0,0,0,0,0,0,0,0,0,70,71,71,71,
0,0,0,0,0,0,0,0,0,0,0,0,70,71,71,71,
62,62,14,15,0,0,0,0,0,0,0,0,70,71,71,71
</chunk>
   <chunk x="32" y="64" width="16" height="16">
0,0,0,0,0,0,0,0,0,0,0,0,0,0,0,0,
62,62,62,62,62,62,62,62,62,62,62,62,62,62,62,62,
71,71,71,71,71,71,71,71,71,71,71,71,71,71,71,71,
71,71,71,71,71,71,71,71,71,71,71,71,71,71,71,71,
71,71,71,71,71,71,71,71,71,71,71,71,71,71,71,71,
71,71,71,71,71,71,71,71,71,71,71,71,71,71,71,71,
71,71,71,71,71,71,71,71,71,71,71,71,71,71,71,71,
71,71,71,71,71,71,71,71,71,71,71,71,71,71,71,71,
71,71,71,71,71,71,71,71,71,71,71,71,71,71,71,71,
71,71,71,71,71,71,71,71,71,71,71,71,71,71,71,71,
71,71,71,71,71,71,71,71,71,71,71,71,71,71,71,71,
71,71,71,71,71,71,71,71,71,71,71,71,71,71,71,71,
71,71,71,71,71,71,71,71,71,71,71,71,71,71,71,71,
71,71,71,71,71,71,71,71,71,71,71,71,71,71,71,71,
71,71,71,71,71,71,71,71,71,71,71,71,71,71,71,71,
71,71,71,71,71,71,71,71,71,71,71,71,71,71,71,71
</chunk>
   <chunk x="48" y="64" width="16" height="16">
0,0,0,0,0,0,0,0,0,0,0,0,0,0,0,0,
62,62,62,62,62,62,62,62,62,62,62,62,62,62,62,62,
71,71,71,71,71,71,71,71,71,71,71,71,71,71,71,71,
71,71,71,71,71,71,71,71,71,71,71,71,71,71,71,71,
71,71,71,71,71,71,71,71,71,71,71,71,71,71,71,71,
71,71,71,71,71,71,71,71,71,71,71,71,71,71,71,71,
71,71,71,71,71,71,71,71,71,71,71,71,71,71,71,71,
71,71,71,71,71,71,71,71,71,71,71,71,71,71,71,71,
71,71,71,71,71,71,71,71,71,71,71,71,71,71,71,71,
71,71,71,71,71,71,71,71,71,71,71,71,71,71,71,71,
71,71,71,71,71,71,71,71,71,71,71,71,71,71,71,71,
71,71,71,71,71,71,71,71,71,71,71,71,71,71,71,71,
71,71,71,71,71,71,71,71,71,71,71,71,71,71,71,71,
71,71,71,71,71,71,71,71,71,71,71,71,71,71,71,71,
71,71,71,71,71,71,71,71,71,71,71,71,71,71,71,71,
71,71,71,71,71,71,71,71,71,71,71,71,71,71,71,71
</chunk>
   <chunk x="64" y="64" width="16" height="16">
0,0,0,0,0,0,0,0,0,0,0,0,0,0,0,0,
62,63,25,25,25,25,25,25,25,25,25,0,0,25,25,25,
71,72,0,0,0,0,0,0,0,0,0,0,0,0,0,0,
71,72,0,0,0,0,0,0,0,0,0,0,0,0,0,0,
71,72,0,0,0,0,0,0,0,0,0,0,0,0,0,0,
71,72,0,0,0,0,0,0,0,0,0,0,0,0,0,0,
71,72,0,0,0,0,0,0,0,0,0,0,0,0,0,0,
71,72,0,0,0,0,0,0,0,0,0,0,0,0,0,0,
71,72,0,0,0,0,0,0,0,0,0,0,0,0,0,0,
71,72,0,0,0,0,0,0,0,0,0,0,0,0,0,0,
71,72,0,0,0,0,0,0,0,0,0,0,0,0,0,0,
71,72,0,0,0,0,0,0,0,0,0,0,0,0,0,0,
71,72,0,0,0,0,0,0,0,0,0,0,0,0,0,0,
71,72,25,25,25,25,25,25,25,25,25,25,25,25,25,25,
71,72,0,0,0,0,0,0,0,0,0,0,0,0,0,0,
71,72,0,0,0,0,0,0,0,0,0,0,0,0,0,0
</chunk>
   <chunk x="80" y="64" width="16" height="16">
0,0,0,0,70,71,71,71,71,71,72,0,0,0,0,0,
25,25,25,25,70,71,71,71,71,71,72,0,0,0,0,0,
0,0,0,0,70,71,71,71,71,71,68,62,62,62,62,62,
0,0,0,0,70,71,71,71,71,71,71,71,71,71,71,71,
0,0,0,0,70,71,71,71,71,71,71,71,71,71,71,71,
0,0,0,0,70,71,71,71,71,71,71,71,71,71,71,71,
0,0,0,0,70,71,71,71,71,71,71,71,71,71,71,71,
0,0,0,0,70,71,71,71,71,71,71,71,71,71,71,71,
0,0,0,0,70,71,71,71,71,71,59,80,80,80,80,80,
0,0,0,0,70,71,71,71,71,71,72,0,0,0,0,0,
0,0,0,0,70,71,71,71,71,71,72,0,0,0,0,0,
0,0,0,0,70,71,71,71,71,71,72,0,0,0,0,0,
0,0,0,0,70,71,71,71,71,71,72,0,0,0,0,0,
0,0,0,0,70,71,71,71,71,71,72,0,0,0,0,0,
0,0,0,0,70,71,71,71,71,71,72,0,0,0,0,0,
0,0,0,0,70,71,71,71,71,71,72,0,0,0,0,0
</chunk>
   <chunk x="96" y="64" width="16" height="16">
0,0,0,0,0,0,0,0,0,0,0,0,0,0,0,0,
0,0,0,0,0,0,0,0,0,0,0,0,0,0,0,0,
63,0,0,0,0,0,0,0,0,0,0,0,0,0,0,61,
72,0,0,0,0,0,0,0,0,0,0,0,0,0,0,70,
72,0,0,0,0,0,0,0,0,0,0,0,0,0,0,70,
72,0,0,0,0,0,0,0,0,0,0,0,0,0,0,70,
72,0,0,0,0,0,0,0,0,0,0,0,0,0,0,70,
72,0,0,0,0,0,0,0,0,0,0,0,0,0,0,70,
81,0,0,0,0,0,0,0,0,0,0,0,0,0,0,70,
0,0,0,0,0,0,0,4,0,0,0,0,0,0,0,70,
0,0,0,0,0,0,0,0,0,0,0,0,0,0,0,79,
0,0,0,0,0,0,0,0,0,0,0,0,0,0,0,0,
0,0,0,0,0,0,0,0,0,0,0,0,0,0,0,0,
0,0,0,0,0,0,0,0,0,0,0,0,0,0,0,0,
0,0,0,0,0,0,0,0,0,0,0,0,0,25,25,25,
0,0,0,0,0,0,0,0,0,0,0,0,0,0,0,0
</chunk>
   <chunk x="112" y="64" width="16" height="16">
0,0,0,70,71,71,71,71,71,71,71,71,72,0,0,0,
0,0,0,70,71,71,71,71,71,71,71,71,72,0,0,0,
62,62,62,69,71,71,71,71,71,71,71,71,72,0,0,0,
71,71,71,71,71,71,71,71,71,71,71,71,72,0,0,0,
71,71,71,71,71,71,71,71,71,71,71,71,72,0,0,0,
71,71,71,71,71,71,71,71,71,71,71,71,72,0,0,0,
71,71,71,71,71,71,71,71,71,71,71,71,72,0,0,0,
71,71,71,71,71,71,71,71,71,71,71,71,72,0,0,0,
71,71,71,71,71,71,71,71,71,71,71,71,68,11,0,0,
71,71,71,71,71,71,71,71,71,71,71,71,71,68,11,0,
80,80,80,60,71,71,71,71,71,71,71,71,71,71,68,62,
0,0,0,70,71,71,71,71,71,71,71,71,71,71,71,71,
0,0,0,70,71,71,71,71,71,71,71,71,71,71,71,71,
0,0,0,70,71,71,71,71,71,71,71,71,71,71,71,71,
25,25,25,70,71,71,71,71,71,71,71,71,71,71,71,71,
0,0,0,27,60,71,71,71,71,71,71,71,71,71,71,71
</chunk>
   <chunk x="128" y="64" width="16" height="16">
0,0,0,0,0,0,0,0,0,0,70,71,71,71,71,71,
0,0,0,0,0,0,0,0,0,0,79,80,80,80,80,80,
0,0,0,0,0,0,0,0,0,0,0,0,0,0,0,0,
0,0,0,0,0,0,0,0,0,0,0,0,0,0,0,0,
0,0,0,0,0,0,0,0,0,0,0,0,0,0,0,0,
0,0,0,0,0,0,0,0,0,0,0,0,0,0,0,0,
0,0,0,0,0,0,0,0,0,0,0,0,0,0,0,0,
0,0,0,0,0,0,0,0,0,0,0,0,0,0,0,0,
0,0,0,0,0,0,0,0,0,0,0,0,0,0,0,0,
0,0,0,0,0,0,0,0,0,0,0,0,0,0,0,0,
62,62,62,62,62,62,62,62,62,62,62,62,62,62,62,62,
71,71,71,71,71,71,71,71,71,71,71,71,71,71,71,71,
71,71,71,71,71,71,71,71,71,71,71,71,71,71,71,71,
71,71,71,71,71,71,71,71,71,71,71,71,71,71,71,71,
71,71,71,71,71,71,71,71,71,71,71,71,71,71,71,71,
71,71,71,71,71,71,71,71,71,71,71,71,71,71,71,71
</chunk>
   <chunk x="144" y="64" width="16" height="16">
71,71,72,0,0,0,0,0,0,0,0,0,0,0,0,0,
80,80,81,0,0,0,0,0,0,0,0,0,0,0,0,0,
0,0,0,0,0,0,0,0,0,0,0,0,0,0,0,0,
0,0,0,0,0,0,0,0,0,0,0,0,0,0,0,0,
0,0,0,0,0,0,0,0,0,0,0,0,0,0,0,0,
0,0,0,0,0,0,0,0,0,0,0,0,0,0,0,0,
0,0,0,0,0,0,0,0,0,0,0,0,0,0,0,0,
0,0,0,0,0,0,0,0,0,0,0,0,0,0,0,0,
0,0,0,0,0,0,0,0,0,0,0,0,0,0,0,0,
0,0,0,0,0,0,0,0,0,0,0,0,0,0,0,25,
62,62,62,62,62,62,62,62,62,62,62,63,0,0,0,0,
71,71,71,71,71,71,71,71,71,71,71,72,0,0,0,0,
71,71,71,71,71,71,71,71,71,71,71,72,0,0,0,0,
71,71,71,71,71,71,71,71,71,71,71,72,0,0,0,0,
71,71,71,71,71,71,71,71,71,71,71,72,0,0,0,0,
71,71,71,71,71,71,71,71,71,71,71,72,0,0,0,0
</chunk>
   <chunk x="160" y="64" width="16" height="16">
0,0,70,71,71,71,71,72,0,0,0,0,0,0,0,0,
0,0,70,71,71,71,71,72,0,0,0,0,0,0,0,0,
0,0,70,71,71,71,71,72,0,0,0,0,0,0,0,0,
0,0,70,71,71,71,71,72,0,0,0,0,0,0,0,0,
0,0,70,71,71,71,71,72,0,0,0,0,0,0,0,0,
0,0,70,71,71,71,71,72,0,0,0,0,0,0,0,0,
0,0,70,71,71,71,71,72,0,0,0,0,0,0,0,0,
0,0,70,71,71,71,71,72,0,0,0,0,0,0,0,0,
0,0,70,71,71,71,71,72,0,0,0,0,0,0,0,0,
25,0,79,80,80,80,80,81,0,0,0,0,0,0,0,0,
0,0,0,0,0,0,0,0,0,0,0,0,0,0,0,0,
0,0,0,0,0,0,0,0,0,0,0,0,0,0,0,0,
0,0,0,0,0,0,0,0,0,0,0,0,0,0,0,0,
0,0,0,0,0,0,0,0,0,0,0,0,0,0,0,0,
0,0,0,0,0,0,0,0,0,0,0,0,0,0,0,0,
0,0,0,0,0,0,0,0,0,0,0,0,0,0,0,0
</chunk>
   <chunk x="0" y="80" width="16" height="16">
0,0,0,0,0,0,70,71,71,71,71,71,71,71,71,71,
0,0,0,0,0,0,70,71,71,71,71,71,71,71,71,71,
0,0,0,0,0,0,70,71,71,71,71,71,71,71,71,71,
0,0,0,0,0,0,70,71,71,71,71,71,71,71,71,71,
0,0,0,0,0,0,70,71,71,71,71,71,71,71,71,71,
0,0,0,0,0,0,70,71,71,71,71,71,71,71,71,71,
0,0,0,0,0,0,70,71,71,71,71,71,71,71,71,71,
0,0,0,0,0,0,70,71,71,71,71,71,71,71,71,71,
0,0,0,0,0,0,70,71,71,71,71,71,71,71,71,71,
0,0,0,0,0,0,70,71,71,71,71,71,71,71,71,71,
0,0,0,0,0,0,70,71,71,71,71,71,71,71,71,71,
0,0,0,0,0,0,70,71,71,71,71,71,71,71,71,71,
0,0,0,0,0,0,70,71,71,71,71,71,71,71,71,71,
0,0,0,0,0,0,70,71,71,71,71,71,71,71,71,71,
0,0,0,0,0,0,70,71,71,71,71,71,71,71,71,71,
0,0,0,0,0,0,70,71,71,71,71,71,71,71,71,71
</chunk>
   <chunk x="16" y="80" width="16" height="16">
71,71,71,68,11,0,0,0,0,0,0,0,70,71,71,71,
71,71,71,71,68,11,0,0,0,0,0,0,70,71,71,71,
71,71,71,71,71,68,14,15,0,0,0,0,70,71,71,71,
71,71,71,71,71,71,71,68,63,0,0,0,70,71,71,71,
71,71,71,71,71,71,71,71,72,0,0,0,70,71,71,71,
71,71,71,71,71,71,71,71,72,0,0,0,70,71,71,71,
71,71,71,71,71,71,71,71,72,0,0,0,70,71,71,71,
71,71,71,71,71,71,71,71,72,0,0,0,70,71,71,71,
71,71,71,71,71,71,71,71,72,0,0,0,70,71,71,71,
71,71,71,71,71,71,71,71,72,0,0,0,70,71,71,71,
71,71,71,71,71,71,71,71,72,0,0,0,70,71,71,71,
71,71,71,71,71,71,71,71,72,0,0,0,70,71,71,71,
71,71,71,71,71,71,71,71,72,0,0,0,70,71,71,71,
71,71,71,71,71,71,71,71,72,0,0,0,70,71,71,71,
71,71,71,71,71,71,71,71,72,0,0,0,70,71,71,71,
71,71,71,71,71,71,71,71,72,0,0,0,70,71,71,71
</chunk>
   <chunk x="32" y="80" width="16" height="16">
71,71,71,71,71,71,71,71,71,71,71,71,71,71,71,71,
71,71,71,71,71,71,71,71,71,71,71,71,71,71,71,71,
71,71,71,71,71,71,71,71,71,71,71,71,71,71,71,71,
71,71,71,71,71,71,71,71,71,71,71,71,71,71,71,71,
71,71,71,71,71,71,71,71,71,71,71,71,71,71,71,71,
71,71,71,71,71,71,71,71,71,71,71,71,71,71,71,71,
71,71,71,71,71,71,71,71,71,71,71,71,71,71,71,71,
71,71,71,71,71,71,71,71,71,71,71,71,71,71,71,71,
71,71,71,71,71,71,71,71,71,71,71,71,71,71,71,71,
71,71,71,71,71,71,71,71,71,71,71,71,71,71,71,71,
71,71,71,71,71,71,71,71,71,71,71,71,71,71,71,71,
71,71,71,71,71,71,71,71,71,71,71,71,71,71,71,71,
71,71,71,71,71,71,71,71,71,71,71,71,71,71,71,71,
71,71,71,71,71,71,71,71,71,71,71,71,71,71,71,71,
71,71,71,71,71,71,71,71,71,71,71,71,71,71,71,71,
71,71,71,71,71,71,71,71,71,71,71,71,71,71,71,71
</chunk>
   <chunk x="48" y="80" width="16" height="16">
71,71,71,71,71,71,71,71,71,71,71,71,71,71,71,71,
71,71,71,71,71,71,71,71,71,71,71,71,71,71,71,71,
71,71,71,71,71,71,71,71,71,71,71,71,71,71,71,71,
71,71,71,71,71,71,71,71,71,71,71,71,71,71,71,71,
71,71,71,71,71,71,71,71,71,71,71,71,71,71,71,71,
71,71,71,71,71,71,71,71,71,71,71,71,71,71,71,71,
71,71,71,71,71,71,71,71,71,71,71,71,71,71,71,71,
71,71,71,71,71,71,71,71,71,71,71,71,71,71,71,71,
71,71,71,71,71,71,71,71,71,71,71,71,71,71,71,71,
71,71,71,71,71,71,71,71,71,71,71,71,71,71,71,71,
71,71,71,71,71,71,71,71,71,71,71,71,71,71,71,71,
71,71,71,71,71,71,71,71,71,71,71,71,71,71,71,71,
71,71,71,71,71,71,71,71,71,71,71,71,71,71,71,71,
71,71,71,71,71,71,71,71,71,71,71,71,71,71,71,71,
71,71,71,71,71,71,71,71,71,71,71,71,71,71,71,71,
71,71,71,71,71,71,71,71,71,71,71,71,71,71,71,71
</chunk>
   <chunk x="64" y="80" width="16" height="16">
71,72,0,0,0,0,0,0,0,0,0,0,0,0,0,0,
71,72,0,0,0,0,0,0,0,0,0,0,0,0,0,0,
71,72,0,0,0,0,0,0,0,0,0,0,0,0,0,0,
71,72,0,0,0,0,0,0,0,0,0,0,0,0,0,0,
71,72,0,0,0,0,0,0,0,0,0,0,0,0,0,0,
71,72,0,0,0,0,0,0,0,0,0,0,0,0,0,0,
71,72,0,0,0,0,0,0,0,0,0,0,0,0,0,0,
71,72,0,0,0,0,0,0,0,0,0,0,0,0,0,0,
71,72,0,0,0,0,0,0,0,0,0,0,0,0,0,0,
71,72,0,0,0,0,0,0,0,0,0,0,0,0,0,0,
71,72,0,0,0,0,0,0,0,0,0,25,25,25,25,25,
71,72,0,0,0,0,0,0,0,0,0,0,0,0,0,0,
71,68,63,0,0,0,0,0,0,0,0,0,0,0,0,0,
71,71,72,0,0,0,0,0,0,0,0,0,0,0,0,0,
71,71,72,0,0,0,0,0,0,0,0,0,0,0,0,0,
71,71,72,0,0,0,0,0,0,0,0,0,0,0,0,0
</chunk>
   <chunk x="80" y="80" width="16" height="16">
0,0,0,0,70,71,71,71,71,71,72,0,0,0,0,0,
0,0,0,0,70,71,71,71,71,71,72,0,0,0,0,0,
0,0,0,0,70,71,71,71,71,71,72,0,0,0,0,0,
0,0,0,0,70,71,71,71,71,71,72,0,0,0,0,0,
0,0,0,0,70,71,71,71,71,71,72,25,25,25,25,25,
0,0,0,0,79,80,80,80,80,80,81,0,0,0,0,0,
0,0,0,0,0,0,0,0,0,0,0,0,0,0,0,0,
0,0,0,0,0,0,0,0,0,0,0,0,0,0,0,0,
0,0,0,0,0,0,0,0,0,0,0,0,0,0,0,0,
0,0,0,0,10,62,62,62,62,62,63,0,0,0,0,0,
25,25,25,25,70,71,71,71,71,71,72,0,0,0,0,0,
0,0,0,0,70,71,71,71,71,71,72,0,0,0,0,0,
0,0,0,61,69,71,71,71,71,71,72,0,0,0,0,0,
0,0,0,70,71,71,71,71,71,71,68,62,62,62,62,62,
0,0,0,70,71,71,71,71,71,71,71,71,71,71,71,71,
0,0,0,70,71,71,71,71,71,71,71,71,71,71,71,71
</chunk>
   <chunk x="96" y="80" width="16" height="16">
0,0,0,0,0,0,0,0,0,0,0,0,0,0,0,0,
0,0,0,0,0,0,0,0,0,0,0,0,0,0,0,0,
0,0,0,0,0,0,0,0,0,0,0,0,0,0,0,0,
0,0,0,0,0,0,0,0,0,0,0,0,0,0,0,0,
25,0,0,0,0,0,0,0,0,0,0,0,0,0,0,0,
0,0,0,0,0,0,0,0,0,0,0,0,0,0,0,0,
0,0,0,0,0,0,0,0,0,0,0,0,0,0,0,0,
0,0,0,0,0,0,0,0,0,0,0,0,0,0,0,0,
0,0,0,0,0,0,0,0,0,0,0,0,0,0,0,0,
0,0,0,0,0,0,0,0,0,0,0,0,0,0,0,0,
0,0,0,0,0,0,0,0,0,0,0,0,0,0,0,0,
0,0,0,0,0,0,0,0,0,0,0,0,0,0,0,0,
0,0,0,0,0,0,0,0,0,0,0,0,0,0,0,0,
62,62,62,62,62,62,62,62,62,62,62,62,62,62,62,62,
71,71,71,71,71,71,71,71,71,71,71,71,71,71,71,71,
71,71,71,71,71,71,71,71,71,71,71,71,71,71,71,71
</chunk>
   <chunk x="112" y="80" width="16" height="16">
0,0,0,0,27,60,71,71,71,71,71,71,71,71,71,71,
0,0,0,0,0,27,60,71,71,71,71,71,71,71,71,59,
0,0,0,0,0,0,27,80,80,80,80,80,80,80,80,81,
0,0,0,0,0,0,0,0,0,0,0,0,0,0,0,0,
0,0,0,0,0,0,0,0,0,0,0,0,0,0,0,0,
0,0,0,0,0,0,0,0,0,0,0,0,0,0,0,0,
0,0,0,0,0,0,0,0,0,0,0,0,0,0,0,0,
0,0,0,0,0,0,0,0,0,0,0,0,0,0,0,0,
0,0,0,0,0,0,0,0,0,0,0,61,62,62,62,63,
0,0,0,0,0,0,0,0,0,0,0,70,71,71,71,72,
0,0,0,0,0,0,0,0,0,0,0,70,71,71,71,72,
0,0,0,0,0,0,0,0,0,0,0,70,71,71,71,72,
0,0,0,0,0,0,0,0,0,0,0,70,71,71,71,72,
62,62,62,62,62,62,62,62,62,62,62,69,71,71,71,68,
71,71,71,71,71,71,71,71,71,71,71,71,71,71,71,71,
71,71,71,71,71,71,71,71,71,71,71,71,71,71,71,71
</chunk>
   <chunk x="128" y="80" width="16" height="16">
71,71,71,71,71,71,71,71,71,71,71,71,71,71,71,71,
80,80,80,80,80,80,80,80,80,80,80,80,80,80,60,71,
0,0,0,0,0,0,0,0,0,0,0,0,0,0,27,60,
0,0,0,0,0,0,0,0,0,0,0,0,0,0,0,27,
0,0,0,0,0,0,0,0,0,0,0,0,0,0,0,0,
0,0,0,0,0,0,0,0,0,0,0,0,0,0,0,0,
0,0,0,0,0,0,0,0,0,0,0,0,0,0,0,0,
0,0,0,0,0,0,0,0,0,0,0,0,0,0,0,0,
0,0,0,0,0,0,0,0,0,0,0,0,0,0,0,0,
0,0,0,0,0,0,0,0,0,0,0,0,0,0,0,0,
0,0,0,0,0,0,0,0,0,0,0,0,0,0,0,0,
0,0,0,0,0,0,0,0,0,0,0,0,0,0,0,0,
0,0,0,0,0,0,0,0,0,0,0,0,0,0,0,0,
62,62,62,62,62,62,62,62,62,62,62,62,62,62,62,62,
71,71,71,71,71,71,71,71,71,71,71,71,71,71,71,71,
71,71,71,71,71,71,71,71,71,71,71,71,71,71,71,71
</chunk>
   <chunk x="144" y="80" width="16" height="16">
71,71,71,71,71,71,71,71,71,71,71,72,0,0,0,0,
71,71,71,71,71,71,71,71,71,71,71,72,0,0,0,0,
71,71,71,71,71,71,71,71,71,71,71,72,0,0,0,0,
60,71,71,71,71,71,71,71,71,71,71,72,0,0,0,0,
27,60,71,71,71,71,71,71,71,71,71,72,0,0,0,0,
0,27,60,71,71,71,71,71,71,71,71,72,0,0,0,0,
0,0,27,60,71,71,71,71,71,71,71,72,0,0,0,0,
0,0,0,27,80,80,80,80,80,80,80,81,0,0,0,0,
0,0,0,0,0,0,0,0,0,0,0,0,0,0,0,0,
0,0,0,0,0,0,0,0,0,0,0,0,0,0,0,0,
0,0,0,0,0,0,0,0,0,0,0,0,0,0,0,0,
0,0,0,0,0,0,0,0,0,0,0,0,0,0,0,0,
0,0,0,0,0,0,0,0,0,0,0,0,0,0,0,0,
62,62,62,62,62,62,62,62,62,62,62,62,62,62,62,62,
71,71,71,71,71,71,71,71,71,71,71,71,71,71,71,71,
71,71,71,71,71,71,71,71,71,71,71,71,71,71,71,71
</chunk>
   <chunk x="160" y="80" width="16" height="16">
0,0,0,0,0,0,0,0,0,0,0,0,0,0,0,0,
0,0,0,0,0,0,0,0,0,0,0,0,0,0,0,0,
0,0,0,0,0,0,0,0,0,0,0,0,0,0,0,0,
0,0,0,0,0,0,0,0,0,0,0,0,0,0,0,0,
0,0,0,0,0,0,0,0,0,0,0,0,0,0,0,0,
0,0,0,0,0,0,0,0,0,0,0,0,0,0,0,0,
0,0,0,0,0,0,0,0,0,0,0,0,0,0,0,0,
0,0,0,0,0,0,0,0,0,0,0,0,0,0,0,0,
0,0,0,0,0,0,0,0,0,0,0,0,0,0,0,0,
0,0,0,0,0,0,0,0,0,0,0,0,0,0,0,0,
0,0,0,0,0,0,0,0,0,0,0,0,0,0,0,0,
0,0,0,0,0,0,0,0,0,0,0,0,0,0,0,0,
0,0,0,0,0,0,0,0,0,0,0,0,0,0,0,0,
62,62,62,62,62,62,62,62,62,63,0,0,0,0,0,0,
71,71,71,71,71,71,71,71,71,72,0,0,0,0,0,0,
71,71,71,71,71,71,71,71,71,72,0,0,0,0,0,0
</chunk>
   <chunk x="0" y="96" width="16" height="16">
0,0,0,0,0,0,70,71,71,71,71,71,71,71,71,71,
0,0,0,0,0,0,70,71,71,71,71,71,71,71,71,71,
0,0,0,0,0,0,70,71,71,71,71,71,71,71,71,71,
0,0,0,0,0,0,70,71,71,71,71,71,71,71,71,71,
0,0,0,0,0,0,70,71,71,71,71,71,71,71,71,71,
0,0,0,0,0,0,70,71,71,71,71,71,71,71,71,71,
0,0,0,0,0,0,70,71,71,71,71,71,71,71,71,71,
0,0,0,0,0,0,70,71,71,71,71,71,71,71,71,71,
0,0,0,0,0,0,70,71,71,71,71,71,71,71,71,71,
0,0,0,0,0,0,70,71,71,71,71,71,71,71,71,71,
0,0,0,0,0,0,70,71,71,71,71,71,71,71,71,71,
0,0,0,0,0,0,70,71,71,71,71,71,71,71,71,71,
0,0,0,0,0,0,70,71,71,71,71,71,71,71,71,71,
0,0,0,0,0,0,70,71,71,71,71,71,71,71,71,71,
0,0,0,0,0,0,70,71,71,71,71,71,71,71,71,71,
0,0,0,0,0,0,70,71,71,71,71,71,71,71,71,71
</chunk>
   <chunk x="16" y="96" width="16" height="16">
71,71,71,71,71,71,71,71,72,0,0,0,70,71,71,71,
71,71,71,71,71,71,71,71,72,0,0,0,70,71,71,71,
71,71,71,71,71,71,71,71,72,0,0,0,70,71,71,71,
71,71,71,71,71,71,71,71,68,62,62,62,69,71,71,71,
71,71,71,71,71,71,71,71,71,71,71,71,71,71,71,71,
71,71,71,71,71,71,71,71,71,71,71,71,71,71,71,71,
71,71,71,71,71,71,71,71,71,71,71,71,71,71,71,71,
71,71,71,71,71,71,71,71,71,71,71,71,71,71,71,71,
71,71,71,71,71,71,71,71,71,71,71,71,71,71,71,71,
71,71,71,71,71,71,71,71,71,71,71,71,71,71,71,71,
71,71,71,71,71,71,71,71,71,71,71,71,71,71,71,71,
71,71,71,71,71,71,71,71,71,71,71,71,71,71,71,71,
71,71,71,71,71,71,71,71,71,71,71,71,71,71,71,71,
71,71,71,71,71,71,71,71,71,71,71,71,71,71,71,71,
71,71,71,71,71,71,71,71,71,71,71,71,71,71,71,71,
71,71,71,71,71,71,71,71,71,71,71,71,71,71,71,71
</chunk>
   <chunk x="32" y="96" width="16" height="16">
71,71,71,71,71,71,71,71,71,71,71,71,71,71,71,71,
71,71,71,71,71,71,71,71,71,71,71,71,71,71,71,71,
71,71,71,71,71,71,71,71,71,71,71,71,71,71,71,71,
71,71,71,71,71,71,71,71,71,71,71,71,71,71,71,71,
71,71,71,71,71,71,71,71,71,71,71,71,71,71,71,71,
71,71,71,71,71,71,71,71,71,71,71,71,71,71,71,71,
71,71,71,71,71,71,71,71,71,71,71,71,71,71,71,71,
71,71,71,71,71,71,71,71,71,71,71,71,71,71,71,71,
71,71,71,71,71,71,71,71,71,71,71,71,71,71,71,71,
71,71,71,71,71,71,71,71,71,71,71,71,71,71,71,71,
71,71,71,71,71,71,71,71,71,71,71,71,71,71,71,71,
71,71,71,71,71,71,71,71,71,71,71,71,71,71,71,71,
71,71,71,71,71,71,71,71,71,71,71,71,71,71,71,71,
71,71,71,71,71,71,71,71,71,71,71,71,71,71,71,71,
71,71,71,71,71,71,71,71,71,71,71,71,71,71,71,71,
71,71,71,71,71,71,71,71,71,71,71,71,71,71,71,71
</chunk>
   <chunk x="48" y="96" width="16" height="16">
71,71,71,71,71,71,71,71,71,71,71,71,71,71,71,71,
71,71,71,71,71,71,71,71,71,71,71,71,71,71,71,71,
71,71,71,71,71,71,71,71,71,71,71,71,71,71,71,71,
71,71,71,71,71,71,71,71,71,71,71,71,71,71,71,71,
71,71,71,71,71,71,71,71,71,71,71,71,71,71,71,71,
71,71,71,71,71,71,71,71,71,71,71,71,71,71,71,71,
71,71,71,71,71,71,71,71,71,71,71,71,71,71,71,71,
71,71,71,71,71,71,71,71,71,71,71,71,71,71,71,71,
71,71,71,71,71,71,71,71,71,71,71,71,71,71,71,71,
71,71,71,71,71,71,71,71,71,71,71,71,71,71,71,71,
71,71,71,71,71,71,71,71,71,71,71,71,71,71,71,71,
71,71,71,71,71,71,71,71,71,71,71,71,71,71,71,71,
71,71,71,71,71,71,71,71,71,71,71,71,71,71,71,71,
71,71,71,71,71,71,71,71,71,71,71,71,71,71,71,71,
71,71,71,71,71,71,71,71,71,71,71,71,71,71,71,71,
71,71,71,71,71,71,71,71,71,71,71,71,71,71,71,71
</chunk>
   <chunk x="64" y="96" width="16" height="16">
71,71,72,0,0,0,0,0,0,0,0,0,0,0,0,0,
71,71,68,11,0,0,0,0,0,0,0,0,0,0,0,0,
71,71,71,72,0,0,0,0,0,0,0,0,0,0,0,0,
71,71,71,68,63,0,0,0,0,0,0,0,0,0,0,0,
71,71,71,71,68,62,62,62,62,62,62,62,62,62,62,62,
71,71,71,71,71,71,71,71,71,71,71,71,71,71,71,71,
71,71,71,71,71,71,71,71,71,71,71,71,71,71,71,71,
71,71,71,71,71,71,71,71,71,71,71,71,71,71,71,71,
71,71,71,71,71,71,71,71,71,71,71,71,71,71,71,71,
71,71,71,71,71,71,71,71,71,71,71,71,71,71,71,71,
71,71,71,71,71,71,71,71,71,71,71,71,71,71,71,71,
71,71,71,71,71,71,71,71,71,71,71,71,71,71,71,71,
71,71,71,71,71,71,71,71,71,71,71,71,71,71,71,71,
71,71,71,71,71,71,71,71,71,71,71,71,71,71,71,71,
71,71,71,71,71,71,71,71,71,71,71,71,71,71,71,71,
71,71,71,71,71,71,71,71,71,71,71,71,71,71,71,71
</chunk>
   <chunk x="80" y="96" width="16" height="16">
0,0,0,70,71,71,71,71,71,71,71,71,71,71,71,71,
0,0,10,69,71,71,71,71,71,71,71,71,71,71,71,71,
0,0,70,71,71,71,71,71,71,71,71,71,71,71,71,71,
0,10,69,71,71,71,71,71,71,71,71,71,71,71,71,71,
62,69,71,71,71,71,71,71,71,71,71,71,71,71,71,71,
71,71,71,71,71,71,71,71,71,71,71,71,71,71,71,71,
71,71,71,71,71,71,71,71,71,71,71,71,71,71,71,71,
71,71,71,71,71,71,71,71,71,71,71,71,71,71,71,71,
71,71,71,71,71,71,71,71,71,71,71,71,71,71,71,71,
71,71,71,71,71,71,71,71,71,71,71,71,71,71,71,71,
71,71,71,71,71,71,71,71,71,71,71,71,71,71,71,71,
71,71,71,71,71,71,71,71,71,71,71,71,71,71,71,71,
71,71,71,71,71,71,71,71,71,71,71,71,71,71,71,71,
71,71,71,71,71,71,71,71,71,71,71,71,71,71,71,71,
71,71,71,71,71,71,71,71,71,71,71,71,71,71,71,71,
71,71,71,71,71,71,71,71,71,71,71,71,71,71,71,71
</chunk>
   <chunk x="96" y="96" width="16" height="16">
71,71,71,71,71,71,71,71,71,71,71,71,71,71,71,71,
71,71,71,71,71,71,71,71,71,71,71,71,71,71,71,71,
71,71,71,71,71,71,71,71,71,71,71,71,71,71,71,71,
71,71,71,71,71,71,71,71,71,71,71,71,71,71,71,71,
71,71,71,71,71,71,71,71,71,71,71,71,71,71,71,71,
71,71,71,71,71,71,71,71,71,71,71,71,71,71,71,71,
71,71,71,71,71,71,71,71,71,71,71,71,71,71,71,71,
71,71,71,71,71,71,71,71,71,71,71,71,71,71,71,71,
71,71,71,71,71,71,71,71,71,71,71,71,71,71,71,71,
71,71,71,71,71,71,71,71,71,71,71,71,71,71,71,71,
71,71,71,71,71,71,71,71,71,71,71,71,71,71,71,71,
71,71,71,71,71,71,71,71,71,71,71,71,71,71,71,71,
71,71,71,71,71,71,71,71,71,71,71,71,71,71,71,71,
71,71,71,71,71,71,71,71,71,71,71,71,71,71,71,71,
71,71,71,71,71,71,71,71,71,71,71,71,71,71,71,71,
71,71,71,71,71,71,71,71,71,71,71,71,71,71,71,71
</chunk>
   <chunk x="112" y="96" width="16" height="16">
71,71,71,71,71,71,71,71,71,71,71,71,71,71,71,71,
71,71,71,71,71,71,71,71,71,71,71,71,71,71,71,71,
71,71,71,71,71,71,71,71,71,71,71,71,71,71,71,71,
71,71,71,71,71,71,71,71,71,71,71,71,71,71,71,71,
71,71,71,71,71,71,71,71,71,71,71,71,71,71,71,71,
71,71,71,71,71,71,71,71,71,71,71,71,71,71,71,71,
71,71,71,71,71,71,71,71,71,71,71,71,71,71,71,71,
71,71,71,71,71,71,71,71,71,71,71,71,71,71,71,71,
71,71,71,71,71,71,71,71,71,71,71,71,71,71,71,71,
71,71,71,71,71,71,71,71,71,71,71,71,71,71,71,71,
71,71,71,71,71,71,71,71,71,71,71,71,71,71,71,71,
71,71,71,71,71,71,71,71,71,71,71,71,71,71,71,71,
71,71,71,71,71,71,71,71,71,71,71,71,71,71,71,71,
71,71,71,71,71,71,71,71,71,71,71,71,71,71,71,71,
71,71,71,71,71,71,71,71,71,71,71,71,71,71,71,71,
71,71,71,71,71,71,71,71,71,71,71,71,71,71,71,71
</chunk>
   <chunk x="128" y="96" width="16" height="16">
71,71,71,71,71,71,71,71,71,71,71,71,71,71,71,71,
71,71,71,71,71,71,71,71,71,71,71,71,71,71,71,71,
71,71,71,71,71,71,71,71,71,71,71,71,71,71,71,71,
71,71,71,71,71,71,71,71,71,71,71,71,71,71,71,71,
71,71,71,71,71,71,71,71,71,71,71,71,71,71,71,71,
71,71,71,71,71,71,71,71,71,71,71,71,71,71,71,71,
71,71,71,71,71,71,71,71,71,71,71,71,71,71,71,71,
71,71,71,71,71,71,71,71,71,71,71,71,71,71,71,71,
71,71,71,71,71,71,71,71,71,71,71,71,71,71,71,71,
71,71,71,71,71,71,71,71,71,71,71,71,71,71,71,71,
71,71,71,71,71,71,71,71,71,71,71,71,71,71,71,71,
71,71,71,71,71,71,71,71,71,71,71,71,71,71,71,71,
71,71,71,71,71,71,71,71,71,71,71,71,71,71,71,71,
71,71,71,71,71,71,71,71,71,71,71,71,71,71,71,71,
71,71,71,71,71,71,71,71,71,71,71,71,71,71,71,71,
71,71,71,71,71,71,71,71,71,71,71,71,71,71,71,71
</chunk>
   <chunk x="144" y="96" width="16" height="16">
71,71,71,71,71,71,71,71,71,71,71,71,71,71,71,71,
71,71,71,71,71,71,71,71,71,71,71,71,71,71,71,71,
71,71,71,71,71,71,71,71,71,71,71,71,71,71,71,71,
71,71,71,71,71,71,71,71,71,71,71,71,71,71,71,71,
71,71,71,71,71,71,71,71,71,71,71,71,71,71,71,71,
71,71,71,71,71,71,71,71,71,71,71,71,71,71,71,71,
71,71,71,71,71,71,71,71,71,71,71,71,71,71,71,71,
71,71,71,71,71,71,71,71,71,71,71,71,71,71,71,71,
71,71,71,71,71,71,71,71,71,71,71,71,71,71,71,71,
71,71,71,71,71,71,71,71,71,71,71,71,71,71,71,71,
71,71,71,71,71,71,71,71,71,71,71,71,71,71,71,71,
71,71,71,71,71,71,71,71,71,71,71,71,71,71,71,71,
71,71,71,71,71,71,71,71,71,71,71,71,71,71,71,71,
71,71,71,71,71,71,71,71,71,71,71,71,71,71,71,71,
71,71,71,71,71,71,71,71,71,71,71,71,71,71,71,71,
71,71,71,71,71,71,71,71,71,71,71,71,71,71,71,71
</chunk>
   <chunk x="160" y="96" width="16" height="16">
71,71,71,71,71,71,71,71,71,72,0,0,0,0,0,0,
71,71,71,71,71,71,71,71,71,72,0,0,0,0,0,0,
71,71,71,71,71,71,71,71,71,72,0,0,0,0,0,0,
71,71,71,71,71,71,71,71,71,72,0,0,0,0,0,0,
71,71,71,71,71,71,71,71,71,72,0,0,0,0,0,0,
71,71,71,71,71,71,71,71,71,72,0,0,0,0,0,0,
71,71,71,71,71,71,71,71,71,72,0,0,0,0,0,0,
71,71,71,71,71,71,71,71,71,72,0,0,0,0,0,0,
71,71,71,71,71,71,71,71,71,72,0,0,0,0,0,0,
71,71,71,71,71,71,71,71,71,72,0,0,0,0,0,0,
71,71,71,71,71,71,71,71,71,72,0,0,0,0,0,0,
71,71,71,71,71,71,71,71,71,72,0,0,0,0,0,0,
71,71,71,71,71,71,71,71,71,72,0,0,0,0,0,0,
71,71,71,71,71,71,71,71,71,72,0,0,0,0,0,0,
71,71,71,71,71,71,71,71,71,72,0,0,0,0,0,0,
71,71,71,71,71,71,71,71,71,72,0,0,0,0,0,0
</chunk>
  </data>
 </layer>
 <objectgroup color="#ffffff" id="12" name="regions"/>
 <objectgroup color="#fffa61" id="8" name="lights">
  <object id="208" class="light" x="2467" y="234">
   <properties>
    <property name="angle" type="float" value="270"/>
    <property name="brightness" type="float" value="3"/>
    <property name="color" type="color" value="#ffdcddff"/>
    <property name="dirRadius" type="float" value="80"/>
    <property name="directional" type="bool" value="false"/>
    <property name="falloff" type="float" value="2"/>
    <property name="radius" type="float" value="1"/>
    <property name="shadows" type="bool" value="false"/>
    <property name="startActive" type="bool" value="true"/>
   </properties>
   <point/>
  </object>
  <object id="209" class="light" x="2096" y="240">
   <properties>
    <property name="angle" type="float" value="270"/>
    <property name="brightness" type="float" value="3"/>
    <property name="color" type="color" value="#ffdcddff"/>
    <property name="dirRadius" type="float" value="80"/>
    <property name="directional" type="bool" value="false"/>
    <property name="falloff" type="float" value="2"/>
    <property name="radius" type="float" value="1"/>
    <property name="shadows" type="bool" value="false"/>
    <property name="startActive" type="bool" value="true"/>
   </properties>
   <point/>
  </object>
  <object id="210" class="light" x="1120" y="224">
   <properties>
    <property name="angle" type="float" value="270"/>
    <property name="brightness" type="float" value="3"/>
    <property name="color" type="color" value="#ffdcddff"/>
    <property name="dirRadius" type="float" value="80"/>
    <property name="directional" type="bool" value="false"/>
    <property name="falloff" type="float" value="3"/>
    <property name="radius" type="float" value="1"/>
    <property name="shadows" type="bool" value="false"/>
    <property name="startActive" type="bool" value="true"/>
   </properties>
   <point/>
  </object>
  <object id="211" class="light" x="1152" y="480">
   <properties>
    <property name="angle" type="float" value="270"/>
    <property name="brightness" type="float" value="3"/>
    <property name="color" type="color" value="#ffdcddff"/>
    <property name="dirRadius" type="float" value="80"/>
    <property name="directional" type="bool" value="false"/>
    <property name="falloff" type="float" value="3"/>
    <property name="radius" type="float" value="1"/>
    <property name="shadows" type="bool" value="false"/>
    <property name="startActive" type="bool" value="true"/>
   </properties>
   <point/>
  </object>
  <object id="212" class="light" x="1120" y="704">
   <properties>
    <property name="angle" type="float" value="270"/>
    <property name="brightness" type="float" value="3"/>
    <property name="color" type="color" value="#ffdcddff"/>
    <property name="dirRadius" type="float" value="80"/>
    <property name="directional" type="bool" value="false"/>
    <property name="falloff" type="float" value="3"/>
    <property name="radius" type="float" value="1"/>
    <property name="shadows" type="bool" value="false"/>
    <property name="startActive" type="bool" value="true"/>
   </properties>
   <point/>
  </object>
  <object id="213" class="light" x="1184" y="960">
   <properties>
    <property name="angle" type="float" value="270"/>
    <property name="brightness" type="float" value="3"/>
    <property name="color" type="color" value="#ffdcddff"/>
    <property name="dirRadius" type="float" value="80"/>
    <property name="directional" type="bool" value="false"/>
    <property name="falloff" type="float" value="3"/>
    <property name="radius" type="float" value="1"/>
    <property name="shadows" type="bool" value="false"/>
    <property name="startActive" type="bool" value="true"/>
   </properties>
   <point/>
  </object>
  <object id="214" class="light" x="1232" y="1200">
   <properties>
    <property name="angle" type="float" value="270"/>
    <property name="brightness" type="float" value="3"/>
    <property name="color" type="color" value="#ffdcddff"/>
    <property name="dirRadius" type="float" value="80"/>
    <property name="directional" type="bool" value="false"/>
    <property name="falloff" type="float" value="3"/>
    <property name="radius" type="float" value="1"/>
    <property name="shadows" type="bool" value="false"/>
    <property name="startActive" type="bool" value="true"/>
   </properties>
   <point/>
  </object>
  <object id="215" class="light" x="1184" y="1440">
   <properties>
    <property name="angle" type="float" value="270"/>
    <property name="brightness" type="float" value="3"/>
    <property name="color" type="color" value="#ffdcddff"/>
    <property name="dirRadius" type="float" value="80"/>
    <property name="directional" type="bool" value="false"/>
    <property name="falloff" type="float" value="3"/>
    <property name="radius" type="float" value="1"/>
    <property name="shadows" type="bool" value="false"/>
    <property name="startActive" type="bool" value="true"/>
   </properties>
   <point/>
  </object>
  <object id="216" class="light" x="760" y="604">
   <properties>
    <property name="angle" type="float" value="270"/>
    <property name="brightness" type="float" value="3"/>
    <property name="color" type="color" value="#ffdcddff"/>
    <property name="dirRadius" type="float" value="80"/>
    <property name="directional" type="bool" value="false"/>
    <property name="falloff" type="float" value="3"/>
    <property name="radius" type="float" value="1"/>
    <property name="shadows" type="bool" value="false"/>
    <property name="startActive" type="bool" value="true"/>
   </properties>
   <point/>
  </object>
  <object id="217" class="light" x="752" y="928">
   <properties>
    <property name="angle" type="float" value="270"/>
    <property name="brightness" type="float" value="3"/>
    <property name="color" type="color" value="#ffdcddff"/>
    <property name="dirRadius" type="float" value="80"/>
    <property name="directional" type="bool" value="false"/>
    <property name="falloff" type="float" value="3"/>
    <property name="radius" type="float" value="1"/>
    <property name="shadows" type="bool" value="false"/>
    <property name="startActive" type="bool" value="true"/>
   </properties>
   <point/>
  </object>
  <object id="225" class="light_area" x="-32" y="0" width="544" height="561">
   <properties>
    <property name="brightness" type="float" value="1"/>
    <property name="color" type="color" value="#ffdcddff"/>
    <property name="radius" type="float" value="6"/>
    <property name="startActive" type="bool" value="true"/>
   </properties>
  </object>
  <object id="226" class="light_area" x="0" y="624" width="448" height="480">
   <properties>
    <property name="brightness" type="float" value="1"/>
    <property name="color" type="color" value="#ffdcddff"/>
    <property name="radius" type="float" value="6"/>
    <property name="startActive" type="bool" value="true"/>
   </properties>
  </object>
  <object id="227" class="light_area" x="0" y="1008" width="352" height="320">
   <properties>
    <property name="brightness" type="float" value="1"/>
    <property name="color" type="color" value="#ffdcddff"/>
    <property name="radius" type="float" value="6"/>
    <property name="startActive" type="bool" value="true"/>
   </properties>
  </object>
  <object id="228" class="light_area" x="0" y="464" width="160" height="256">
   <properties>
    <property name="brightness" type="float" value="1"/>
    <property name="color" type="color" value="#ffdcddff"/>
    <property name="radius" type="float" value="6"/>
    <property name="startActive" type="bool" value="true"/>
   </properties>
  </object>
  <object id="229" class="light_area" x="0" y="1232" width="160" height="560">
   <properties>
    <property name="brightness" type="float" value="1"/>
    <property name="color" type="color" value="#ffdcddff"/>
    <property name="radius" type="float" value="6"/>
    <property name="startActive" type="bool" value="true"/>
   </properties>
  </object>
  <object id="230" class="light_area" x="2400" y="816" width="416" height="768">
   <properties>
    <property name="brightness" type="float" value="1"/>
    <property name="color" type="color" value="#ffdcddff"/>
    <property name="radius" type="float" value="6"/>
    <property name="startActive" type="bool" value="true"/>
   </properties>
  </object>
  <object id="231" class="light_area" x="2656" y="560" width="160" height="352">
   <properties>
    <property name="brightness" type="float" value="0.75"/>
    <property name="color" type="color" value="#ffdcddff"/>
    <property name="radius" type="float" value="6"/>
    <property name="startActive" type="bool" value="true"/>
   </properties>
  </object>
  <object id="232" class="light_area" x="2144" y="768" width="352" height="480">
   <properties>
    <property name="brightness" type="float" value="1"/>
    <property name="color" type="color" value="#ffdcddff"/>
    <property name="radius" type="float" value="6"/>
    <property name="startActive" type="bool" value="true"/>
   </properties>
  </object>
  <object id="233" class="light_area" x="1952" y="768" width="287" height="480">
   <properties>
    <property name="brightness" type="float" value="0.35"/>
    <property name="color" type="color" value="#ffdcddff"/>
    <property name="radius" type="float" value="6"/>
    <property name="startActive" type="bool" value="true"/>
   </properties>
  </object>
  <object id="235" class="light_area" x="2656" y="1488" width="160" height="304">
   <properties>
    <property name="brightness" type="float" value="1"/>
    <property name="color" type="color" value="#ffdcddff"/>
    <property name="radius" type="float" value="6"/>
    <property name="startActive" type="bool" value="true"/>
   </properties>
  </object>
  <object id="237" class="light" x="608" y="272">
   <properties>
    <property name="angle" type="float" value="270"/>
    <property name="brightness" type="float" value="2"/>
    <property name="color" type="color" value="#fffbffef"/>
    <property name="dirRadius" type="float" value="80"/>
    <property name="directional" type="bool" value="false"/>
    <property name="falloff" type="float" value="2"/>
    <property name="radius" type="float" value="1.5"/>
    <property name="shadows" type="bool" value="false"/>
    <property name="startActive" type="bool" value="true"/>
   </properties>
   <point/>
  </object>
  <object id="238" class="light" x="376" y="576">
   <properties>
    <property name="angle" type="float" value="270"/>
    <property name="brightness" type="float" value="2"/>
    <property name="color" type="color" value="#fffbffef"/>
    <property name="dirRadius" type="float" value="80"/>
    <property name="directional" type="bool" value="false"/>
    <property name="falloff" type="float" value="2"/>
    <property name="radius" type="float" value="1.5"/>
    <property name="shadows" type="bool" value="false"/>
    <property name="startActive" type="bool" value="true"/>
   </properties>
   <point/>
  </object>
  <object id="239" class="light" x="464" y="992">
   <properties>
    <property name="angle" type="float" value="270"/>
    <property name="brightness" type="float" value="1.5"/>
    <property name="color" type="color" value="#fffbffef"/>
    <property name="dirRadius" type="float" value="80"/>
    <property name="directional" type="bool" value="false"/>
    <property name="falloff" type="float" value="2"/>
    <property name="radius" type="float" value="2"/>
    <property name="shadows" type="bool" value="false"/>
    <property name="startActive" type="bool" value="true"/>
   </properties>
   <point/>
  </object>
  <object id="240" class="light" x="400" y="1248">
   <properties>
    <property name="angle" type="float" value="270"/>
    <property name="brightness" type="float" value="2"/>
    <property name="color" type="color" value="#fffbffef"/>
    <property name="dirRadius" type="float" value="80"/>
    <property name="directional" type="bool" value="false"/>
    <property name="falloff" type="float" value="2"/>
    <property name="radius" type="float" value="4.5"/>
    <property name="shadows" type="bool" value="false"/>
    <property name="startActive" type="bool" value="true"/>
   </properties>
   <point/>
  </object>
  <object id="241" class="light" x="1616" y="224">
   <properties>
    <property name="angle" type="float" value="270"/>
    <property name="brightness" type="float" value="2"/>
    <property name="color" type="color" value="#fffbffef"/>
    <property name="dirRadius" type="float" value="80"/>
    <property name="directional" type="bool" value="false"/>
    <property name="falloff" type="float" value="2"/>
    <property name="radius" type="float" value="1.5"/>
    <property name="shadows" type="bool" value="false"/>
    <property name="startActive" type="bool" value="true"/>
   </properties>
   <point/>
  </object>
  <object id="242" class="light" x="1840" y="560">
   <properties>
    <property name="angle" type="float" value="270"/>
    <property name="brightness" type="float" value="2"/>
    <property name="color" type="color" value="#fffbffef"/>
    <property name="dirRadius" type="float" value="80"/>
    <property name="directional" type="bool" value="false"/>
    <property name="falloff" type="float" value="2"/>
    <property name="radius" type="float" value="1.5"/>
    <property name="shadows" type="bool" value="false"/>
    <property name="startActive" type="bool" value="true"/>
   </properties>
   <point/>
  </object>
  <object id="243" class="light" x="2392" y="688">
   <properties>
    <property name="angle" type="float" value="270"/>
    <property name="brightness" type="float" value="1.5"/>
    <property name="color" type="color" value="#fffbffef"/>
    <property name="dirRadius" type="float" value="80"/>
    <property name="directional" type="bool" value="false"/>
    <property name="falloff" type="float" value="2"/>
    <property name="radius" type="float" value="2"/>
    <property name="shadows" type="bool" value="false"/>
    <property name="startActive" type="bool" value="true"/>
   </properties>
   <point/>
  </object>
  <object id="244" class="light" x="2224" y="560">
   <properties>
    <property name="angle" type="float" value="270"/>
    <property name="brightness" type="float" value="1.5"/>
    <property name="color" type="color" value="#fffbffef"/>
    <property name="dirRadius" type="float" value="80"/>
    <property name="directional" type="bool" value="false"/>
    <property name="falloff" type="float" value="2"/>
    <property name="radius" type="float" value="2"/>
    <property name="shadows" type="bool" value="false"/>
    <property name="startActive" type="bool" value="true"/>
   </properties>
   <point/>
  </object>
  <object id="245" class="light" x="1552" y="528">
   <properties>
    <property name="angle" type="float" value="270"/>
    <property name="brightness" type="float" value="1.5"/>
    <property name="color" type="color" value="#fffbffef"/>
    <property name="dirRadius" type="float" value="80"/>
    <property name="directional" type="bool" value="false"/>
    <property name="falloff" type="float" value="2"/>
    <property name="radius" type="float" value="2"/>
    <property name="shadows" type="bool" value="false"/>
    <property name="startActive" type="bool" value="true"/>
   </properties>
   <point/>
  </object>
  <object id="246" class="light" x="1664" y="1328">
   <properties>
    <property name="angle" type="float" value="270"/>
    <property name="brightness" type="float" value="2"/>
    <property name="color" type="color" value="#fffbffef"/>
    <property name="dirRadius" type="float" value="80"/>
    <property name="directional" type="bool" value="false"/>
    <property name="falloff" type="float" value="2"/>
    <property name="radius" type="float" value="1.5"/>
    <property name="shadows" type="bool" value="false"/>
    <property name="startActive" type="bool" value="true"/>
   </properties>
   <point/>
  </object>
  <object id="247" class="light" x="1664" y="1056">
   <properties>
    <property name="angle" type="float" value="270"/>
    <property name="brightness" type="float" value="2"/>
    <property name="color" type="color" value="#fffbffef"/>
    <property name="dirRadius" type="float" value="80"/>
    <property name="directional" type="bool" value="false"/>
    <property name="falloff" type="float" value="2"/>
    <property name="radius" type="float" value="1.5"/>
    <property name="shadows" type="bool" value="false"/>
    <property name="startActive" type="bool" value="true"/>
   </properties>
   <point/>
  </object>
  <object id="248" class="light" x="2272" y="1408">
   <properties>
    <property name="angle" type="float" value="270"/>
    <property name="brightness" type="float" value="2"/>
    <property name="color" type="color" value="#fffbffef"/>
    <property name="dirRadius" type="float" value="80"/>
    <property name="directional" type="bool" value="false"/>
    <property name="falloff" type="float" value="2"/>
    <property name="radius" type="float" value="1.5"/>
    <property name="shadows" type="bool" value="false"/>
    <property name="startActive" type="bool" value="true"/>
   </properties>
   <point/>
  </object>
  <object id="249" class="light" x="1968" y="1360">
   <properties>
    <property name="angle" type="float" value="270"/>
    <property name="brightness" type="float" value="1.5"/>
    <property name="color" type="color" value="#ffffccaa"/>
    <property name="dirRadius" type="float" value="80"/>
    <property name="directional" type="bool" value="false"/>
    <property name="falloff" type="float" value="2"/>
    <property name="radius" type="float" value="2"/>
    <property name="shadows" type="bool" value="false"/>
    <property name="startActive" type="bool" value="true"/>
   </properties>
   <point/>
  </object>
 </objectgroup>
 <objectgroup color="#7de8b9" id="11" name="deco"/>
 <objectgroup color="#8aadff" id="9" name="puzzles">
  <object id="122" name="door1" class="door" x="960" y="320" width="32" height="16">
   <properties>
    <property name="draw" type="bool" value="true"/>
    <property name="skin" type="int" value="0"/>
    <property name="startActive" type="bool" value="true"/>
   </properties>
  </object>
  <object id="123" name="door2" class="door" x="224" y="528" width="176" height="16">
   <properties>
    <property name="draw" type="bool" value="true"/>
    <property name="skin" type="int" value="0"/>
    <property name="startActive" type="bool" value="true"/>
   </properties>
  </object>
  <object id="124" name="door3" class="door" x="272" y="1200" width="16" height="64">
   <properties>
    <property name="draw" type="bool" value="true"/>
    <property name="skin" type="int" value="0"/>
    <property name="startActive" type="bool" value="true"/>
   </properties>
  </object>
  <object id="125" name="door4" class="door" x="1392" y="1376" width="16" height="48">
   <properties>
    <property name="draw" type="bool" value="true"/>
    <property name="skin" type="int" value="0"/>
    <property name="startActive" type="bool" value="true"/>
   </properties>
  </object>
  <object id="126" name="door5" class="door" x="2000" y="1328" width="16" height="80">
   <properties>
    <property name="draw" type="bool" value="true"/>
    <property name="skin" type="int" value="0"/>
    <property name="startActive" type="bool" value="true"/>
   </properties>
  </object>
  <object id="127" name="door6" class="door" x="2480" y="1408" width="16" height="80">
   <properties>
    <property name="draw" type="bool" value="true"/>
    <property name="skin" type="int" value="0"/>
    <property name="startActive" type="bool" value="true"/>
   </properties>
  </object>
  <object id="129" name="door2" class="door" x="352" y="640" width="48" height="16">
   <properties>
    <property name="draw" type="bool" value="true"/>
    <property name="skin" type="int" value="0"/>
    <property name="startActive" type="bool" value="true"/>
   </properties>
  </object>
  <object id="132" name="ladder1" class="ladder" x="968" y="304" width="16" height="208">
   <properties>
    <property name="draw" type="bool" value="true"/>
    <property name="skin" type="int" value="0"/>
    <property name="startActive" type="bool" value="false"/>
   </properties>
  </object>
  <object id="133" name="switch1" class="switch" x="1040" y="488">
   <properties>
    <property name="draw" type="bool" value="true"/>
    <property name="once" type="bool" value="true"/>
    <property name="skin" type="int" value="0"/>
    <property name="startActive" type="bool" value="true"/>
   </properties>
   <point/>
  </object>
  <object id="146" name="magnet2" class="magnet" x="2496" y="1360">
   <properties>
    <property name="direction" type="bool" value="false"/>
    <property name="draw" type="bool" value="true"/>
    <property name="size" type="int" value="0"/>
    <property name="startActive" type="bool" value="true"/>
   </properties>
   <point/>
  </object>
  <object id="148" class="wireOverlay" x="932" y="508">
   <properties>
    <property name="target" value="switch1"/>
   </properties>
   <polyline points="108,-20 108,36 -4,36 -4,-140 28,-180"/>
  </object>
  <object id="149" class="wireOverlay" x="2404" y="1394">
   <properties>
    <property name="target" value="magnet2"/>
   </properties>
   <polyline points="92,-34 60,-34 60,-2 84,14"/>
  </object>
  <object id="150" name="magnet3" class="magnet" x="2048" y="1456">
   <properties>
    <property name="direction" type="bool" value="false"/>
    <property name="draw" type="bool" value="true"/>
    <property name="size" type="int" value="0"/>
    <property name="startActive" type="bool" value="true"/>
   </properties>
   <point/>
  </object>
  <object id="151" name="magnet1" class="magnet" x="2496" y="1312">
   <properties>
    <property name="direction" type="bool" value="false"/>
    <property name="draw" type="bool" value="true"/>
    <property name="size" type="int" value="1"/>
    <property name="startActive" type="bool" value="true"/>
   </properties>
   <point/>
  </object>
  <object id="152" class="wireOverlay" x="2404" y="1346">
   <properties>
    <property name="target" value="magnet1"/>
   </properties>
   <polyline points="92,-34 68,-34 68,-10 84,62"/>
  </object>
  <object id="153" class="wireOverlay" x="1930" y="1451">
   <properties>
    <property name="target" value="magnet3"/>
   </properties>
   <polyline points="78,-43 78,-11 118,5"/>
  </object>
  <object id="158" class="wireOverlay" x="1305" y="1300">
   <properties>
    <property name="target" value="magnet4"/>
   </properties>
   <polyline points="151,-36 95,12 95,76"/>
  </object>
  <object id="159" name="magnet4" class="magnet" x="1456" y="1264">
   <properties>
    <property name="direction" type="bool" value="false"/>
    <property name="draw" type="bool" value="true"/>
    <property name="size" type="int" value="0"/>
    <property name="startActive" type="bool" value="true"/>
   </properties>
   <point/>
  </object>
  <object id="160" name="magnet5" class="magnet" x="592" y="848">
   <properties>
    <property name="direction" type="bool" value="false"/>
    <property name="draw" type="bool" value="true"/>
    <property name="size" type="int" value="2"/>
    <property name="startActive" type="bool" value="true"/>
   </properties>
   <point/>
  </object>
  <object id="161" name="magnet6" class="magnet" x="656" y="560">
   <properties>
    <property name="direction" type="bool" value="false"/>
    <property name="draw" type="bool" value="true"/>
    <property name="size" type="int" value="2"/>
    <property name="startActive" type="bool" value="true"/>
   </properties>
   <point/>
  </object>
  <object id="162" class="wireOverlay" x="548" y="580">
   <properties>
    <property name="target" value="magnet6"/>
   </properties>
   <polyline points="108,-20 -20,60 -20,492 -272,492 -272,620"/>
  </object>
  <object id="163" class="wireOverlay" x="484" y="868">
   <properties>
    <property name="target" value="magnet5"/>
   </properties>
   <polyline points="108,-20 28,28 28,188 -200,188 -200,332"/>
  </object>
  <object id="168" name="magnet7" class="magnet" x="224" y="480">
   <properties>
    <property name="direction" type="bool" value="false"/>
    <property name="draw" type="bool" value="true"/>
    <property name="size" type="int" value="2"/>
    <property name="startActive" type="bool" value="true"/>
   </properties>
   <point/>
  </object>
  <object id="169" class="wireOverlay" x="196" y="660">
   <properties>
    <property name="target" value="magnet7"/>
   </properties>
   <polyline points="204,-12 236,-12 236,-124 -4,-124 -4,-140 28,-180"/>
  </object>
 </objectgroup>
 <objectgroup id="3" name="general">
  <object id="120" name="trans_start" class="transition" x="2544" y="32" width="80" height="16">
   <properties>
    <property name="endTarget" value=""/>
    <property name="start" type="bool" value="true"/>
    <property name="targetLevel" type="int" value="0"/>
   </properties>
  </object>
  <object id="121" class="transition" x="400" y="1568" width="48" height="16">
   <properties>
    <property name="endTarget" value="trans_start"/>
    <property name="start" type="bool" value="false"/>
    <property name="targetLevel" type="int" value="8"/>
   </properties>
  </object>
  <object id="137" class="spiralDoor" x="2560" y="288" width="16" height="32">
   <properties>
    <property name="startActive" type="bool" value="true"/>
    <property name="teleportTarget" value=""/>
   </properties>
  </object>
  <object id="139" class="sinkpit" x="1952" y="336" width="512" height="16">
   <properties>
    <property name="count" type="int" value="2"/>
    <property name="draw" type="bool" value="true"/>
    <property name="maxAttacking" type="int" value="1"/>
    <property name="skin" type="int" value="0"/>
   </properties>
  </object>
  <object id="140" class="blockade" x="672" y="240" width="16" height="80">
   <properties>
    <property name="ballistaVunerable" type="bool" value="false"/>
    <property name="skin" type="int" value="0"/>
    <property name="type" type="int" value="0"/>
   </properties>
  </object>
  <object id="142" class="catalyst" x="1186" y="1592" width="28" height="8">
   <properties>
    <property name="boostMult" type="float" value="2"/>
    <property name="charged" type="bool" value="false"/>
    <property name="draw" type="bool" value="true"/>
    <property name="startActive" type="bool" value="true"/>
   </properties>
  </object>
  <object id="143" class="catalyst" x="514" y="520" width="28" height="8">
   <properties>
    <property name="boostMult" type="float" value="1"/>
    <property name="charged" type="bool" value="false"/>
    <property name="draw" type="bool" value="true"/>
    <property name="startActive" type="bool" value="true"/>
   </properties>
  </object>
  <object id="144" class="blockade" x="2144" y="528" width="16" height="96">
   <properties>
    <property name="ballistaVunerable" type="bool" value="false"/>
    <property name="skin" type="int" value="0"/>
    <property name="type" type="int" value="0"/>
   </properties>
  </object>
  <object id="164" class="blockade" x="944" y="656" width="16" height="64">
   <properties>
    <property name="ballistaVunerable" type="bool" value="false"/>
    <property name="skin" type="int" value="0"/>
    <property name="type" type="int" value="1"/>
   </properties>
  </object>
  <object id="165" class="blockade" x="944" y="960" width="16" height="80">
   <properties>
    <property name="ballistaVunerable" type="bool" value="false"/>
    <property name="skin" type="int" value="0"/>
    <property name="type" type="int" value="1"/>
   </properties>
  </object>
  <object id="166" class="spiralDoor" x="1296" y="1408" width="16" height="32">
   <properties>
    <property name="startActive" type="bool" value="true"/>
    <property name="teleportTarget" value=""/>
   </properties>
  </object>
  <object id="167" class="ladder" x="680" y="704" width="16" height="144">
   <properties>
    <property name="draw" type="bool" value="true"/>
    <property name="skin" type="int" value="0"/>
    <property name="startActive" type="bool" value="false"/>
   </properties>
  </object>
  <object id="192" class="catalyst" x="1650" y="1480" width="28" height="8">
   <properties>
    <property name="boostMult" type="float" value="1"/>
    <property name="charged" type="bool" value="false"/>
    <property name="draw" type="bool" value="true"/>
    <property name="startActive" type="bool" value="true"/>
   </properties>
  </object>
  <object id="250" name="trig_fallPlain1" class="trigger" x="-256" y="1472" width="352" height="64">
   <properties>
    <property name="corpses" type="bool" value="false"/>
    <property name="npcs" type="bool" value="false"/>
    <property name="once" type="bool" value="true"/>
    <property name="player" type="bool" value="true"/>
    <property name="startActive" type="bool" value="true"/>
   </properties>
  </object>
  <object id="251" name="trig_fallPlain1" class="trigger" x="2720" y="1648" width="352" height="64">
   <properties>
    <property name="corpses" type="bool" value="false"/>
    <property name="npcs" type="bool" value="false"/>
    <property name="once" type="bool" value="true"/>
    <property name="player" type="bool" value="true"/>
    <property name="startActive" type="bool" value="true"/>
   </properties>
  </object>
  <object id="372" class="ladder" x="2576" y="1152" width="16" height="336">
   <properties>
    <property name="draw" type="bool" value="true"/>
    <property name="skin" type="int" value="0"/>
    <property name="startActive" type="bool" value="true"/>
   </properties>
  </object>
  <object id="374" class="reverb" x="1392" y="969" width="579" height="579">
   <properties>
    <property name="minRadius" type="float" value="10"/>
    <property name="reverbType" type="int" value="0"/>
    <property name="wetness" type="float" value="8"/>
   </properties>
   <ellipse/>
  </object>
  <object id="375" class="reverb" x="841" y="101" width="579" height="579">
   <properties>
    <property name="minRadius" type="float" value="10"/>
    <property name="reverbType" type="int" value="3"/>
    <property name="wetness" type="float" value="8"/>
   </properties>
   <ellipse/>
  </object>
  <object id="376" class="reverb" x="955" y="1171" width="475" height="475">
   <properties>
    <property name="minRadius" type="float" value="10"/>
    <property name="reverbType" type="int" value="3"/>
    <property name="wetness" type="float" value="8"/>
   </properties>
   <ellipse/>
  </object>
  <object id="377" class="reverb" x="891" y="631" width="575" height="575">
   <properties>
    <property name="minRadius" type="float" value="10"/>
    <property name="reverbType" type="int" value="3"/>
    <property name="wetness" type="float" value="8"/>
   </properties>
   <ellipse/>
  </object>
  <object id="378" class="reverb" x="2016" y="64" width="353" height="353">
   <properties>
    <property name="minRadius" type="float" value="10"/>
    <property name="reverbType" type="int" value="0"/>
    <property name="wetness" type="float" value="8"/>
   </properties>
   <ellipse/>
  </object>
  <object id="379" class="collider" x="64" y="624" width="32" height="655">
   <properties>
    <property name="tags" value="ex_player"/>
   </properties>
  </object>
  <object id="380" class="collider" x="2720" y="848" width="32" height="655">
   <properties>
    <property name="tags" value="ex_player"/>
   </properties>
  </object>
 </objectgroup>
 <objectgroup color="#00ff00" id="4" name="nodegraph">
  <object id="331" class="node" x="2512" y="304">
   <point/>
  </object>
  <object id="332" class="node" x="1904" y="304">
   <point/>
  </object>
  <object id="333" class="node" x="1544" y="304">
   <point/>
  </object>
  <object id="334" class="node" x="1480" y="304">
   <point/>
  </object>
  <object id="335" class="node" x="976" y="304">
   <point/>
  </object>
  <object id="336" class="node" x="576" y="304">
   <point/>
  </object>
  <object id="337" class="node" x="1184" y="496">
   <point/>
  </object>
  <object id="338" class="node" x="1200" y="704">
   <point/>
  </object>
  <object id="339" class="node" x="1544" y="608">
   <point/>
  </object>
  <object id="340" class="node" x="1324" y="658">
   <point/>
  </object>
  <object id="341" class="node" x="1840" y="640">
   <point/>
  </object>
  <object id="342" class="node" x="2000" y="608">
   <point/>
  </object>
  <object id="343" class="node" x="2368" y="608">
   <point/>
  </object>
  <object id="344" class="node" x="2416" y="1168">
   <point/>
  </object>
  <object id="345" class="node" x="2360" y="944">
   <point/>
  </object>
  <object id="346" class="node" x="2584" y="976">
   <point/>
  </object>
  <object id="347" class="node" x="2096" y="1168">
   <point/>
  </object>
  <object id="348" class="node" x="2200" y="944">
   <point/>
  </object>
  <object id="349" class="node" x="2504" y="1168">
   <point/>
  </object>
  <object id="350" class="node" x="2560" y="1472">
   <point/>
  </object>
  <object id="351" class="node" x="2056" y="1392">
   <point/>
  </object>
  <object id="352" class="node" x="1960" y="1392">
   <point/>
  </object>
  <object id="353" class="node" x="1664" y="1472">
   <point/>
  </object>
  <object id="354" class="node" x="1560" y="1040">
   <point/>
  </object>
  <object id="355" class="node" x="1768" y="1040">
   <point/>
  </object>
  <object id="356" class="node" x="1464" y="1408">
   <point/>
  </object>
  <object id="357" class="node" x="1328" y="1424">
   <point/>
  </object>
  <object id="358" class="node" x="1152" y="1216">
   <point/>
  </object>
  <object id="359" class="node" x="1168" y="1584">
   <point/>
  </object>
  <object id="360" class="node" x="1232" y="1024">
   <point/>
  </object>
  <object id="361" class="node" x="1104" y="848">
   <point/>
  </object>
  <object id="362" class="node" x="1016" y="704">
   <point/>
  </object>
  <object id="363" class="node" x="784" y="704">
   <point/>
  </object>
  <object id="364" class="node" x="304" y="1024">
   <point/>
  </object>
  <object id="365" class="node" x="328" y="816">
   <point/>
  </object>
  <object id="366" class="node" x="400" y="512">
   <point/>
  </object>
  <object id="367" class="node" x="2224" y="320">
   <point/>
  </object>
  <object id="368" class="node" x="752" y="1024">
   <point/>
  </object>
  <object id="369" class="node" x="1280" y="1216">
   <point/>
  </object>
  <object id="370" class="node" x="1200" y="1424">
   <point/>
  </object>
  <object id="371" class="node" x="992" y="496">
   <point/>
  </object>
 </objectgroup>
 <objectgroup color="#ff8284" id="7" name="npcs">
  <object id="253" class="npc" x="1648" y="272">
   <properties>
    <property name="id" type="int" value="1"/>
    <property name="noticeDist" type="int" value="300"/>
    <property name="perma" type="bool" value="false"/>
    <property name="phantom" type="int" value="0"/>
    <property name="wanderDist" type="int" value="0"/>
   </properties>
   <point/>
  </object>
  <object id="254" class="npc" x="1760" y="608">
   <properties>
    <property name="id" type="int" value="10"/>
    <property name="noticeDist" type="int" value="300"/>
    <property name="perma" type="bool" value="false"/>
    <property name="phantom" type="int" value="0"/>
    <property name="wanderDist" type="int" value="0"/>
   </properties>
   <point/>
  </object>
  <object id="255" class="npc" x="1824" y="608">
   <properties>
    <property name="id" type="int" value="10"/>
    <property name="noticeDist" type="int" value="300"/>
    <property name="perma" type="bool" value="false"/>
    <property name="phantom" type="int" value="0"/>
    <property name="wanderDist" type="int" value="0"/>
   </properties>
   <point/>
  </object>
  <object id="256" class="npc" x="1904" y="608">
   <properties>
    <property name="id" type="int" value="10"/>
    <property name="noticeDist" type="int" value="300"/>
    <property name="perma" type="bool" value="false"/>
    <property name="phantom" type="int" value="0"/>
    <property name="wanderDist" type="int" value="0"/>
   </properties>
   <point/>
  </object>
  <object id="257" class="npc" x="1248" y="288">
   <properties>
    <property name="id" type="int" value="10"/>
    <property name="noticeDist" type="int" value="300"/>
    <property name="perma" type="bool" value="false"/>
    <property name="phantom" type="int" value="0"/>
    <property name="wanderDist" type="int" value="0"/>
   </properties>
   <point/>
  </object>
  <object id="259" class="npc" x="2304" y="912">
   <properties>
    <property name="id" type="int" value="1"/>
    <property name="noticeDist" type="int" value="300"/>
    <property name="perma" type="bool" value="false"/>
    <property name="phantom" type="int" value="0"/>
    <property name="wanderDist" type="int" value="0"/>
   </properties>
   <point/>
  </object>
  <object id="260" class="npc" x="2080" y="1136">
   <properties>
    <property name="id" type="int" value="0"/>
    <property name="noticeDist" type="int" value="300"/>
    <property name="perma" type="bool" value="false"/>
    <property name="phantom" type="int" value="1"/>
    <property name="wanderDist" type="int" value="0"/>
   </properties>
   <point/>
  </object>
  <object id="261" class="npc" x="2640" y="944">
   <properties>
    <property name="id" type="int" value="0"/>
    <property name="noticeDist" type="int" value="300"/>
    <property name="perma" type="bool" value="false"/>
    <property name="phantom" type="int" value="0"/>
    <property name="wanderDist" type="int" value="0"/>
   </properties>
   <point/>
  </object>
  <object id="262" class="npc" x="2128" y="1472">
   <properties>
    <property name="id" type="int" value="10"/>
    <property name="noticeDist" type="int" value="300"/>
    <property name="perma" type="bool" value="false"/>
    <property name="phantom" type="int" value="0"/>
    <property name="wanderDist" type="int" value="0"/>
   </properties>
   <point/>
  </object>
  <object id="263" class="npc" x="2192" y="1472">
   <properties>
    <property name="id" type="int" value="10"/>
    <property name="noticeDist" type="int" value="300"/>
    <property name="perma" type="bool" value="false"/>
    <property name="phantom" type="int" value="0"/>
    <property name="wanderDist" type="int" value="0"/>
   </properties>
   <point/>
  </object>
  <object id="265" class="npc" x="1472" y="1312">
   <properties>
    <property name="id" type="int" value="10"/>
    <property name="noticeDist" type="int" value="300"/>
    <property name="perma" type="bool" value="false"/>
    <property name="phantom" type="int" value="0"/>
    <property name="wanderDist" type="int" value="0"/>
   </properties>
   <point/>
  </object>
  <object id="266" class="npc" x="1520" y="1312">
   <properties>
    <property name="id" type="int" value="10"/>
    <property name="noticeDist" type="int" value="300"/>
    <property name="perma" type="bool" value="false"/>
    <property name="phantom" type="int" value="0"/>
    <property name="wanderDist" type="int" value="0"/>
   </properties>
   <point/>
  </object>
  <object id="267" class="npc" x="1520" y="1472">
   <properties>
    <property name="id" type="int" value="10"/>
    <property name="noticeDist" type="int" value="300"/>
    <property name="perma" type="bool" value="false"/>
    <property name="phantom" type="int" value="0"/>
    <property name="wanderDist" type="int" value="0"/>
   </properties>
   <point/>
  </object>
  <object id="270" class="npc" x="1863" y="1461">
   <properties>
    <property name="id" type="int" value="2"/>
    <property name="noticeDist" type="int" value="300"/>
    <property name="perma" type="bool" value="false"/>
    <property name="phantom" type="int" value="0"/>
    <property name="wanderDist" type="int" value="0"/>
   </properties>
   <point/>
  </object>
  <object id="271" class="npc" x="1845" y="1465">
   <properties>
    <property name="id" type="int" value="2"/>
    <property name="noticeDist" type="int" value="300"/>
    <property name="perma" type="bool" value="false"/>
    <property name="phantom" type="int" value="0"/>
    <property name="wanderDist" type="int" value="0"/>
   </properties>
   <point/>
  </object>
  <object id="272" class="npc" x="1834" y="1456">
   <properties>
    <property name="id" type="int" value="0"/>
    <property name="noticeDist" type="int" value="300"/>
    <property name="perma" type="bool" value="false"/>
    <property name="phantom" type="int" value="0"/>
    <property name="wanderDist" type="int" value="0"/>
   </properties>
   <point/>
  </object>
  <object id="274" class="npc" x="1817" y="1009">
   <properties>
    <property name="id" type="int" value="1"/>
    <property name="noticeDist" type="int" value="300"/>
    <property name="perma" type="bool" value="false"/>
    <property name="phantom" type="int" value="0"/>
    <property name="wanderDist" type="int" value="0"/>
   </properties>
   <point/>
  </object>
  <object id="275" class="npc" x="1120" y="1184">
   <properties>
    <property name="id" type="int" value="1"/>
    <property name="noticeDist" type="int" value="300"/>
    <property name="perma" type="bool" value="false"/>
    <property name="phantom" type="int" value="0"/>
    <property name="wanderDist" type="int" value="0"/>
   </properties>
   <point/>
  </object>
  <object id="276" class="npc" x="1232" y="672">
   <properties>
    <property name="id" type="int" value="1"/>
    <property name="noticeDist" type="int" value="300"/>
    <property name="perma" type="bool" value="false"/>
    <property name="phantom" type="int" value="0"/>
    <property name="wanderDist" type="int" value="0"/>
   </properties>
   <point/>
  </object>
  <object id="277" class="npc" x="1296" y="992">
   <properties>
    <property name="id" type="int" value="0"/>
    <property name="noticeDist" type="int" value="300"/>
    <property name="perma" type="bool" value="false"/>
    <property name="phantom" type="int" value="0"/>
    <property name="wanderDist" type="int" value="0"/>
   </properties>
   <point/>
  </object>
  <object id="279" class="npc" x="768" y="640">
   <properties>
    <property name="id" type="int" value="4"/>
    <property name="noticeDist" type="int" value="400"/>
    <property name="perma" type="bool" value="false"/>
    <property name="phantom" type="int" value="0"/>
    <property name="wanderDist" type="int" value="0"/>
   </properties>
   <point/>
  </object>
  <object id="280" class="npc" x="688" y="976">
   <properties>
    <property name="id" type="int" value="4"/>
    <property name="noticeDist" type="int" value="400"/>
    <property name="perma" type="bool" value="false"/>
    <property name="phantom" type="int" value="0"/>
    <property name="wanderDist" type="int" value="0"/>
   </properties>
   <point/>
  </object>
  <object id="281" class="npc" x="448" y="448">
   <properties>
    <property name="id" type="int" value="5"/>
    <property name="noticeDist" type="int" value="400"/>
    <property name="perma" type="bool" value="false"/>
    <property name="phantom" type="int" value="0"/>
    <property name="wanderDist" type="int" value="0"/>
   </properties>
   <point/>
  </object>
  <object id="282" class="npc" x="384" y="800">
   <properties>
    <property name="id" type="int" value="10"/>
    <property name="noticeDist" type="int" value="300"/>
    <property name="perma" type="bool" value="false"/>
    <property name="phantom" type="int" value="0"/>
    <property name="wanderDist" type="int" value="0"/>
   </properties>
   <point/>
  </object>
  <object id="283" class="npc" x="432" y="800">
   <properties>
    <property name="id" type="int" value="10"/>
    <property name="noticeDist" type="int" value="300"/>
    <property name="perma" type="bool" value="false"/>
    <property name="phantom" type="int" value="0"/>
    <property name="wanderDist" type="int" value="0"/>
   </properties>
   <point/>
  </object>
 </objectgroup>
</map>
